luts/Cinematic_Teal_Orange.cube
# Cinematic_Teal_Orange LUT
# Created for MachinePaintingNodes testing
TITLE "Cinematic_Teal_Orange"
LUT_3D_SIZE 5
DOMAIN_MIN 0.0 0.0 0.0
DOMAIN_MAX 1.0 1.0 1.0
0.000000 0.020000 0.030000
0.225000 0.020000 0.030000
0.450000 0.020000 0.030000
0.675000 0.020000 0.030000
0.900000 0.020000 0.030000
0.000000 0.257500 0.030000
0.225000 0.257500 0.030000
0.450000 0.257500 0.030000
0.675000 0.257500 0.030000
0.900000 0.257500 0.030000
0.000000 0.495000 0.030000
0.225000 0.495000 0.030000
0.450000 0.495000 0.030000
0.807500 0.490000 0.000000
1.000000 0.490000 0.000000
0.000000 0.732500 0.030000
0.282500 0.735000 0.000000
0.545000 0.735000 0.000000
0.807500 0.735000 0.000000
1.000000 0.735000 0.000000
0.020000 0.980000 0.000000
0.282500 0.980000 0.000000
0.545000 0.980000 0.000000
0.807500 0.980000 0.000000
1.000000 0.980000 0.000000
0.000000 0.020000 0.292500
0.225000 0.020000 0.292500
0.450000 0.020000 0.292500
0.675000 0.020000 0.292500
0.900000 0.020000 0.292500
0.000000 0.257500 0.292500
0.225000 0.257500 0.292500
0.450000 0.257500 0.292500
0.675000 0.257500 0.292500
0.900000 0.257500 0.292500
0.000000 0.495000 0.292500
0.225000 0.495000 0.292500
0.450000 0.495000 0.292500
0.807500 0.490000 0.225000
1.000000 0.490000 0.225000
0.000000 0.732500 0.292500
0.282500 0.735000 0.225000
0.545000 0.735000 0.225000
0.807500 0.735000 0.225000
1.000000 0.735000 0.225000
0.020000 0.980000 0.225000
0.282500 0.980000 0.225000
0.545000 0.980000 0.225000
0.807500 0.980000 0.225000
1.000000 0.980000 0.225000
0.000000 0.020000 0.555000
0.225000 0.020000 0.555000
0.450000 0.020000 0.555000
0.675000 0.020000 0.555000
0.900000 0.020000 0.555000
0.000000 0.257500 0.555000
0.225000 0.257500 0.555000
0.450000 0.257500 0.555000
0.675000 0.257500 0.555000
1.000000 0.245000 0.450000
0.000000 0.495000 0.555000
0.225000 0.495000 0.555000
0.450000 0.495000 0.555000
0.807500 0.490000 0.450000
1.000000 0.490000 0.450000
0.000000 0.732500 0.555000
0.282500 0.735000 0.450000
0.545000 0.735000 0.450000
0.807500 0.735000 0.450000
1.000000 0.735000 0.450000
0.020000 0.980000 0.450000
0.282500 0.980000 0.450000
0.545000 0.980000 0.450000
0.807500 0.980000 0.450000
1.000000 0.980000 0.450000
0.000000 0.020000 0.817500
0.225000 0.020000 0.817500
0.450000 0.020000 0.817500
0.675000 0.020000 0.817500
0.900000 0.020000 0.817500
0.000000 0.257500 0.817500
0.225000 0.257500 0.817500
0.450000 0.257500 0.817500
0.675000 0.257500 0.817500
1.000000 0.245000 0.675000
0.000000 0.495000 0.817500
0.225000 0.495000 0.817500
0.545000 0.490000 0.675000
0.807500 0.490000 0.675000
1.000000 0.490000 0.675000
0.020000 0.735000 0.675000
0.282500 0.735000 0.675000
0.545000 0.735000 0.675000
0.807500 0.735000 0.675000
1.000000 0.735000 0.675000
0.020000 0.980000 0.675000
0.282500 0.980000 0.675000
0.545000 0.980000 0.675000
0.807500 0.980000 0.675000
1.000000 0.980000 0.675000
0.000000 0.020000 1.000000
0.225000 0.020000 1.000000
0.450000 0.020000 1.000000
0.675000 0.020000 1.000000
0.900000 0.020000 1.000000
0.000000 0.257500 1.000000
0.225000 0.257500 1.000000
0.450000 0.257500 1.000000
0.675000 0.257500 1.000000
1.000000 0.245000 0.900000
0.000000 0.495000 1.000000
0.225000 0.495000 1.000000
0.545000 0.490000 0.900000
0.807500 0.490000 0.900000
1.000000 0.490000 0.900000
0.020000 0.735000 0.900000
0.282500 0.735000 0.900000
0.545000 0.735000 0.900000
0.807500 0.735000 0.900000
1.000000 0.735000 0.900000
0.020000 0.980000 0.900000
0.282500 0.980000 0.900000
0.545000 0.980000 0.900000
0.807500 0.980000 0.900000
1.000000 0.980000 0.900000
