luts/Cinematic_Teal_Orange.cube
# Cinematic_Teal_Orange LUT
# Created for MachinePaintingNodes testing
TITLE "Cinematic_Teal_Orange"
LUT_3D_SIZE 17
DOMAIN_MIN 0.0 0.0 0.0
DOMAIN_MAX 1.0 1.0 1.0
0.000000 0.020000 0.030000
0.056250 0.020000 0.030000
0.112500 0.020000 0.030000
0.168750 0.020000 0.030000
0.225000 0.020000 0.030000
0.281250 0.020000 0.030000
0.337500 0.020000 0.030000
0.393750 0.020000 0.030000
0.450000 0.020000 0.030000
0.506250 0.020000 0.030000
0.562500 0.020000 0.030000
0.618750 0.020000 0.030000
0.675000 0.020000 0.030000
0.731250 0.020000 0.030000
0.787500 0.020000 0.030000
0.843750 0.020000 0.030000
0.900000 0.020000 0.030000
0.000000 0.079375 0.030000
0.056250 0.079375 0.030000
0.112500 0.079375 0.030000
0.168750 0.079375 0.030000
0.225000 0.079375 0.030000
0.281250 0.079375 0.030000
0.337500 0.079375 0.030000
0.393750 0.079375 0.030000
0.450000 0.079375 0.030000
0.506250 0.079375 0.030000
0.562500 0.079375 0.030000
0.618750 0.079375 0.030000
0.675000 0.079375 0.030000
0.731250 0.079375 0.030000
0.787500 0.079375 0.030000
0.843750 0.079375 0.030000
0.900000 0.079375 0.030000
0.000000 0.138750 0.030000
0.056250 0.138750 0.030000
0.112500 0.138750 0.030000
0.168750 0.138750 0.030000
0.225000 0.138750 0.030000
0.281250 0.138750 0.030000
0.337500 0.138750 0.030000
0.393750 0.138750 0.030000
0.450000 0.138750 0.030000
0.506250 0.138750 0.030000
0.562500 0.138750 0.030000
0.618750 0.138750 0.030000
0.675000 0.138750 0.030000
0.731250 0.138750 0.030000
0.787500 0.138750 0.030000
0.843750 0.138750 0.030000
0.900000 0.138750 0.030000
0.000000 0.198125 0.030000
0.056250 0.198125 0.030000
0.112500 0.198125 0.030000
0.168750 0.198125 0.030000
0.225000 0.198125 0.030000
0.281250 0.198125 0.030000
0.337500 0.198125 0.030000
0.393750 0.198125 0.030000
0.450000 0.198125 0.030000
0.506250 0.198125 0.030000
0.562500 0.198125 0.030000
0.618750 0.198125 0.030000
0.675000 0.198125 0.030000
0.731250 0.198125 0.030000
0.787500 0.198125 0.030000
0.843750 0.198125 0.030000
0.900000 0.198125 0.030000
0.000000 0.257500 0.030000
0.056250 0.257500 0.030000
0.112500 0.257500 0.030000
0.168750 0.257500 0.030000
0.225000 0.257500 0.030000
0.281250 0.257500 0.030000
0.337500 0.257500 0.030000
0.393750 0.257500 0.030000
0.450000 0.257500 0.030000
0.506250 0.257500 0.030000
0.562500 0.257500 0.030000
0.618750 0.257500 0.030000
0.675000 0.257500 0.030000
0.731250 0.257500 0.030000
0.787500 0.257500 0.030000
0.843750 0.257500 0.030000
0.900000 0.257500 0.030000
0.000000 0.316875 0.030000
0.056250 0.316875 0.030000
0.112500 0.316875 0.030000
0.168750 0.316875 0.030000
0.225000 0.316875 0.030000
0.281250 0.316875 0.030000
0.337500 0.316875 0.030000
0.393750 0.316875 0.030000
0.450000 0.316875 0.030000
0.506250 0.316875 0.030000
0.562500 0.316875 0.030000
0.618750 0.316875 0.030000
0.675000 0.316875 0.030000
0.731250 0.316875 0.030000
0.787500 0.316875 0.030000
0.843750 0.316875 0.030000
0.900000 0.316875 0.030000
0.000000 0.376250 0.030000
0.056250 0.376250 0.030000
0.112500 0.376250 0.030000
0.168750 0.376250 0.030000
0.225000 0.376250 0.030000
0.281250 0.376250 0.030000
0.337500 0.376250 0.030000
0.393750 0.376250 0.030000
0.450000 0.376250 0.030000
0.506250 0.376250 0.030000
0.562500 0.376250 0.030000
0.618750 0.376250 0.030000
0.675000 0.376250 0.030000
0.731250 0.376250 0.030000
0.787500 0.376250 0.030000
1.000000 0.367500 0.000000
1.000000 0.367500 0.000000
0.000000 0.435625 0.030000
0.056250 0.435625 0.030000
0.112500 0.435625 0.030000
0.168750 0.435625 0.030000
0.225000 0.435625 0.030000
0.281250 0.435625 0.030000
0.337500 0.435625 0.030000
0.393750 0.435625 0.030000
0.450000 0.435625 0.030000
0.506250 0.435625 0.030000
0.562500 0.435625 0.030000
0.618750 0.435625 0.030000
0.675000 0.435625 0.030000
0.731250 0.435625 0.030000
0.938750 0.428750 0.000000
1.000000 0.428750 0.000000
1.000000 0.428750 0.000000
0.000000 0.495000 0.030000
0.056250 0.495000 0.030000
0.112500 0.495000 0.030000
0.168750 0.495000 0.030000
0.225000 0.495000 0.030000
0.281250 0.495000 0.030000
0.337500 0.495000 0.030000
0.393750 0.495000 0.030000
0.450000 0.495000 0.030000
0.506250 0.495000 0.030000
0.562500 0.495000 0.030000
0.618750 0.495000 0.030000
0.807500 0.490000 0.000000
0.873125 0.490000 0.000000
0.938750 0.490000 0.000000
1.000000 0.490000 0.000000
1.000000 0.490000 0.000000
0.000000 0.554375 0.030000
0.056250 0.554375 0.030000
0.112500 0.554375 0.030000
0.168750 0.554375 0.030000
0.225000 0.554375 0.030000
0.281250 0.554375 0.030000
0.337500 0.554375 0.030000
0.393750 0.554375 0.030000
0.450000 0.554375 0.030000
0.506250 0.554375 0.030000
0.676250 0.551250 0.000000
0.741875 0.551250 0.000000
0.807500 0.551250 0.000000
0.873125 0.551250 0.000000
0.938750 0.551250 0.000000
1.000000 0.551250 0.000000
1.000000 0.551250 0.000000
0.000000 0.613750 0.030000
0.056250 0.613750 0.030000
0.112500 0.613750 0.030000
0.168750 0.613750 0.030000
0.225000 0.613750 0.030000
0.281250 0.613750 0.030000
0.337500 0.613750 0.030000
0.393750 0.613750 0.030000
0.545000 0.612500 0.000000
0.610625 0.612500 0.000000
0.676250 0.612500 0.000000
0.741875 0.612500 0.000000
0.807500 0.612500 0.000000
0.873125 0.612500 0.000000
0.938750 0.612500 0.000000
1.000000 0.612500 0.000000
1.000000 0.612500 0.000000
0.000000 0.673125 0.030000
0.056250 0.673125 0.030000
0.112500 0.673125 0.030000
0.168750 0.673125 0.030000
0.225000 0.673125 0.030000
0.281250 0.673125 0.030000
0.413750 0.673750 0.000000
0.479375 0.673750 0.000000
0.545000 0.673750 0.000000
0.610625 0.673750 0.000000
0.676250 0.673750 0.000000
0.741875 0.673750 0.000000
0.807500 0.673750 0.000000
0.873125 0.673750 0.000000
0.938750 0.673750 0.000000
1.000000 0.673750 0.000000
1.000000 0.673750 0.000000
0.000000 0.732500 0.030000
0.056250 0.732500 0.030000
0.112500 0.732500 0.030000
0.168750 0.732500 0.030000
0.282500 0.735000 0.000000
0.348125 0.735000 0.000000
0.413750 0.735000 0.000000
0.479375 0.735000 0.000000
0.545000 0.735000 0.000000
0.610625 0.735000 0.000000
0.676250 0.735000 0.000000
0.741875 0.735000 0.000000
0.807500 0.735000 0.000000
0.873125 0.735000 0.000000
0.938750 0.735000 0.000000
1.000000 0.735000 0.000000
1.000000 0.735000 0.000000
0.000000 0.791875 0.030000
0.056250 0.791875 0.030000
0.151250 0.796250 0.000000
0.216875 0.796250 0.000000
0.282500 0.796250 0.000000
0.348125 0.796250 0.000000
0.413750 0.796250 0.000000
0.479375 0.796250 0.000000
0.545000 0.796250 0.000000
0.610625 0.796250 0.000000
0.676250 0.796250 0.000000
0.741875 0.796250 0.000000
0.807500 0.796250 0.000000
0.873125 0.796250 0.000000
0.938750 0.796250 0.000000
1.000000 0.796250 0.000000
1.000000 0.796250 0.000000
0.020000 0.857500 0.000000
0.085625 0.857500 0.000000
0.151250 0.857500 0.000000
0.216875 0.857500 0.000000
0.282500 0.857500 0.000000
0.348125 0.857500 0.000000
0.413750 0.857500 0.000000
0.479375 0.857500 0.000000
0.545000 0.857500 0.000000
0.610625 0.857500 0.000000
0.676250 0.857500 0.000000
0.741875 0.857500 0.000000
0.807500 0.857500 0.000000
0.873125 0.857500 0.000000
0.938750 0.857500 0.000000
1.000000 0.857500 0.000000
1.000000 0.857500 0.000000
0.020000 0.918750 0.000000
0.085625 0.918750 0.000000
0.151250 0.918750 0.000000
0.216875 0.918750 0.000000
0.282500 0.918750 0.000000
0.348125 0.918750 0.000000
0.413750 0.918750 0.000000
0.479375 0.918750 0.000000
0.545000 0.918750 0.000000
0.610625 0.918750 0.000000
0.676250 0.918750 0.000000
0.741875 0.918750 0.000000
0.807500 0.918750 0.000000
0.873125 0.918750 0.000000
0.938750 0.918750 0.000000
1.000000 0.918750 0.000000
1.000000 0.918750 0.000000
0.020000 0.980000 0.000000
0.085625 0.980000 0.000000
0.151250 0.980000 0.000000
0.216875 0.980000 0.000000
0.282500 0.980000 0.000000
0.348125 0.980000 0.000000
0.413750 0.980000 0.000000
0.479375 0.980000 0.000000
0.545000 0.980000 0.000000
0.610625 0.980000 0.000000
0.676250 0.980000 0.000000
0.741875 0.980000 0.000000
0.807500 0.980000 0.000000
0.873125 0.980000 0.000000
0.938750 0.980000 0.000000
1.000000 0.980000 0.000000
1.000000 0.980000 0.000000
0.000000 0.020000 0.095625
0.056250 0.020000 0.095625
0.112500 0.020000 0.095625
0.168750 0.020000 0.095625
0.225000 0.020000 0.095625
0.281250 0.020000 0.095625
0.337500 0.020000 0.095625
0.393750 0.020000 0.095625
0.450000 0.020000 0.095625
0.506250 0.020000 0.095625
0.562500 0.020000 0.095625
0.618750 0.020000 0.095625
0.675000 0.020000 0.095625
0.731250 0.020000 0.095625
0.787500 0.020000 0.095625
0.843750 0.020000 0.095625
0.900000 0.020000 0.095625
0.000000 0.079375 0.095625
0.056250 0.079375 0.095625
0.112500 0.079375 0.095625
0.168750 0.079375 0.095625
0.225000 0.079375 0.095625
0.281250 0.079375 0.095625
0.337500 0.079375 0.095625
0.393750 0.079375 0.095625
0.450000 0.079375 0.095625
0.506250 0.079375 0.095625
0.562500 0.079375 0.095625
0.618750 0.079375 0.095625
0.675000 0.079375 0.095625
0.731250 0.079375 0.095625
0.787500 0.079375 0.095625
0.843750 0.079375 0.095625
0.900000 0.079375 0.095625
0.000000 0.138750 0.095625
0.056250 0.138750 0.095625
0.112500 0.138750 0.095625
0.168750 0.138750 0.095625
0.225000 0.138750 0.095625
0.281250 0.138750 0.095625
0.337500 0.138750 0.095625
0.393750 0.138750 0.095625
0.450000 0.138750 0.095625
0.506250 0.138750 0.095625
0.562500 0.138750 0.095625
0.618750 0.138750 0.095625
0.675000 0.138750 0.095625
0.731250 0.138750 0.095625
0.787500 0.138750 0.095625
0.843750 0.138750 0.095625
0.900000 0.138750 0.095625
0.000000 0.198125 0.095625
0.056250 0.198125 0.095625
0.112500 0.198125 0.095625
0.168750 0.198125 0.095625
0.225000 0.198125 0.095625
0.281250 0.198125 0.095625
0.337500 0.198125 0.095625
0.393750 0.198125 0.095625
0.450000 0.198125 0.095625
0.506250 0.198125 0.095625
0.562500 0.198125 0.095625
0.618750 0.198125 0.095625
0.675000 0.198125 0.095625
0.731250 0.198125 0.095625
0.787500 0.198125 0.095625
0.843750 0.198125 0.095625
0.900000 0.198125 0.095625
0.000000 0.257500 0.095625
0.056250 0.257500 0.095625
0.112500 0.257500 0.095625
0.168750 0.257500 0.095625
0.225000 0.257500 0.095625
0.281250 0.257500 0.095625
0.337500 0.257500 0.095625
0.393750 0.257500 0.095625
0.450000 0.257500 0.095625
0.506250 0.257500 0.095625
0.562500 0.257500 0.095625
0.618750 0.257500 0.095625
0.675000 0.257500 0.095625
0.731250 0.257500 0.095625
0.787500 0.257500 0.095625
0.843750 0.257500 0.095625
0.900000 0.257500 0.095625
0.000000 0.316875 0.095625
0.056250 0.316875 0.095625
0.112500 0.316875 0.095625
0.168750 0.316875 0.095625
0.225000 0.316875 0.095625
0.281250 0.316875 0.095625
0.337500 0.316875 0.095625
0.393750 0.316875 0.095625
0.450000 0.316875 0.095625
0.506250 0.316875 0.095625
0.562500 0.316875 0.095625
0.618750 0.316875 0.095625
0.675000 0.316875 0.095625
0.731250 0.316875 0.095625
0.787500 0.316875 0.095625
0.843750 0.316875 0.095625
0.900000 0.316875 0.095625
0.000000 0.376250 0.095625
0.056250 0.376250 0.095625
0.112500 0.376250 0.095625
0.168750 0.376250 0.095625
0.225000 0.376250 0.095625
0.281250 0.376250 0.095625
0.337500 0.376250 0.095625
0.393750 0.376250 0.095625
0.450000 0.376250 0.095625
0.506250 0.376250 0.095625
0.562500 0.376250 0.095625
0.618750 0.376250 0.095625
0.675000 0.376250 0.095625
0.731250 0.376250 0.095625
0.787500 0.376250 0.095625
1.000000 0.367500 0.056250
1.000000 0.367500 0.056250
0.000000 0.435625 0.095625
0.056250 0.435625 0.095625
0.112500 0.435625 0.095625
0.168750 0.435625 0.095625
0.225000 0.435625 0.095625
0.281250 0.435625 0.095625
0.337500 0.435625 0.095625
0.393750 0.435625 0.095625
0.450000 0.435625 0.095625
0.506250 0.435625 0.095625
0.562500 0.435625 0.095625
0.618750 0.435625 0.095625
0.675000 0.435625 0.095625
0.873125 0.428750 0.056250
0.938750 0.428750 0.056250
1.000000 0.428750 0.056250
1.000000 0.428750 0.056250
0.000000 0.495000 0.095625
0.056250 0.495000 0.095625
0.112500 0.495000 0.095625
0.168750 0.495000 0.095625
0.225000 0.495000 0.095625
0.281250 0.495000 0.095625
0.337500 0.495000 0.095625
0.393750 0.495000 0.095625
0.450000 0.495000 0.095625
0.506250 0.495000 0.095625
0.562500 0.495000 0.095625
0.741875 0.490000 0.056250
0.807500 0.490000 0.056250
0.873125 0.490000 0.056250
0.938750 0.490000 0.056250
1.000000 0.490000 0.056250
1.000000 0.490000 0.056250
0.000000 0.554375 0.095625
0.056250 0.554375 0.095625
0.112500 0.554375 0.095625
0.168750 0.554375 0.095625
0.225000 0.554375 0.095625
0.281250 0.554375 0.095625
0.337500 0.554375 0.095625
0.393750 0.554375 0.095625
0.450000 0.554375 0.095625
0.610625 0.551250 0.056250
0.676250 0.551250 0.056250
0.741875 0.551250 0.056250
0.807500 0.551250 0.056250
0.873125 0.551250 0.056250
0.938750 0.551250 0.056250
1.000000 0.551250 0.056250
1.000000 0.551250 0.056250
0.000000 0.613750 0.095625
0.056250 0.613750 0.095625
0.112500 0.613750 0.095625
0.168750 0.613750 0.095625
0.225000 0.613750 0.095625
0.281250 0.613750 0.095625
0.337500 0.613750 0.095625
0.479375 0.612500 0.056250
0.545000 0.612500 0.056250
0.610625 0.612500 0.056250
0.676250 0.612500 0.056250
0.741875 0.612500 0.056250
0.807500 0.612500 0.056250
0.873125 0.612500 0.056250
0.938750 0.612500 0.056250
1.000000 0.612500 0.056250
1.000000 0.612500 0.056250
0.000000 0.673125 0.095625
0.056250 0.673125 0.095625
0.112500 0.673125 0.095625
0.168750 0.673125 0.095625
0.225000 0.673125 0.095625
0.348125 0.673750 0.056250
0.413750 0.673750 0.056250
0.479375 0.673750 0.056250
0.545000 0.673750 0.056250
0.610625 0.673750 0.056250
0.676250 0.673750 0.056250
0.741875 0.673750 0.056250
0.807500 0.673750 0.056250
0.873125 0.673750 0.056250
0.938750 0.673750 0.056250
1.000000 0.673750 0.056250
1.000000 0.673750 0.056250
0.000000 0.732500 0.095625
0.056250 0.732500 0.095625
0.112500 0.732500 0.095625
0.216875 0.735000 0.056250
0.282500 0.735000 0.056250
0.348125 0.735000 0.056250
0.413750 0.735000 0.056250
0.479375 0.735000 0.056250
0.545000 0.735000 0.056250
0.610625 0.735000 0.056250
0.676250 0.735000 0.056250
0.741875 0.735000 0.056250
0.807500 0.735000 0.056250
0.873125 0.735000 0.056250
0.938750 0.735000 0.056250
1.000000 0.735000 0.056250
1.000000 0.735000 0.056250
0.000000 0.791875 0.095625
0.085625 0.796250 0.056250
0.151250 0.796250 0.056250
0.216875 0.796250 0.056250
0.282500 0.796250 0.056250
0.348125 0.796250 0.056250
0.413750 0.796250 0.056250
0.479375 0.796250 0.056250
0.545000 0.796250 0.056250
0.610625 0.796250 0.056250
0.676250 0.796250 0.056250
0.741875 0.796250 0.056250
0.807500 0.796250 0.056250
0.873125 0.796250 0.056250
0.938750 0.796250 0.056250
1.000000 0.796250 0.056250
1.000000 0.796250 0.056250
0.020000 0.857500 0.056250
0.085625 0.857500 0.056250
0.151250 0.857500 0.056250
0.216875 0.857500 0.056250
0.282500 0.857500 0.056250
0.348125 0.857500 0.056250
0.413750 0.857500 0.056250
0.479375 0.857500 0.056250
0.545000 0.857500 0.056250
0.610625 0.857500 0.056250
0.676250 0.857500 0.056250
0.741875 0.857500 0.056250
0.807500 0.857500 0.056250
0.873125 0.857500 0.056250
0.938750 0.857500 0.056250
1.000000 0.857500 0.056250
1.000000 0.857500 0.056250
0.020000 0.918750 0.056250
0.085625 0.918750 0.056250
0.151250 0.918750 0.056250
0.216875 0.918750 0.056250
0.282500 0.918750 0.056250
0.348125 0.918750 0.056250
0.413750 0.918750 0.056250
0.479375 0.918750 0.056250
0.545000 0.918750 0.056250
0.610625 0.918750 0.056250
0.676250 0.918750 0.056250
0.741875 0.918750 0.056250
0.807500 0.918750 0.056250
0.873125 0.918750 0.056250
0.938750 0.918750 0.056250
1.000000 0.918750 0.056250
1.000000 0.918750 0.056250
0.020000 0.980000 0.056250
0.085625 0.980000 0.056250
0.151250 0.980000 0.056250
0.216875 0.980000 0.056250
0.282500 0.980000 0.056250
0.348125 0.980000 0.056250
0.413750 0.980000 0.056250
0.479375 0.980000 0.056250
0.545000 0.980000 0.056250
0.610625 0.980000 0.056250
0.676250 0.980000 0.056250
0.741875 0.980000 0.056250
0.807500 0.980000 0.056250
0.873125 0.980000 0.056250
0.938750 0.980000 0.056250
1.000000 0.980000 0.056250
1.000000 0.980000 0.056250
0.000000 0.020000 0.161250
0.056250 0.020000 0.161250
0.112500 0.020000 0.161250
0.168750 0.020000 0.161250
0.225000 0.020000 0.161250
0.281250 0.020000 0.161250
0.337500 0.020000 0.161250
0.393750 0.020000 0.161250
0.450000 0.020000 0.161250
0.506250 0.020000 0.161250
0.562500 0.020000 0.161250
0.618750 0.020000 0.161250
0.675000 0.020000 0.161250
0.731250 0.020000 0.161250
0.787500 0.020000 0.161250
0.843750 0.020000 0.161250
0.900000 0.020000 0.161250
0.000000 0.079375 0.161250
0.056250 0.079375 0.161250
0.112500 0.079375 0.161250
0.168750 0.079375 0.161250
0.225000 0.079375 0.161250
0.281250 0.079375 0.161250
0.337500 0.079375 0.161250
0.393750 0.079375 0.161250
0.450000 0.079375 0.161250
0.506250 0.079375 0.161250
0.562500 0.079375 0.161250
0.618750 0.079375 0.161250
0.675000 0.079375 0.161250
0.731250 0.079375 0.161250
0.787500 0.079375 0.161250
0.843750 0.079375 0.161250
0.900000 0.079375 0.161250
0.000000 0.138750 0.161250
0.056250 0.138750 0.161250
0.112500 0.138750 0.161250
0.168750 0.138750 0.161250
0.225000 0.138750 0.161250
0.281250 0.138750 0.161250
0.337500 0.138750 0.161250
0.393750 0.138750 0.161250
0.450000 0.138750 0.161250
0.506250 0.138750 0.161250
0.562500 0.138750 0.161250
0.618750 0.138750 0.161250
0.675000 0.138750 0.161250
0.731250 0.138750 0.161250
0.787500 0.138750 0.161250
0.843750 0.138750 0.161250
0.900000 0.138750 0.161250
0.000000 0.198125 0.161250
0.056250 0.198125 0.161250
0.112500 0.198125 0.161250
0.168750 0.198125 0.161250
0.225000 0.198125 0.161250
0.281250 0.198125 0.161250
0.337500 0.198125 0.161250
0.393750 0.198125 0.161250
0.450000 0.198125 0.161250
0.506250 0.198125 0.161250
0.562500 0.198125 0.161250
0.618750 0.198125 0.161250
0.675000 0.198125 0.161250
0.731250 0.198125 0.161250
0.787500 0.198125 0.161250
0.843750 0.198125 0.161250
0.900000 0.198125 0.161250
0.000000 0.257500 0.161250
0.056250 0.257500 0.161250
0.112500 0.257500 0.161250
0.168750 0.257500 0.161250
0.225000 0.257500 0.161250
0.281250 0.257500 0.161250
0.337500 0.257500 0.161250
0.393750 0.257500 0.161250
0.450000 0.257500 0.161250
0.506250 0.257500 0.161250
0.562500 0.257500 0.161250
0.618750 0.257500 0.161250
0.675000 0.257500 0.161250
0.731250 0.257500 0.161250
0.787500 0.257500 0.161250
0.843750 0.257500 0.161250
0.900000 0.257500 0.161250
0.000000 0.316875 0.161250
0.056250 0.316875 0.161250
0.112500 0.316875 0.161250
0.168750 0.316875 0.161250
0.225000 0.316875 0.161250
0.281250 0.316875 0.161250
0.337500 0.316875 0.161250
0.393750 0.316875 0.161250
0.450000 0.316875 0.161250
0.506250 0.316875 0.161250
0.562500 0.316875 0.161250
0.618750 0.316875 0.161250
0.675000 0.316875 0.161250
0.731250 0.316875 0.161250
0.787500 0.316875 0.161250
0.843750 0.316875 0.161250
0.900000 0.316875 0.161250
0.000000 0.376250 0.161250
0.056250 0.376250 0.161250
0.112500 0.376250 0.161250
0.168750 0.376250 0.161250
0.225000 0.376250 0.161250
0.281250 0.376250 0.161250
0.337500 0.376250 0.161250
0.393750 0.376250 0.161250
0.450000 0.376250 0.161250
0.506250 0.376250 0.161250
0.562500 0.376250 0.161250
0.618750 0.376250 0.161250
0.675000 0.376250 0.161250
0.731250 0.376250 0.161250
0.787500 0.376250 0.161250
1.000000 0.367500 0.112500
1.000000 0.367500 0.112500
0.000000 0.435625 0.161250
0.056250 0.435625 0.161250
0.112500 0.435625 0.161250
0.168750 0.435625 0.161250
0.225000 0.435625 0.161250
0.281250 0.435625 0.161250
0.337500 0.435625 0.161250
0.393750 0.435625 0.161250
0.450000 0.435625 0.161250
0.506250 0.435625 0.161250
0.562500 0.435625 0.161250
0.618750 0.435625 0.161250
0.675000 0.435625 0.161250
0.873125 0.428750 0.112500
0.938750 0.428750 0.112500
1.000000 0.428750 0.112500
1.000000 0.428750 0.112500
0.000000 0.495000 0.161250
0.056250 0.495000 0.161250
0.112500 0.495000 0.161250
0.168750 0.495000 0.161250
0.225000 0.495000 0.161250
0.281250 0.495000 0.161250
0.337500 0.495000 0.161250
0.393750 0.495000 0.161250
0.450000 0.495000 0.161250
0.506250 0.495000 0.161250
0.562500 0.495000 0.161250
0.741875 0.490000 0.112500
0.807500 0.490000 0.112500
0.873125 0.490000 0.112500
0.938750 0.490000 0.112500
1.000000 0.490000 0.112500
1.000000 0.490000 0.112500
0.000000 0.554375 0.161250
0.056250 0.554375 0.161250
0.112500 0.554375 0.161250
0.168750 0.554375 0.161250
0.225000 0.554375 0.161250
0.281250 0.554375 0.161250
0.337500 0.554375 0.161250
0.393750 0.554375 0.161250
0.450000 0.554375 0.161250
0.610625 0.551250 0.112500
0.676250 0.551250 0.112500
0.741875 0.551250 0.112500
0.807500 0.551250 0.112500
0.873125 0.551250 0.112500
0.938750 0.551250 0.112500
1.000000 0.551250 0.112500
1.000000 0.551250 0.112500
0.000000 0.613750 0.161250
0.056250 0.613750 0.161250
0.112500 0.613750 0.161250
0.168750 0.613750 0.161250
0.225000 0.613750 0.161250
0.281250 0.613750 0.161250
0.337500 0.613750 0.161250
0.479375 0.612500 0.112500
0.545000 0.612500 0.112500
0.610625 0.612500 0.112500
0.676250 0.612500 0.112500
0.741875 0.612500 0.112500
0.807500 0.612500 0.112500
0.873125 0.612500 0.112500
0.938750 0.612500 0.112500
1.000000 0.612500 0.112500
1.000000 0.612500 0.112500
0.000000 0.673125 0.161250
0.056250 0.673125 0.161250
0.112500 0.673125 0.161250
0.168750 0.673125 0.161250
0.225000 0.673125 0.161250
0.348125 0.673750 0.112500
0.413750 0.673750 0.112500
0.479375 0.673750 0.112500
0.545000 0.673750 0.112500
0.610625 0.673750 0.112500
0.676250 0.673750 0.112500
0.741875 0.673750 0.112500
0.807500 0.673750 0.112500
0.873125 0.673750 0.112500
0.938750 0.673750 0.112500
1.000000 0.673750 0.112500
1.000000 0.673750 0.112500
0.000000 0.732500 0.161250
0.056250 0.732500 0.161250
0.112500 0.732500 0.161250
0.216875 0.735000 0.112500
0.282500 0.735000 0.112500
0.348125 0.735000 0.112500
0.413750 0.735000 0.112500
0.479375 0.735000 0.112500
0.545000 0.735000 0.112500
0.610625 0.735000 0.112500
0.676250 0.735000 0.112500
0.741875 0.735000 0.112500
0.807500 0.735000 0.112500
0.873125 0.735000 0.112500
0.938750 0.735000 0.112500
1.000000 0.735000 0.112500
1.000000 0.735000 0.112500
0.000000 0.791875 0.161250
0.085625 0.796250 0.112500
0.151250 0.796250 0.112500
0.216875 0.796250 0.112500
0.282500 0.796250 0.112500
0.348125 0.796250 0.112500
0.413750 0.796250 0.112500
0.479375 0.796250 0.112500
0.545000 0.796250 0.112500
0.610625 0.796250 0.112500
0.676250 0.796250 0.112500
0.741875 0.796250 0.112500
0.807500 0.796250 0.112500
0.873125 0.796250 0.112500
0.938750 0.796250 0.112500
1.000000 0.796250 0.112500
1.000000 0.796250 0.112500
0.020000 0.857500 0.112500
0.085625 0.857500 0.112500
0.151250 0.857500 0.112500
0.216875 0.857500 0.112500
0.282500 0.857500 0.112500
0.348125 0.857500 0.112500
0.413750 0.857500 0.112500
0.479375 0.857500 0.112500
0.545000 0.857500 0.112500
0.610625 0.857500 0.112500
0.676250 0.857500 0.112500
0.741875 0.857500 0.112500
0.807500 0.857500 0.112500
0.873125 0.857500 0.112500
0.938750 0.857500 0.112500
1.000000 0.857500 0.112500
1.000000 0.857500 0.112500
0.020000 0.918750 0.112500
0.085625 0.918750 0.112500
0.151250 0.918750 0.112500
0.216875 0.918750 0.112500
0.282500 0.918750 0.112500
0.348125 0.918750 0.112500
0.413750 0.918750 0.112500
0.479375 0.918750 0.112500
0.545000 0.918750 0.112500
0.610625 0.918750 0.112500
0.676250 0.918750 0.112500
0.741875 0.918750 0.112500
0.807500 0.918750 0.112500
0.873125 0.918750 0.112500
0.938750 0.918750 0.112500
1.000000 0.918750 0.112500
1.000000 0.918750 0.112500
0.020000 0.980000 0.112500
0.085625 0.980000 0.112500
0.151250 0.980000 0.112500
0.216875 0.980000 0.112500
0.282500 0.980000 0.112500
0.348125 0.980000 0.112500
0.413750 0.980000 0.112500
0.479375 0.980000 0.112500
0.545000 0.980000 0.112500
0.610625 0.980000 0.112500
0.676250 0.980000 0.112500
0.741875 0.980000 0.112500
0.807500 0.980000 0.112500
0.873125 0.980000 0.112500
0.938750 0.980000 0.112500
1.000000 0.980000 0.112500
1.000000 0.980000 0.112500
0.000000 0.020000 0.226875
0.056250 0.020000 0.226875
0.112500 0.020000 0.226875
0.168750 0.020000 0.226875
0.225000 0.020000 0.226875
0.281250 0.020000 0.226875
0.337500 0.020000 0.226875
0.393750 0.020000 0.226875
0.450000 0.020000 0.226875
0.506250 0.020000 0.226875
0.562500 0.020000 0.226875
0.618750 0.020000 0.226875
0.675000 0.020000 0.226875
0.731250 0.020000 0.226875
0.787500 0.020000 0.226875
