luts/Cinematic_Teal_Orange.cube
# Cinematic_Teal_Orange LUT
# Created for MachinePaintingNodes testing
TITLE "Cinematic_Teal_Orange"
LUT_3D_SIZE 9
DOMAIN_MIN 0.0 0.0 0.0
DOMAIN_MAX 1.0 1.0 1.0
0.000000 0.020000 0.030000
0.112500 0.020000 0.030000
0.225000 0.020000 0.030000
0.337500 0.020000 0.030000
0.450000 0.020000 0.030000
0.562500 0.020000 0.030000
0.675000 0.020000 0.030000
0.787500 0.020000 0.030000
0.900000 0.020000 0.030000
0.000000 0.138750 0.030000
0.112500 0.138750 0.030000
0.225000 0.138750 0.030000
0.337500 0.138750 0.030000
0.450000 0.138750 0.030000
0.562500 0.138750 0.030000
0.675000 0.138750 0.030000
0.787500 0.138750 0.030000
0.900000 0.138750 0.030000
0.000000 0.257500 0.030000
0.112500 0.257500 0.030000
0.225000 0.257500 0.030000
0.337500 0.257500 0.030000
0.450000 0.257500 0.030000
0.562500 0.257500 0.030000
0.675000 0.257500 0.030000
0.787500 0.257500 0.030000
0.900000 0.257500 0.030000
0.000000 0.376250 0.030000
0.112500 0.376250 0.030000
0.225000 0.376250 0.030000
0.337500 0.376250 0.030000
0.450000 0.376250 0.030000
0.562500 0.376250 0.030000
0.675000 0.376250 0.030000
0.787500 0.376250 0.030000
1.000000 0.367500 0.000000
0.000000 0.495000 0.030000
0.112500 0.495000 0.030000
0.225000 0.495000 0.030000
0.337500 0.495000 0.030000
0.450000 0.495000 0.030000
0.562500 0.495000 0.030000
0.807500 0.490000 0.000000
0.938750 0.490000 0.000000
1.000000 0.490000 0.000000
0.000000 0.613750 0.030000
0.112500 0.613750 0.030000
0.225000 0.613750 0.030000
0.337500 0.613750 0.030000
0.545000 0.612500 0.000000
0.676250 0.612500 0.000000
0.807500 0.612500 0.000000
0.938750 0.612500 0.000000
1.000000 0.612500 0.000000
0.000000 0.732500 0.030000
0.112500 0.732500 0.030000
0.282500 0.735000 0.000000
0.413750 0.735000 0.000000
0.545000 0.735000 0.000000
0.676250 0.735000 0.000000
0.807500 0.735000 0.000000
0.938750 0.735000 0.000000
1.000000 0.735000 0.000000
0.020000 0.857500 0.000000
0.151250 0.857500 0.000000
0.282500 0.857500 0.000000
0.413750 0.857500 0.000000
0.545000 0.857500 0.000000
0.676250 0.857500 0.000000
0.807500 0.857500 0.000000
0.938750 0.857500 0.000000
1.000000 0.857500 0.000000
0.020000 0.980000 0.000000
0.151250 0.980000 0.000000
0.282500 0.980000 0.000000
0.413750 0.980000 0.000000
0.545000 0.980000 0.000000
0.676250 0.980000 0.000000
0.807500 0.980000 0.000000
0.938750 0.980000 0.000000
1.000000 0.980000 0.000000
0.000000 0.020000 0.161250
0.112500 0.020000 0.161250
0.225000 0.020000 0.161250
0.337500 0.020000 0.161250
0.450000 0.020000 0.161250
0.562500 0.020000 0.161250
0.675000 0.020000 0.161250
0.787500 0.020000 0.161250
0.900000 0.020000 0.161250
0.000000 0.138750 0.161250
0.112500 0.138750 0.161250
0.225000 0.138750 0.161250
0.337500 0.138750 0.161250
0.450000 0.138750 0.161250
0.562500 0.138750 0.161250
0.675000 0.138750 0.161250
0.787500 0.138750 0.161250
0.900000 0.138750 0.161250
0.000000 0.257500 0.161250
0.112500 0.257500 0.161250
0.225000 0.257500 0.161250
0.337500 0.257500 0.161250
0.450000 0.257500 0.161250
0.562500 0.257500 0.161250
0.675000 0.257500 0.161250
0.787500 0.257500 0.161250
0.900000 0.257500 0.161250
0.000000 0.376250 0.161250
0.112500 0.376250 0.161250
0.225000 0.376250 0.161250
0.337500 0.376250 0.161250
0.450000 0.376250 0.161250
0.562500 0.376250 0.161250
0.675000 0.376250 0.161250
0.787500 0.376250 0.161250
1.000000 0.367500 0.112500
0.000000 0.495000 0.161250
0.112500 0.495000 0.161250
0.225000 0.495000 0.161250
0.337500 0.495000 0.161250
0.450000 0.495000 0.161250
0.562500 0.495000 0.161250
0.807500 0.490000 0.112500
0.938750 0.490000 0.112500
1.000000 0.490000 0.112500
0.000000 0.613750 0.161250
0.112500 0.613750 0.161250
0.225000 0.613750 0.161250
0.337500 0.613750 0.161250
0.545000 0.612500 0.112500
0.676250 0.612500 0.112500
0.807500 0.612500 0.112500
0.938750 0.612500 0.112500
1.000000 0.612500 0.112500
0.000000 0.732500 0.161250
0.112500 0.732500 0.161250
0.282500 0.735000 0.112500
0.413750 0.735000 0.112500
0.545000 0.735000 0.112500
0.676250 0.735000 0.112500
0.807500 0.735000 0.112500
0.938750 0.735000 0.112500
1.000000 0.735000 0.112500
0.020000 0.857500 0.112500
0.151250 0.857500 0.112500
0.282500 0.857500 0.112500
0.413750 0.857500 0.112500
0.545000 0.857500 0.112500
0.676250 0.857500 0.112500
0.807500 0.857500 0.112500
0.938750 0.857500 0.112500
1.000000 0.857500 0.112500
0.020000 0.980000 0.112500
0.151250 0.980000 0.112500
0.282500 0.980000 0.112500
0.413750 0.980000 0.112500
0.545000 0.980000 0.112500
0.676250 0.980000 0.112500
0.807500 0.980000 0.112500
0.938750 0.980000 0.112500
1.000000 0.980000 0.112500
0.000000 0.020000 0.292500
0.112500 0.020000 0.292500
0.225000 0.020000 0.292500
0.337500 0.020000 0.292500
0.450000 0.020000 0.292500
0.562500 0.020000 0.292500
0.675000 0.020000 0.292500
0.787500 0.020000 0.292500
0.900000 0.020000 0.292500
0.000000 0.138750 0.292500
0.112500 0.138750 0.292500
0.225000 0.138750 0.292500
0.337500 0.138750 0.292500
0.450000 0.138750 0.292500
0.562500 0.138750 0.292500
0.675000 0.138750 0.292500
0.787500 0.138750 0.292500
0.900000 0.138750 0.292500
0.000000 0.257500 0.292500
0.112500 0.257500 0.292500
0.225000 0.257500 0.292500
0.337500 0.257500 0.292500
0.450000 0.257500 0.292500
0.562500 0.257500 0.292500
0.675000 0.257500 0.292500
0.787500 0.257500 0.292500
0.900000 0.257500 0.292500
0.000000 0.376250 0.292500
0.112500 0.376250 0.292500
0.225000 0.376250 0.292500
0.337500 0.376250 0.292500
0.450000 0.376250 0.292500
0.562500 0.376250 0.292500
0.675000 0.376250 0.292500
0.938750 0.367500 0.225000
1.000000 0.367500 0.225000
0.000000 0.495000 0.292500
0.112500 0.495000 0.292500
0.225000 0.495000 0.292500
0.337500 0.495000 0.292500
0.450000 0.495000 0.292500
0.676250 0.490000 0.225000
0.807500 0.490000 0.225000
0.938750 0.490000 0.225000
1.000000 0.490000 0.225000
0.000000 0.613750 0.292500
0.112500 0.613750 0.292500
0.225000 0.613750 0.292500
0.413750 0.612500 0.225000
0.545000 0.612500 0.225000
0.676250 0.612500 0.225000
0.807500 0.612500 0.225000
0.938750 0.612500 0.225000
1.000000 0.612500 0.225000
0.000000 0.732500 0.292500
0.151250 0.735000 0.225000
0.282500 0.735000 0.225000
0.413750 0.735000 0.225000
0.545000 0.735000 0.225000
0.676250 0.735000 0.225000
0.807500 0.735000 0.225000
0.938750 0.735000 0.225000
1.000000 0.735000 0.225000
0.020000 0.857500 0.225000
0.151250 0.857500 0.225000
0.282500 0.857500 0.225000
0.413750 0.857500 0.225000
0.545000 0.857500 0.225000
0.676250 0.857500 0.225000
0.807500 0.857500 0.225000
0.938750 0.857500 0.225000
1.000000 0.857500 0.225000
0.020000 0.980000 0.225000
0.151250 0.980000 0.225000
0.282500 0.980000 0.225000
0.413750 0.980000 0.225000
0.545000 0.980000 0.225000
0.676250 0.980000 0.225000
0.807500 0.980000 0.225000
0.938750 0.980000 0.225000
1.000000 0.980000 0.225000
0.000000 0.020000 0.423750
0.112500 0.020000 0.423750
0.225000 0.020000 0.423750
0.337500 0.020000 0.423750
0.450000 0.020000 0.423750
0.562500 0.020000 0.423750
0.675000 0.020000 0.423750
0.787500 0.020000 0.423750
0.900000 0.020000 0.423750
0.000000 0.138750 0.423750
0.112500 0.138750 0.423750
0.225000 0.138750 0.423750
0.337500 0.138750 0.423750
0.450000 0.138750 0.423750
0.562500 0.138750 0.423750
0.675000 0.138750 0.423750
0.787500 0.138750 0.423750
0.900000 0.138750 0.423750
0.000000 0.257500 0.423750
0.112500 0.257500 0.423750
0.225000 0.257500 0.423750
0.337500 0.257500 0.423750
0.450000 0.257500 0.423750
0.562500 0.257500 0.423750
0.675000 0.257500 0.423750
0.787500 0.257500 0.423750
0.900000 0.257500 0.423750
0.000000 0.376250 0.423750
0.112500 0.376250 0.423750
0.225000 0.376250 0.423750
0.337500 0.376250 0.423750
0.450000 0.376250 0.423750
0.562500 0.376250 0.423750
0.675000 0.376250 0.423750
0.938750 0.367500 0.337500
1.000000 0.367500 0.337500
0.000000 0.495000 0.423750
0.112500 0.495000 0.423750
0.225000 0.495000 0.423750
0.337500 0.495000 0.423750
0.450000 0.495000 0.423750
0.676250 0.490000 0.337500
0.807500 0.490000 0.337500
0.938750 0.490000 0.337500
1.000000 0.490000 0.337500
0.000000 0.613750 0.423750
0.112500 0.613750 0.423750
0.225000 0.613750 0.423750
0.413750 0.612500 0.337500
0.545000 0.612500 0.337500
0.676250 0.612500 0.337500
0.807500 0.612500 0.337500
0.938750 0.612500 0.337500
1.000000 0.612500 0.337500
0.000000 0.732500 0.423750
0.151250 0.735000 0.337500
0.282500 0.735000 0.337500
0.413750 0.735000 0.337500
0.545000 0.735000 0.337500
0.676250 0.735000 0.337500
0.807500 0.735000 0.337500
0.938750 0.735000 0.337500
1.000000 0.735000 0.337500
0.020000 0.857500 0.337500
0.151250 0.857500 0.337500
0.282500 0.857500 0.337500
0.413750 0.857500 0.337500
0.545000 0.857500 0.337500
0.676250 0.857500 0.337500
0.807500 0.857500 0.337500
0.938750 0.857500 0.337500
1.000000 0.857500 0.337500
0.020000 0.980000 0.337500
0.151250 0.980000 0.337500
0.282500 0.980000 0.337500
0.413750 0.980000 0.337500
0.545000 0.980000 0.337500
0.676250 0.980000 0.337500
0.807500 0.980000 0.337500
0.938750 0.980000 0.337500
1.000000 0.980000 0.337500
0.000000 0.020000 0.555000
0.112500 0.020000 0.555000
0.225000 0.020000 0.555000
0.337500 0.020000 0.555000
0.450000 0.020000 0.555000
0.562500 0.020000 0.555000
0.675000 0.020000 0.555000
0.787500 0.020000 0.555000
0.900000 0.020000 0.555000
0.000000 0.138750 0.555000
0.112500 0.138750 0.555000
0.225000 0.138750 0.555000
0.337500 0.138750 0.555000
0.450000 0.138750 0.555000
0.562500 0.138750 0.555000
0.675000 0.138750 0.555000
0.787500 0.138750 0.555000
0.900000 0.138750 0.555000
0.000000 0.257500 0.555000
0.112500 0.257500 0.555000
0.225000 0.257500 0.555000
0.337500 0.257500 0.555000
0.450000 0.257500 0.555000
0.562500 0.257500 0.555000
0.675000 0.257500 0.555000
0.787500 0.257500 0.555000
1.000000 0.245000 0.450000
0.000000 0.376250 0.555000
0.112500 0.376250 0.555000
0.225000 0.376250 0.555000
0.337500 0.376250 0.555000
0.450000 0.376250 0.555000
0.562500 0.376250 0.555000
0.807500 0.367500 0.450000
0.938750 0.367500 0.450000
1.000000 0.367500 0.450000
0.000000 0.495000 0.555000
0.112500 0.495000 0.555000
0.225000 0.495000 0.555000
0.337500 0.495000 0.555000
0.450000 0.495000 0.555000
0.676250 0.490000 0.450000
0.807500 0.490000 0.450000
0.938750 0.490000 0.450000
1.000000 0.490000 0.450000
0.000000 0.613750 0.555000
0.112500 0.613750 0.555000
0.225000 0.613750 0.555000
0.413750 0.612500 0.450000
0.545000 0.612500 0.450000
0.676250 0.612500 0.450000
0.807500 0.612500 0.450000
0.938750 0.612500 0.450000
1.000000 0.612500 0.450000
0.000000 0.732500 0.555000
0.151250 0.735000 0.450000
0.282500 0.735000 0.450000
0.413750 0.735000 0.450000
0.545000 0.735000 0.450000
0.676250 0.735000 0.450000
0.807500 0.735000 0.450000
0.938750 0.735000 0.450000
1.000000 0.735000 0.450000
0.020000 0.857500 0.450000
0.151250 0.857500 0.450000
0.282500 0.857500 0.450000
0.413750 0.857500 0.450000
0.545000 0.857500 0.450000
0.676250 0.857500 0.450000
0.807500 0.857500 0.450000
0.938750 0.857500 0.450000
1.000000 0.857500 0.450000
0.020000 0.980000 0.450000
0.151250 0.980000 0.450000
0.282500 0.980000 0.450000
0.413750 0.980000 0.450000
0.545000 0.980000 0.450000
0.676250 0.980000 0.450000
0.807500 0.980000 0.450000
0.938750 0.980000 0.450000
1.000000 0.980000 0.450000
0.000000 0.020000 0.686250
0.112500 0.020000 0.686250
0.225000 0.020000 0.686250
0.337500 0.020000 0.686250
0.450000 0.020000 0.686250
0.562500 0.020000 0.686250
0.675000 0.020000 0.686250
0.787500 0.020000 0.686250
0.900000 0.020000 0.686250
0.000000 0.138750 0.686250
0.112500 0.138750 0.686250
0.225000 0.138750 0.686250
0.337500 0.138750 0.686250
0.450000 0.138750 0.686250
0.562500 0.138750 0.686250
0.675000 0.138750 0.686250
0.787500 0.138750 0.686250
0.900000 0.138750 0.686250
0.000000 0.257500 0.686250
0.112500 0.257500 0.686250
0.225000 0.257500 0.686250
0.337500 0.257500 0.686250
0.450000 0.257500 0.686250
0.562500 0.257500 0.686250
0.675000 0.257500 0.686250
0.787500 0.257500 0.686250
1.000000 0.245000 0.562500
0.000000 0.376250 0.686250
0.112500 0.376250 0.686250
0.225000 0.376250 0.686250
0.337500 0.376250 0.686250
0.450000 0.376250 0.686250
0.562500 0.376250 0.686250
0.807500 0.367500 0.562500
0.938750 0.367500 0.562500
1.000000 0.367500 0.562500
0.000000 0.495000 0.686250
0.112500 0.495000 0.686250
0.225000 0.495000 0.686250
0.337500 0.495000 0.686250
0.545000 0.490000 0.562500
0.676250 0.490000 0.562500
0.807500 0.490000 0.562500
0.938750 0.490000 0.562500
1.000000 0.490000 0.562500
0.000000 0.613750 0.686250
0.112500 0.613750 0.686250
0.282500 0.612500 0.562500
0.413750 0.612500 0.562500
0.545000 0.612500 0.562500
0.676250 0.612500 0.562500
0.807500 0.612500 0.562500
0.938750 0.612500 0.562500
1.000000 0.612500 0.562500
0.020000 0.735000 0.562500
0.151250 0.735000 0.562500
0.282500 0.735000 0.562500
0.413750 0.735000 0.562500
0.545000 0.735000 0.562500
0.676250 0.735000 0.562500
0.807500 0.735000 0.562500
0.938750 0.735000 0.562500
1.000000 0.735000 0.562500
0.020000 0.857500 0.562500
0.151250 0.857500 0.562500
0.282500 0.857500 0.562500
0.413750 0.857500 0.562500
0.545000 0.857500 0.562500
0.676250 0.857500 0.562500
0.807500 0.857500 0.562500
0.938750 0.857500 0.562500
1.000000 0.857500 0.562500
0.020000 0.980000 0.562500
0.151250 0.980000 0.562500
0.282500 0.980000 0.562500
0.413750 0.980000 0.562500
0.545000 0.980000 0.562500
0.676250 0.980000 0.562500
0.807500 0.980000 0.562500
0.938750 0.980000 0.562500
1.000000 0.980000 0.562500
0.000000 0.020000 0.817500
0.112500 0.020000 0.817500
0.225000 0.020000 0.817500
0.337500 0.020000 0.817500
0.450000 0.020000 0.817500
0.562500 0.020000 0.817500
0.675000 0.020000 0.817500
0.787500 0.020000 0.817500
0.900000 0.020000 0.817500
0.000000 0.138750 0.817500
0.112500 0.138750 0.817500
0.225000 0.138750 0.817500
0.337500 0.138750 0.817500
0.450000 0.138750 0.817500
0.562500 0.138750 0.817500
0.675000 0.138750 0.817500
0.787500 0.138750 0.817500
0.900000 0.138750 0.817500
0.000000 0.257500 0.817500
0.112500 0.257500 0.817500
0.225000 0.257500 0.817500
0.337500 0.257500 0.817500
0.450000 0.257500 0.817500
0.562500 0.257500 0.817500
0.675000 0.257500 0.817500
0.787500 0.257500 0.817500
1.000000 0.245000 0.675000
0.000000 0.376250 0.817500
0.112500 0.376250 0.817500
0.225000 0.376250 0.817500
0.337500 0.376250 0.817500
0.450000 0.376250 0.817500
0.562500 0.376250 0.817500
0.807500 0.367500 0.675000
0.938750 0.367500 0.675000
1.000000 0.367500 0.675000
0.000000 0.495000 0.817500
0.112500 0.495000 0.817500
0.225000 0.495000 0.817500
0.337500 0.495000 0.817500
0.545000 0.490000 0.675000
0.676250 0.490000 0.675000
0.807500 0.490000 0.675000
0.938750 0.490000 0.675000
1.000000 0.490000 0.675000
0.000000 0.613750 0.817500
0.112500 0.613750 0.817500
0.282500 0.612500 0.675000
0.413750 0.612500 0.675000
0.545000 0.612500 0.675000
0.676250 0.612500 0.675000
0.807500 0.612500 0.675000
0.938750 0.612500 0.675000
1.000000 0.612500 0.675000
0.020000 0.735000 0.675000
0.151250 0.735000 0.675000
0.282500 0.735000 0.675000
0.413750 0.735000 0.675000
0.545000 0.735000 0.675000
0.676250 0.735000 0.675000
0.807500 0.735000 0.675000
0.938750 0.735000 0.675000
1.000000 0.735000 0.675000
0.020000 0.857500 0.675000
0.151250 0.857500 0.675000
0.282500 0.857500 0.675000
0.413750 0.857500 0.675000
0.545000 0.857500 0.675000
0.676250 0.857500 0.675000
0.807500 0.857500 0.675000
0.938750 0.857500 0.675000
1.000000 0.857500 0.675000
0.020000 0.980000 0.675000
0.151250 0.980000 0.675000
0.282500 0.980000 0.675000
0.413750 0.980000 0.675000
0.545000 0.980000 0.675000
0.676250 0.980000 0.675000
0.807500 0.980000 0.675000
0.938750 0.980000 0.675000
1.000000 0.980000 0.675000
0.000000 0.020000 0.948750
0.112500 0.020000 0.948750
0.225000 0.020000 0.948750
0.337500 0.020000 0.948750
0.450000 0.020000 0.948750
0.562500 0.020000 0.948750
0.675000 0.020000 0.948750
0.787500 0.020000 0.948750
0.900000 0.020000 0.948750
0.000000 0.138750 0.948750
0.112500 0.138750 0.948750
0.225000 0.138750 0.948750
0.337500 0.138750 0.948750
0.450000 0.138750 0.948750
0.562500 0.138750 0.948750
0.675000 0.138750 0.948750
0.787500 0.138750 0.948750
0.900000 0.138750 0.948750
0.000000 0.257500 0.948750
0.112500 0.257500 0.948750
0.225000 0.257500 0.948750
0.337500 0.257500 0.948750
0.450000 0.257500 0.948750
0.562500 0.257500 0.948750
0.675000 0.257500 0.948750
0.938750 0.245000 0.787500
1.000000 0.245000 0.787500
0.000000 0.376250 0.948750
0.112500 0.376250 0.948750
0.225000 0.376250 0.948750
0.337500 0.376250 0.948750
0.450000 0.376250 0.948750
0.676250 0.367500 0.787500
0.807500 0.367500 0.787500
0.938750 0.367500 0.787500
1.000000 0.367500 0.787500
0.000000 0.495000 0.948750
0.112500 0.495000 0.948750
0.225000 0.495000 0.948750
0.413750 0.490000 0.787500
0.545000 0.490000 0.787500
0.676250 0.490000 0.787500
0.807500 0.490000 0.787500
0.938750 0.490000 0.787500
1.000000 0.490000 0.787500
0.000000 0.613750 0.948750
0.151250 0.612500 0.787500
0.282500 0.612500 0.787500
0.413750 0.612500 0.787500
0.545000 0.612500 0.787500
0.676250 0.612500 0.787500
0.807500 0.612500 0.787500
0.938750 0.612500 0.787500
1.000000 0.612500 0.787500
0.020000 0.735000 0.787500
0.151250 0.735000 0.787500
0.282500 0.735000 0.787500
0.413750 0.735000 0.787500
0.545000 0.735000 0.787500
0.676250 0.735000 0.787500
0.807500 0.735000 0.787500
0.938750 0.735000 0.787500
1.000000 0.735000 0.787500
0.020000 0.857500 0.787500
0.151250 0.857500 0.787500
0.282500 0.857500 0.787500
0.413750 0.857500 0.787500
0.545000 0.857500 0.787500
0.676250 0.857500 0.787500
0.807500 0.857500 0.787500
0.938750 0.857500 0.787500
1.000000 0.857500 0.787500
0.020000 0.980000 0.787500
0.151250 0.980000 0.787500
0.282500 0.980000 0.787500
0.413750 0.980000 0.787500
0.545000 0.980000 0.787500
0.676250 0.980000 0.787500
0.807500 0.980000 0.787500
0.938750 0.980000 0.787500
1.000000 0.980000 0.787500
0.000000 0.020000 1.000000
0.112500 0.020000 1.000000
0.225000 0.020000 1.000000
0.337500 0.020000 1.000000
0.450000 0.020000 1.000000
0.562500 0.020000 1.000000
0.675000 0.020000 1.000000
0.787500 0.020000 1.000000
0.900000 0.020000 1.000000
0.000000 0.138750 1.000000
0.112500 0.138750 1.000000
0.225000 0.138750 1.000000
0.337500 0.138750 1.000000
0.450000 0.138750 1.000000
0.562500 0.138750 1.000000
0.675000 0.138750 1.000000
0.787500 0.138750 1.000000
0.900000 0.138750 1.000000
0.000000 0.257500 1.000000
0.112500 0.257500 1.000000
0.225000 0.257500 1.000000
0.337500 0.257500 1.000000
0.450000 0.257500 1.000000
0.562500 0.257500 1.000000
0.675000 0.257500 1.000000
0.938750 0.245000 0.900000
1.000000 0.245000 0.900000
0.000000 0.376250 1.000000
0.112500 0.376250 1.000000
0.225000 0.376250 1.000000
0.337500 0.376250 1.000000
0.450000 0.376250 1.000000
0.676250 0.367500 0.900000
0.807500 0.367500 0.900000
0.938750 0.367500 0.900000
1.000000 0.367500 0.900000
0.000000 0.495000 1.000000
0.112500 0.495000 1.000000
0.225000 0.495000 1.000000
0.413750 0.490000 0.900000
0.545000 0.490000 0.900000
0.676250 0.490000 0.900000
0.807500 0.490000 0.900000
0.938750 0.490000 0.900000
1.000000 0.490000 0.900000
0.000000 0.613750 1.000000
0.151250 0.612500 0.900000
0.282500 0.612500 0.900000
0.413750 0.612500 0.900000
0.545000 0.612500 0.900000
0.676250 0.612500 0.900000
0.807500 0.612500 0.900000
0.938750 0.612500 0.900000
1.000000 0.612500 0.900000
0.020000 0.735000 0.900000
0.151250 0.735000 0.900000
0.282500 0.735000 0.900000
0.413750 0.735000 0.900000
0.545000 0.735000 0.900000
0.676250 0.735000 0.900000
0.807500 0.735000 0.900000
0.938750 0.735000 0.900000
1.000000 0.735000 0.900000
0.020000 0.857500 0.900000
0.151250 0.857500 0.900000
0.282500 0.857500 0.900000
0.413750 0.857500 0.900000
0.545000 0.857500 0.900000
0.676250 0.857500 0.900000
0.807500 0.857500 0.900000
0.938750 0.857500 0.900000
1.000000 0.857500 0.900000
0.020000 0.980000 0.900000
0.151250 0.980000 0.900000
0.282500 0.980000 0.900000
0.413750 0.980000 0.900000
0.545000 0.980000 0.900000
0.676250 0.980000 0.900000
0.807500 0.980000 0.900000
0.938750 0.980000 0.900000
1.000000 0.980000 0.900000
