luts/Cool_Tone.cube
# Cool_Tone LUT
# Created for MachinePaintingNodes testing
TITLE "Cool_Tone"
LUT_3D_SIZE 5
DOMAIN_MIN 0.0 0.0 0.0
DOMAIN_MAX 1.0 1.0 1.0
0.000000 0.000000 0.050000
0.205000 0.000000 0.050000
0.430000 0.000000 0.050000
0.655000 0.000000 0.050000
0.880000 0.000000 0.050000
0.000000 0.237500 0.050000
0.205000 0.237500 0.050000
0.430000 0.237500 0.050000
0.655000 0.237500 0.050000
0.880000 0.237500 0.050000
0.000000 0.475000 0.050000
0.205000 0.475000 0.050000
0.430000 0.475000 0.050000
0.655000 0.475000 0.050000
0.880000 0.475000 0.050000
0.000000 0.712500 0.050000
0.205000 0.712500 0.050000
0.430000 0.712500 0.050000
0.655000 0.712500 0.050000
0.880000 0.712500 0.050000
0.000000 0.950000 0.050000
0.205000 0.950000 0.050000
0.430000 0.950000 0.050000
0.655000 0.950000 0.050000
0.880000 0.950000 0.050000
0.000000 0.000000 0.325000
0.205000 0.000000 0.325000
0.430000 0.000000 0.325000
0.655000 0.000000 0.325000
0.880000 0.000000 0.325000
0.000000 0.237500 0.325000
0.205000 0.237500 0.325000
0.430000 0.237500 0.325000
0.655000 0.237500 0.325000
0.880000 0.237500 0.325000
0.000000 0.475000 0.325000
0.205000 0.475000 0.325000
0.430000 0.475000 0.325000
0.655000 0.475000 0.325000
0.880000 0.475000 0.325000
0.000000 0.712500 0.325000
0.205000 0.712500 0.325000
0.430000 0.712500 0.325000
0.655000 0.712500 0.325000
0.880000 0.712500 0.325000
0.000000 0.950000 0.325000
0.205000 0.950000 0.325000
0.430000 0.950000 0.325000
0.655000 0.950000 0.325000
0.880000 0.950000 0.325000
0.000000 0.000000 0.600000
0.205000 0.000000 0.600000
0.430000 0.000000 0.600000
0.655000 0.000000 0.600000
0.880000 0.000000 0.600000
0.000000 0.237500 0.600000
0.205000 0.237500 0.600000
0.430000 0.237500 0.600000
0.655000 0.237500 0.600000
0.880000 0.237500 0.600000
0.000000 0.475000 0.600000
0.205000 0.475000 0.600000
0.430000 0.475000 0.600000
0.655000 0.475000 0.600000
0.880000 0.475000 0.600000
0.000000 0.712500 0.600000
0.205000 0.712500 0.600000
0.430000 0.712500 0.600000
0.655000 0.712500 0.600000
0.880000 0.712500 0.600000
0.000000 0.950000 0.600000
0.205000 0.950000 0.600000
0.430000 0.950000 0.600000
0.655000 0.950000 0.600000
0.880000 0.950000 0.600000
0.000000 0.000000 0.875000
0.205000 0.000000 0.875000
0.430000 0.000000 0.875000
0.655000 0.000000 0.875000
0.880000 0.000000 0.875000
0.000000 0.237500 0.875000
0.205000 0.237500 0.875000
0.430000 0.237500 0.875000
0.655000 0.237500 0.875000
0.880000 0.237500 0.875000
0.000000 0.475000 0.875000
0.205000 0.475000 0.875000
0.430000 0.475000 0.875000
0.655000 0.475000 0.875000
0.880000 0.475000 0.875000
0.000000 0.712500 0.875000
0.205000 0.712500 0.875000
0.430000 0.712500 0.875000
0.655000 0.712500 0.875000
0.880000 0.712500 0.875000
0.000000 0.950000 0.875000
0.205000 0.950000 0.875000
0.430000 0.950000 0.875000
0.655000 0.950000 0.875000
0.880000 0.950000 0.875000
0.000000 0.000000 1.000000
0.205000 0.000000 1.000000
0.430000 0.000000 1.000000
0.655000 0.000000 1.000000
0.880000 0.000000 1.000000
0.000000 0.237500 1.000000
0.205000 0.237500 1.000000
0.430000 0.237500 1.000000
0.655000 0.237500 1.000000
0.880000 0.237500 1.000000
0.000000 0.475000 1.000000
0.205000 0.475000 1.000000
0.430000 0.475000 1.000000
0.655000 0.475000 1.000000
0.880000 0.475000 1.000000
0.000000 0.712500 1.000000
0.205000 0.712500 1.000000
0.430000 0.712500 1.000000
0.655000 0.712500 1.000000
0.880000 0.712500 1.000000
0.000000 0.950000 1.000000
0.205000 0.950000 1.000000
0.430000 0.950000 1.000000
0.655000 0.950000 1.000000
0.880000 0.950000 1.000000
