luts/Cool_Tone.cube
# Cool_Tone LUT
# Created for MachinePaintingNodes testing
TITLE "Cool_Tone"
LUT_3D_SIZE 9
DOMAIN_MIN 0.0 0.0 0.0
DOMAIN_MAX 1.0 1.0 1.0
0.000000 0.000000 0.050000
0.092500 0.000000 0.050000
0.205000 0.000000 0.050000
0.317500 0.000000 0.050000
0.430000 0.000000 0.050000
0.542500 0.000000 0.050000
0.655000 0.000000 0.050000
0.767500 0.000000 0.050000
0.880000 0.000000 0.050000
0.000000 0.118750 0.050000
0.092500 0.118750 0.050000
0.205000 0.118750 0.050000
0.317500 0.118750 0.050000
0.430000 0.118750 0.050000
0.542500 0.118750 0.050000
0.655000 0.118750 0.050000
0.767500 0.118750 0.050000
0.880000 0.118750 0.050000
0.000000 0.237500 0.050000
0.092500 0.237500 0.050000
0.205000 0.237500 0.050000
0.317500 0.237500 0.050000
0.430000 0.237500 0.050000
0.542500 0.237500 0.050000
0.655000 0.237500 0.050000
0.767500 0.237500 0.050000
0.880000 0.237500 0.050000
0.000000 0.356250 0.050000
0.092500 0.356250 0.050000
0.205000 0.356250 0.050000
0.317500 0.356250 0.050000
0.430000 0.356250 0.050000
0.542500 0.356250 0.050000
0.655000 0.356250 0.050000
0.767500 0.356250 0.050000
0.880000 0.356250 0.050000
0.000000 0.475000 0.050000
0.092500 0.475000 0.050000
0.205000 0.475000 0.050000
0.317500 0.475000 0.050000
0.430000 0.475000 0.050000
0.542500 0.475000 0.050000
0.655000 0.475000 0.050000
0.767500 0.475000 0.050000
0.880000 0.475000 0.050000
0.000000 0.593750 0.050000
0.092500 0.593750 0.050000
0.205000 0.593750 0.050000
0.317500 0.593750 0.050000
0.430000 0.593750 0.050000
0.542500 0.593750 0.050000
0.655000 0.593750 0.050000
0.767500 0.593750 0.050000
0.880000 0.593750 0.050000
0.000000 0.712500 0.050000
0.092500 0.712500 0.050000
0.205000 0.712500 0.050000
0.317500 0.712500 0.050000
0.430000 0.712500 0.050000
0.542500 0.712500 0.050000
0.655000 0.712500 0.050000
0.767500 0.712500 0.050000
0.880000 0.712500 0.050000
0.000000 0.831250 0.050000
0.092500 0.831250 0.050000
0.205000 0.831250 0.050000
0.317500 0.831250 0.050000
0.430000 0.831250 0.050000
0.542500 0.831250 0.050000
0.655000 0.831250 0.050000
0.767500 0.831250 0.050000
0.880000 0.831250 0.050000
0.000000 0.950000 0.050000
0.092500 0.950000 0.050000
0.205000 0.950000 0.050000
0.317500 0.950000 0.050000
0.430000 0.950000 0.050000
0.542500 0.950000 0.050000
0.655000 0.950000 0.050000
0.767500 0.950000 0.050000
0.880000 0.950000 0.050000
0.000000 0.000000 0.187500
0.092500 0.000000 0.187500
0.205000 0.000000 0.187500
0.317500 0.000000 0.187500
0.430000 0.000000 0.187500
0.542500 0.000000 0.187500
0.655000 0.000000 0.187500
0.767500 0.000000 0.187500
0.880000 0.000000 0.187500
0.000000 0.118750 0.187500
0.092500 0.118750 0.187500
0.205000 0.118750 0.187500
0.317500 0.118750 0.187500
0.430000 0.118750 0.187500
0.542500 0.118750 0.187500
0.655000 0.118750 0.187500
0.767500 0.118750 0.187500
0.880000 0.118750 0.187500
0.000000 0.237500 0.187500
0.092500 0.237500 0.187500
0.205000 0.237500 0.187500
0.317500 0.237500 0.187500
0.430000 0.237500 0.187500
0.542500 0.237500 0.187500
0.655000 0.237500 0.187500
0.767500 0.237500 0.187500
0.880000 0.237500 0.187500
0.000000 0.356250 0.187500
0.092500 0.356250 0.187500
0.205000 0.356250 0.187500
0.317500 0.356250 0.187500
0.430000 0.356250 0.187500
0.542500 0.356250 0.187500
0.655000 0.356250 0.187500
0.767500 0.356250 0.187500
0.880000 0.356250 0.187500
0.000000 0.475000 0.187500
0.092500 0.475000 0.187500
0.205000 0.475000 0.187500
0.317500 0.475000 0.187500
0.430000 0.475000 0.187500
0.542500 0.475000 0.187500
0.655000 0.475000 0.187500
0.767500 0.475000 0.187500
0.880000 0.475000 0.187500
0.000000 0.593750 0.187500
0.092500 0.593750 0.187500
0.205000 0.593750 0.187500
0.317500 0.593750 0.187500
0.430000 0.593750 0.187500
0.542500 0.593750 0.187500
0.655000 0.593750 0.187500
0.767500 0.593750 0.187500
0.880000 0.593750 0.187500
0.000000 0.712500 0.187500
0.092500 0.712500 0.187500
0.205000 0.712500 0.187500
0.317500 0.712500 0.187500
0.430000 0.712500 0.187500
0.542500 0.712500 0.187500
0.655000 0.712500 0.187500
0.767500 0.712500 0.187500
0.880000 0.712500 0.187500
0.000000 0.831250 0.187500
0.092500 0.831250 0.187500
0.205000 0.831250 0.187500
0.317500 0.831250 0.187500
0.430000 0.831250 0.187500
0.542500 0.831250 0.187500
0.655000 0.831250 0.187500
0.767500 0.831250 0.187500
0.880000 0.831250 0.187500
0.000000 0.950000 0.187500
0.092500 0.950000 0.187500
0.205000 0.950000 0.187500
0.317500 0.950000 0.187500
0.430000 0.950000 0.187500
0.542500 0.950000 0.187500
0.655000 0.950000 0.187500
0.767500 0.950000 0.187500
0.880000 0.950000 0.187500
0.000000 0.000000 0.325000
0.092500 0.000000 0.325000
0.205000 0.000000 0.325000
0.317500 0.000000 0.325000
0.430000 0.000000 0.325000
0.542500 0.000000 0.325000
0.655000 0.000000 0.325000
0.767500 0.000000 0.325000
0.880000 0.000000 0.325000
0.000000 0.118750 0.325000
0.092500 0.118750 0.325000
0.205000 0.118750 0.325000
0.317500 0.118750 0.325000
0.430000 0.118750 0.325000
0.542500 0.118750 0.325000
0.655000 0.118750 0.325000
0.767500 0.118750 0.325000
0.880000 0.118750 0.325000
0.000000 0.237500 0.325000
0.092500 0.237500 0.325000
0.205000 0.237500 0.325000
0.317500 0.237500 0.325000
0.430000 0.237500 0.325000
0.542500 0.237500 0.325000
0.655000 0.237500 0.325000
0.767500 0.237500 0.325000
0.880000 0.237500 0.325000
0.000000 0.356250 0.325000
0.092500 0.356250 0.325000
0.205000 0.356250 0.325000
0.317500 0.356250 0.325000
0.430000 0.356250 0.325000
0.542500 0.356250 0.325000
0.655000 0.356250 0.325000
0.767500 0.356250 0.325000
0.880000 0.356250 0.325000
0.000000 0.475000 0.325000
0.092500 0.475000 0.325000
0.205000 0.475000 0.325000
0.317500 0.475000 0.325000
0.430000 0.475000 0.325000
0.542500 0.475000 0.325000
0.655000 0.475000 0.325000
0.767500 0.475000 0.325000
0.880000 0.475000 0.325000
0.000000 0.593750 0.325000
0.092500 0.593750 0.325000
0.205000 0.593750 0.325000
0.317500 0.593750 0.325000
0.430000 0.593750 0.325000
0.542500 0.593750 0.325000
0.655000 0.593750 0.325000
0.767500 0.593750 0.325000
0.880000 0.593750 0.325000
0.000000 0.712500 0.325000
0.092500 0.712500 0.325000
0.205000 0.712500 0.325000
0.317500 0.712500 0.325000
0.430000 0.712500 0.325000
0.542500 0.712500 0.325000
0.655000 0.712500 0.325000
0.767500 0.712500 0.325000
0.880000 0.712500 0.325000
0.000000 0.831250 0.325000
0.092500 0.831250 0.325000
0.205000 0.831250 0.325000
0.317500 0.831250 0.325000
0.430000 0.831250 0.325000
0.542500 0.831250 0.325000
0.655000 0.831250 0.325000
0.767500 0.831250 0.325000
0.880000 0.831250 0.325000
0.000000 0.950000 0.325000
0.092500 0.950000 0.325000
0.205000 0.950000 0.325000
0.317500 0.950000 0.325000
0.430000 0.950000 0.325000
0.542500 0.950000 0.325000
0.655000 0.950000 0.325000
0.767500 0.950000 0.325000
0.880000 0.950000 0.325000
0.000000 0.000000 0.462500
0.092500 0.000000 0.462500
0.205000 0.000000 0.462500
0.317500 0.000000 0.462500
0.430000 0.000000 0.462500
0.542500 0.000000 0.462500
0.655000 0.000000 0.462500
0.767500 0.000000 0.462500
0.880000 0.000000 0.462500
0.000000 0.118750 0.462500
0.092500 0.118750 0.462500
0.205000 0.118750 0.462500
0.317500 0.118750 0.462500
0.430000 0.118750 0.462500
0.542500 0.118750 0.462500
0.655000 0.118750 0.462500
0.767500 0.118750 0.462500
0.880000 0.118750 0.462500
0.000000 0.237500 0.462500
0.092500 0.237500 0.462500
0.205000 0.237500 0.462500
0.317500 0.237500 0.462500
0.430000 0.237500 0.462500
0.542500 0.237500 0.462500
0.655000 0.237500 0.462500
0.767500 0.237500 0.462500
0.880000 0.237500 0.462500
0.000000 0.356250 0.462500
0.092500 0.356250 0.462500
0.205000 0.356250 0.462500
0.317500 0.356250 0.462500
0.430000 0.356250 0.462500
0.542500 0.356250 0.462500
0.655000 0.356250 0.462500
0.767500 0.356250 0.462500
0.880000 0.356250 0.462500
0.000000 0.475000 0.462500
0.092500 0.475000 0.462500
0.205000 0.475000 0.462500
0.317500 0.475000 0.462500
0.430000 0.475000 0.462500
0.542500 0.475000 0.462500
0.655000 0.475000 0.462500
0.767500 0.475000 0.462500
0.880000 0.475000 0.462500
0.000000 0.593750 0.462500
0.092500 0.593750 0.462500
0.205000 0.593750 0.462500
0.317500 0.593750 0.462500
0.430000 0.593750 0.462500
0.542500 0.593750 0.462500
0.655000 0.593750 0.462500
0.767500 0.593750 0.462500
0.880000 0.593750 0.462500
0.000000 0.712500 0.462500
0.092500 0.712500 0.462500
0.205000 0.712500 0.462500
0.317500 0.712500 0.462500
0.430000 0.712500 0.462500
0.542500 0.712500 0.462500
0.655000 0.712500 0.462500
0.767500 0.712500 0.462500
0.880000 0.712500 0.462500
0.000000 0.831250 0.462500
0.092500 0.831250 0.462500
0.205000 0.831250 0.462500
0.317500 0.831250 0.462500
0.430000 0.831250 0.462500
0.542500 0.831250 0.462500
0.655000 0.831250 0.462500
0.767500 0.831250 0.462500
0.880000 0.831250 0.462500
0.000000 0.950000 0.462500
0.092500 0.950000 0.462500
0.205000 0.950000 0.462500
0.317500 0.950000 0.462500
0.430000 0.950000 0.462500
0.542500 0.950000 0.462500
0.655000 0.950000 0.462500
0.767500 0.950000 0.462500
0.880000 0.950000 0.462500
0.000000 0.000000 0.600000
0.092500 0.000000 0.600000
0.205000 0.000000 0.600000
0.317500 0.000000 0.600000
0.430000 0.000000 0.600000
0.542500 0.000000 0.600000
0.655000 0.000000 0.600000
0.767500 0.000000 0.600000
0.880000 0.000000 0.600000
0.000000 0.118750 0.600000
0.092500 0.118750 0.600000
0.205000 0.118750 0.600000
0.317500 0.118750 0.600000
0.430000 0.118750 0.600000
0.542500 0.118750 0.600000
0.655000 0.118750 0.600000
0.767500 0.118750 0.600000
0.880000 0.118750 0.600000
0.000000 0.237500 0.600000
0.092500 0.237500 0.600000
0.205000 0.237500 0.600000
0.317500 0.237500 0.600000
0.430000 0.237500 0.600000
0.542500 0.237500 0.600000
0.655000 0.237500 0.600000
0.767500 0.237500 0.600000
0.880000 0.237500 0.600000
0.000000 0.356250 0.600000
0.092500 0.356250 0.600000
0.205000 0.356250 0.600000
0.317500 0.356250 0.600000
0.430000 0.356250 0.600000
0.542500 0.356250 0.600000
0.655000 0.356250 0.600000
0.767500 0.356250 0.600000
0.880000 0.356250 0.600000
0.000000 0.475000 0.600000
0.092500 0.475000 0.600000
0.205000 0.475000 0.600000
0.317500 0.475000 0.600000
0.430000 0.475000 0.600000
0.542500 0.475000 0.600000
0.655000 0.475000 0.600000
0.767500 0.475000 0.600000
0.880000 0.475000 0.600000
0.000000 0.593750 0.600000
0.092500 0.593750 0.600000
0.205000 0.593750 0.600000
0.317500 0.593750 0.600000
0.430000 0.593750 0.600000
0.542500 0.593750 0.600000
0.655000 0.593750 0.600000
0.767500 0.593750 0.600000
0.880000 0.593750 0.600000
0.000000 0.712500 0.600000
0.092500 0.712500 0.600000
0.205000 0.712500 0.600000
0.317500 0.712500 0.600000
0.430000 0.712500 0.600000
0.542500 0.712500 0.600000
0.655000 0.712500 0.600000
0.767500 0.712500 0.600000
0.880000 0.712500 0.600000
0.000000 0.831250 0.600000
0.092500 0.831250 0.600000
0.205000 0.831250 0.600000
0.317500 0.831250 0.600000
0.430000 0.831250 0.600000
0.542500 0.831250 0.600000
0.655000 0.831250 0.600000
0.767500 0.831250 0.600000
0.880000 0.831250 0.600000
0.000000 0.950000 0.600000
0.092500 0.950000 0.600000
0.205000 0.950000 0.600000
0.317500 0.950000 0.600000
0.430000 0.950000 0.600000
0.542500 0.950000 0.600000
0.655000 0.950000 0.600000
0.767500 0.950000 0.600000
0.880000 0.950000 0.600000
0.000000 0.000000 0.737500
0.092500 0.000000 0.737500
0.205000 0.000000 0.737500
0.317500 0.000000 0.737500
0.430000 0.000000 0.737500
0.542500 0.000000 0.737500
0.655000 0.000000 0.737500
0.767500 0.000000 0.737500
0.880000 0.000000 0.737500
0.000000 0.118750 0.737500
0.092500 0.118750 0.737500
0.205000 0.118750 0.737500
0.317500 0.118750 0.737500
0.430000 0.118750 0.737500
0.542500 0.118750 0.737500
0.655000 0.118750 0.737500
0.767500 0.118750 0.737500
0.880000 0.118750 0.737500
0.000000 0.237500 0.737500
0.092500 0.237500 0.737500
0.205000 0.237500 0.737500
0.317500 0.237500 0.737500
0.430000 0.237500 0.737500
0.542500 0.237500 0.737500
0.655000 0.237500 0.737500
0.767500 0.237500 0.737500
0.880000 0.237500 0.737500
0.000000 0.356250 0.737500
0.092500 0.356250 0.737500
0.205000 0.356250 0.737500
0.317500 0.356250 0.737500
0.430000 0.356250 0.737500
0.542500 0.356250 0.737500
0.655000 0.356250 0.737500
0.767500 0.356250 0.737500
0.880000 0.356250 0.737500
0.000000 0.475000 0.737500
0.092500 0.475000 0.737500
0.205000 0.475000 0.737500
0.317500 0.475000 0.737500
0.430000 0.475000 0.737500
0.542500 0.475000 0.737500
0.655000 0.475000 0.737500
0.767500 0.475000 0.737500
0.880000 0.475000 0.737500
0.000000 0.593750 0.737500
0.092500 0.593750 0.737500
0.205000 0.593750 0.737500
0.317500 0.593750 0.737500
0.430000 0.593750 0.737500
0.542500 0.593750 0.737500
0.655000 0.593750 0.737500
0.767500 0.593750 0.737500
0.880000 0.593750 0.737500
0.000000 0.712500 0.737500
0.092500 0.712500 0.737500
0.205000 0.712500 0.737500
0.317500 0.712500 0.737500
0.430000 0.712500 0.737500
0.542500 0.712500 0.737500
0.655000 0.712500 0.737500
0.767500 0.712500 0.737500
0.880000 0.712500 0.737500
0.000000 0.831250 0.737500
0.092500 0.831250 0.737500
0.205000 0.831250 0.737500
0.317500 0.831250 0.737500
0.430000 0.831250 0.737500
0.542500 0.831250 0.737500
0.655000 0.831250 0.737500
0.767500 0.831250 0.737500
0.880000 0.831250 0.737500
0.000000 0.950000 0.737500
0.092500 0.950000 0.737500
0.205000 0.950000 0.737500
0.317500 0.950000 0.737500
0.430000 0.950000 0.737500
0.542500 0.950000 0.737500
0.655000 0.950000 0.737500
0.767500 0.950000 0.737500
0.880000 0.950000 0.737500
0.000000 0.000000 0.875000
0.092500 0.000000 0.875000
0.205000 0.000000 0.875000
0.317500 0.000000 0.875000
0.430000 0.000000 0.875000
0.542500 0.000000 0.875000
0.655000 0.000000 0.875000
0.767500 0.000000 0.875000
0.880000 0.000000 0.875000
0.000000 0.118750 0.875000
0.092500 0.118750 0.875000
0.205000 0.118750 0.875000
0.317500 0.118750 0.875000
0.430000 0.118750 0.875000
0.542500 0.118750 0.875000
0.655000 0.118750 0.875000
0.767500 0.118750 0.875000
0.880000 0.118750 0.875000
0.000000 0.237500 0.875000
0.092500 0.237500 0.875000
0.205000 0.237500 0.875000
0.317500 0.237500 0.875000
0.430000 0.237500 0.875000
0.542500 0.237500 0.875000
0.655000 0.237500 0.875000
0.767500 0.237500 0.875000
0.880000 0.237500 0.875000
0.000000 0.356250 0.875000
0.092500 0.356250 0.875000
0.205000 0.356250 0.875000
0.317500 0.356250 0.875000
0.430000 0.356250 0.875000
0.542500 0.356250 0.875000
0.655000 0.356250 0.875000
0.767500 0.356250 0.875000
0.880000 0.356250 0.875000
0.000000 0.475000 0.875000
0.092500 0.475000 0.875000
0.205000 0.475000 0.875000
0.317500 0.475000 0.875000
0.430000 0.475000 0.875000
0.542500 0.475000 0.875000
0.655000 0.475000 0.875000
0.767500 0.475000 0.875000
0.880000 0.475000 0.875000
0.000000 0.593750 0.875000
0.092500 0.593750 0.875000
0.205000 0.593750 0.875000
0.317500 0.593750 0.875000
0.430000 0.593750 0.875000
0.542500 0.593750 0.875000
0.655000 0.593750 0.875000
0.767500 0.593750 0.875000
0.880000 0.593750 0.875000
0.000000 0.712500 0.875000
0.092500 0.712500 0.875000
0.205000 0.712500 0.875000
0.317500 0.712500 0.875000
0.430000 0.712500 0.875000
0.542500 0.712500 0.875000
0.655000 0.712500 0.875000
0.767500 0.712500 0.875000
0.880000 0.712500 0.875000
0.000000 0.831250 0.875000
0.092500 0.831250 0.875000
0.205000 0.831250 0.875000
0.317500 0.831250 0.875000
0.430000 0.831250 0.875000
0.542500 0.831250 0.875000
0.655000 0.831250 0.875000
0.767500 0.831250 0.875000
0.880000 0.831250 0.875000
0.000000 0.950000 0.875000
0.092500 0.950000 0.875000
0.205000 0.950000 0.875000
0.317500 0.950000 0.875000
0.430000 0.950000 0.875000
0.542500 0.950000 0.875000
0.655000 0.950000 0.875000
0.767500 0.950000 0.875000
0.880000 0.950000 0.875000
0.000000 0.000000 1.000000
0.092500 0.000000 1.000000
0.205000 0.000000 1.000000
0.317500 0.000000 1.000000
0.430000 0.000000 1.000000
0.542500 0.000000 1.000000
0.655000 0.000000 1.000000
0.767500 0.000000 1.000000
0.880000 0.000000 1.000000
0.000000 0.118750 1.000000
0.092500 0.118750 1.000000
0.205000 0.118750 1.000000
0.317500 0.118750 1.000000
0.430000 0.118750 1.000000
0.542500 0.118750 1.000000
0.655000 0.118750 1.000000
0.767500 0.118750 1.000000
0.880000 0.118750 1.000000
0.000000 0.237500 1.000000
0.092500 0.237500 1.000000
0.205000 0.237500 1.000000
0.317500 0.237500 1.000000
0.430000 0.237500 1.000000
0.542500 0.237500 1.000000
0.655000 0.237500 1.000000
0.767500 0.237500 1.000000
0.880000 0.237500 1.000000
0.000000 0.356250 1.000000
0.092500 0.356250 1.000000
0.205000 0.356250 1.000000
0.317500 0.356250 1.000000
0.430000 0.356250 1.000000
0.542500 0.356250 1.000000
0.655000 0.356250 1.000000
0.767500 0.356250 1.000000
0.880000 0.356250 1.000000
0.000000 0.475000 1.000000
0.092500 0.475000 1.000000
0.205000 0.475000 1.000000
0.317500 0.475000 1.000000
0.430000 0.475000 1.000000
0.542500 0.475000 1.000000
0.655000 0.475000 1.000000
0.767500 0.475000 1.000000
0.880000 0.475000 1.000000
0.000000 0.593750 1.000000
0.092500 0.593750 1.000000
0.205000 0.593750 1.000000
0.317500 0.593750 1.000000
0.430000 0.593750 1.000000
0.542500 0.593750 1.000000
0.655000 0.593750 1.000000
0.767500 0.593750 1.000000
0.880000 0.593750 1.000000
0.000000 0.712500 1.000000
0.092500 0.712500 1.000000
0.205000 0.712500 1.000000
0.317500 0.712500 1.000000
0.430000 0.712500 1.000000
0.542500 0.712500 1.000000
0.655000 0.712500 1.000000
0.767500 0.712500 1.000000
0.880000 0.712500 1.000000
0.000000 0.831250 1.000000
0.092500 0.831250 1.000000
0.205000 0.831250 1.000000
0.317500 0.831250 1.000000
0.430000 0.831250 1.000000
0.542500 0.831250 1.000000
0.655000 0.831250 1.000000
0.767500 0.831250 1.000000
0.880000 0.831250 1.000000
0.000000 0.950000 1.000000
0.092500 0.950000 1.000000
0.205000 0.950000 1.000000
0.317500 0.950000 1.000000
0.430000 0.950000 1.000000
0.542500 0.950000 1.000000
0.655000 0.950000 1.000000
0.767500 0.950000 1.000000
0.880000 0.950000 1.000000
0.000000 0.000000 1.000000
0.092500 0.000000 1.000000
0.205000 0.000000 1.000000
0.317500 0.000000 1.000000
0.430000 0.000000 1.000000
0.542500 0.000000 1.000000
0.655000 0.000000 1.000000
0.767500 0.000000 1.000000
0.880000 0.000000 1.000000
0.000000 0.118750 1.000000
0.092500 0.118750 1.000000
0.205000 0.118750 1.000000
0.317500 0.118750 1.000000
0.430000 0.118750 1.000000
0.542500 0.118750 1.000000
0.655000 0.118750 1.000000
0.767500 0.118750 1.000000
0.880000 0.118750 1.000000
0.000000 0.237500 1.000000
0.092500 0.237500 1.000000
0.205000 0.237500 1.000000
0.317500 0.237500 1.000000
0.430000 0.237500 1.000000
0.542500 0.237500 1.000000
0.655000 0.237500 1.000000
0.767500 0.237500 1.000000
0.880000 0.237500 1.000000
0.000000 0.356250 1.000000
0.092500 0.356250 1.000000
0.205000 0.356250 1.000000
0.317500 0.356250 1.000000
0.430000 0.356250 1.000000
0.542500 0.356250 1.000000
0.655000 0.356250 1.000000
0.767500 0.356250 1.000000
0.880000 0.356250 1.000000
0.000000 0.475000 1.000000
0.092500 0.475000 1.000000
0.205000 0.475000 1.000000
0.317500 0.475000 1.000000
0.430000 0.475000 1.000000
0.542500 0.475000 1.000000
0.655000 0.475000 1.000000
0.767500 0.475000 1.000000
0.880000 0.475000 1.000000
0.000000 0.593750 1.000000
0.092500 0.593750 1.000000
0.205000 0.593750 1.000000
0.317500 0.593750 1.000000
0.430000 0.593750 1.000000
0.542500 0.593750 1.000000
0.655000 0.593750 1.000000
0.767500 0.593750 1.000000
0.880000 0.593750 1.000000
0.000000 0.712500 1.000000
0.092500 0.712500 1.000000
0.205000 0.712500 1.000000
0.317500 0.712500 1.000000
0.430000 0.712500 1.000000
0.542500 0.712500 1.000000
0.655000 0.712500 1.000000
0.767500 0.712500 1.000000
0.880000 0.712500 1.000000
0.000000 0.831250 1.000000
0.092500 0.831250 1.000000
0.205000 0.831250 1.000000
0.317500 0.831250 1.000000
0.430000 0.831250 1.000000
0.542500 0.831250 1.000000
0.655000 0.831250 1.000000
0.767500 0.831250 1.000000
0.880000 0.831250 1.000000
0.000000 0.950000 1.000000
0.092500 0.950000 1.000000
0.205000 0.950000 1.000000
0.317500 0.950000 1.000000
0.430000 0.950000 1.000000
0.542500 0.950000 1.000000
0.655000 0.950000 1.000000
0.767500 0.950000 1.000000
0.880000 0.950000 1.000000
