luts/High_Contrast.cube
# High_Contrast LUT
# Created for MachinePaintingNodes testing
TITLE "High_Contrast"
LUT_3D_SIZE 17
DOMAIN_MIN 0.0 0.0 0.0
DOMAIN_MAX 1.0 1.0 1.0
0.006693 0.006693 0.006693
0.012432 0.006693 0.006693
0.022977 0.006693 0.006693
0.042088 0.006693 0.006693
0.075858 0.006693 0.006693
0.132964 0.006693 0.006693
0.222700 0.006693 0.006693
0.348645 0.006693 0.006693
0.500000 0.006693 0.006693
0.651355 0.006693 0.006693
0.777300 0.006693 0.006693
0.867036 0.006693 0.006693
0.924142 0.006693 0.006693
0.957912 0.006693 0.006693
0.977023 0.006693 0.006693
0.987568 0.006693 0.006693
0.993307 0.006693 0.006693
0.006693 0.012432 0.006693
0.012432 0.012432 0.006693
0.022977 0.012432 0.006693
0.042088 0.012432 0.006693
0.075858 0.012432 0.006693
0.132964 0.012432 0.006693
0.222700 0.012432 0.006693
0.348645 0.012432 0.006693
0.500000 0.012432 0.006693
0.651355 0.012432 0.006693
0.777300 0.012432 0.006693
0.867036 0.012432 0.006693
0.924142 0.012432 0.006693
0.957912 0.012432 0.006693
0.977023 0.012432 0.006693
0.987568 0.012432 0.006693
0.993307 0.012432 0.006693
0.006693 0.022977 0.006693
0.012432 0.022977 0.006693
0.022977 0.022977 0.006693
0.042088 0.022977 0.006693
0.075858 0.022977 0.006693
0.132964 0.022977 0.006693
0.222700 0.022977 0.006693
0.348645 0.022977 0.006693
0.500000 0.022977 0.006693
0.651355 0.022977 0.006693
0.777300 0.022977 0.006693
0.867036 0.022977 0.006693
0.924142 0.022977 0.006693
0.957912 0.022977 0.006693
0.977023 0.022977 0.006693
0.987568 0.022977 0.006693
0.993307 0.022977 0.006693
0.006693 0.042088 0.006693
0.012432 0.042088 0.006693
0.022977 0.042088 0.006693
0.042088 0.042088 0.006693
0.075858 0.042088 0.006693
0.132964 0.042088 0.006693
0.222700 0.042088 0.006693
0.348645 0.042088 0.006693
0.500000 0.042088 0.006693
0.651355 0.042088 0.006693
0.777300 0.042088 0.006693
0.867036 0.042088 0.006693
0.924142 0.042088 0.006693
0.957912 0.042088 0.006693
0.977023 0.042088 0.006693
0.987568 0.042088 0.006693
0.993307 0.042088 0.006693
0.006693 0.075858 0.006693
0.012432 0.075858 0.006693
0.022977 0.075858 0.006693
0.042088 0.075858 0.006693
0.075858 0.075858 0.006693
0.132964 0.075858 0.006693
0.222700 0.075858 0.006693
0.348645 0.075858 0.006693
0.500000 0.075858 0.006693
0.651355 0.075858 0.006693
0.777300 0.075858 0.006693
0.867036 0.075858 0.006693
0.924142 0.075858 0.006693
0.957912 0.075858 0.006693
0.977023 0.075858 0.006693
0.987568 0.075858 0.006693
0.993307 0.075858 0.006693
0.006693 0.132964 0.006693
0.012432 0.132964 0.006693
0.022977 0.132964 0.006693
0.042088 0.132964 0.006693
0.075858 0.132964 0.006693
0.132964 0.132964 0.006693
0.222700 0.132964 0.006693
0.348645 0.132964 0.006693
0.500000 0.132964 0.006693
0.651355 0.132964 0.006693
0.777300 0.132964 0.006693
0.867036 0.132964 0.006693
0.924142 0.132964 0.006693
0.957912 0.132964 0.006693
0.977023 0.132964 0.006693
0.987568 0.132964 0.006693
0.993307 0.132964 0.006693
0.006693 0.222700 0.006693
0.012432 0.222700 0.006693
0.022977 0.222700 0.006693
0.042088 0.222700 0.006693
0.075858 0.222700 0.006693
0.132964 0.222700 0.006693
0.222700 0.222700 0.006693
0.348645 0.222700 0.006693
0.500000 0.222700 0.006693
0.651355 0.222700 0.006693
0.777300 0.222700 0.006693
0.867036 0.222700 0.006693
0.924142 0.222700 0.006693
0.957912 0.222700 0.006693
0.977023 0.222700 0.006693
0.987568 0.222700 0.006693
0.993307 0.222700 0.006693
0.006693 0.348645 0.006693
0.012432 0.348645 0.006693
0.022977 0.348645 0.006693
0.042088 0.348645 0.006693
0.075858 0.348645 0.006693
0.132964 0.348645 0.006693
0.222700 0.348645 0.006693
0.348645 0.348645 0.006693
0.500000 0.348645 0.006693
0.651355 0.348645 0.006693
0.777300 0.348645 0.006693
0.867036 0.348645 0.006693
0.924142 0.348645 0.006693
0.957912 0.348645 0.006693
0.977023 0.348645 0.006693
0.987568 0.348645 0.006693
0.993307 0.348645 0.006693
0.006693 0.500000 0.006693
0.012432 0.500000 0.006693
0.022977 0.500000 0.006693
0.042088 0.500000 0.006693
0.075858 0.500000 0.006693
0.132964 0.500000 0.006693
0.222700 0.500000 0.006693
0.348645 0.500000 0.006693
0.500000 0.500000 0.006693
0.651355 0.500000 0.006693
0.777300 0.500000 0.006693
0.867036 0.500000 0.006693
0.924142 0.500000 0.006693
0.957912 0.500000 0.006693
0.977023 0.500000 0.006693
0.987568 0.500000 0.006693
0.993307 0.500000 0.006693
0.006693 0.651355 0.006693
0.012432 0.651355 0.006693
0.022977 0.651355 0.006693
0.042088 0.651355 0.006693
0.075858 0.651355 0.006693
0.132964 0.651355 0.006693
0.222700 0.651355 0.006693
0.348645 0.651355 0.006693
0.500000 0.651355 0.006693
0.651355 0.651355 0.006693
0.777300 0.651355 0.006693
0.867036 0.651355 0.006693
0.924142 0.651355 0.006693
0.957912 0.651355 0.006693
0.977023 0.651355 0.006693
0.987568 0.651355 0.006693
0.993307 0.651355 0.006693
0.006693 0.777300 0.006693
0.012432 0.777300 0.006693
0.022977 0.777300 0.006693
0.042088 0.777300 0.006693
0.075858 0.777300 0.006693
0.132964 0.777300 0.006693
0.222700 0.777300 0.006693
0.348645 0.777300 0.006693
0.500000 0.777300 0.006693
0.651355 0.777300 0.006693
0.777300 0.777300 0.006693
0.867036 0.777300 0.006693
0.924142 0.777300 0.006693
0.957912 0.777300 0.006693
0.977023 0.777300 0.006693
0.987568 0.777300 0.006693
0.993307 0.777300 0.006693
0.006693 0.867036 0.006693
0.012432 0.867036 0.006693
0.022977 0.867036 0.006693
0.042088 0.867036 0.006693
0.075858 0.867036 0.006693
0.132964 0.867036 0.006693
0.222700 0.867036 0.006693
0.348645 0.867036 0.006693
0.500000 0.867036 0.006693
0.651355 0.867036 0.006693
0.777300 0.867036 0.006693
0.867036 0.867036 0.006693
0.924142 0.867036 0.006693
0.957912 0.867036 0.006693
0.977023 0.867036 0.006693
0.987568 0.867036 0.006693
0.993307 0.867036 0.006693
0.006693 0.924142 0.006693
0.012432 0.924142 0.006693
0.022977 0.924142 0.006693
0.042088 0.924142 0.006693
0.075858 0.924142 0.006693
0.132964 0.924142 0.006693
0.222700 0.924142 0.006693
0.348645 0.924142 0.006693
0.500000 0.924142 0.006693
0.651355 0.924142 0.006693
0.777300 0.924142 0.006693
0.867036 0.924142 0.006693
0.924142 0.924142 0.006693
0.957912 0.924142 0.006693
0.977023 0.924142 0.006693
0.987568 0.924142 0.006693
0.993307 0.924142 0.006693
0.006693 0.957912 0.006693
0.012432 0.957912 0.006693
0.022977 0.957912 0.006693
0.042088 0.957912 0.006693
0.075858 0.957912 0.006693
0.132964 0.957912 0.006693
0.222700 0.957912 0.006693
0.348645 0.957912 0.006693
0.500000 0.957912 0.006693
0.651355 0.957912 0.006693
0.777300 0.957912 0.006693
0.867036 0.957912 0.006693
0.924142 0.957912 0.006693
0.957912 0.957912 0.006693
0.977023 0.957912 0.006693
0.987568 0.957912 0.006693
0.993307 0.957912 0.006693
0.006693 0.977023 0.006693
0.012432 0.977023 0.006693
0.022977 0.977023 0.006693
0.042088 0.977023 0.006693
0.075858 0.977023 0.006693
0.132964 0.977023 0.006693
0.222700 0.977023 0.006693
0.348645 0.977023 0.006693
0.500000 0.977023 0.006693
0.651355 0.977023 0.006693
0.777300 0.977023 0.006693
0.867036 0.977023 0.006693
0.924142 0.977023 0.006693
0.957912 0.977023 0.006693
0.977023 0.977023 0.006693
0.987568 0.977023 0.006693
0.993307 0.977023 0.006693
0.006693 0.987568 0.006693
0.012432 0.987568 0.006693
0.022977 0.987568 0.006693
0.042088 0.987568 0.006693
0.075858 0.987568 0.006693
0.132964 0.987568 0.006693
0.222700 0.987568 0.006693
0.348645 0.987568 0.006693
0.500000 0.987568 0.006693
0.651355 0.987568 0.006693
0.777300 0.987568 0.006693
0.867036 0.987568 0.006693
0.924142 0.987568 0.006693
0.957912 0.987568 0.006693
0.977023 0.987568 0.006693
0.987568 0.987568 0.006693
0.993307 0.987568 0.006693
0.006693 0.993307 0.006693
0.012432 0.993307 0.006693
0.022977 0.993307 0.006693
0.042088 0.993307 0.006693
0.075858 0.993307 0.006693
0.132964 0.993307 0.006693
0.222700 0.993307 0.006693
0.348645 0.993307 0.006693
0.500000 0.993307 0.006693
0.651355 0.993307 0.006693
0.777300 0.993307 0.006693
0.867036 0.993307 0.006693
0.924142 0.993307 0.006693
0.957912 0.993307 0.006693
0.977023 0.993307 0.006693
0.987568 0.993307 0.006693
0.993307 0.993307 0.006693
0.006693 0.006693 0.012432
0.012432 0.006693 0.012432
0.022977 0.006693 0.012432
0.042088 0.006693 0.012432
0.075858 0.006693 0.012432
0.132964 0.006693 0.012432
0.222700 0.006693 0.012432
0.348645 0.006693 0.012432
0.500000 0.006693 0.012432
0.651355 0.006693 0.012432
0.777300 0.006693 0.012432
0.867036 0.006693 0.012432
0.924142 0.006693 0.012432
0.957912 0.006693 0.012432
0.977023 0.006693 0.012432
0.987568 0.006693 0.012432
0.993307 0.006693 0.012432
0.006693 0.012432 0.012432
0.012432 0.012432 0.012432
0.022977 0.012432 0.012432
0.042088 0.012432 0.012432
0.075858 0.012432 0.012432
0.132964 0.012432 0.012432
0.222700 0.012432 0.012432
0.348645 0.012432 0.012432
0.500000 0.012432 0.012432
0.651355 0.012432 0.012432
0.777300 0.012432 0.012432
0.867036 0.012432 0.012432
0.924142 0.012432 0.012432
0.957912 0.012432 0.012432
0.977023 0.012432 0.012432
0.987568 0.012432 0.012432
0.993307 0.012432 0.012432
0.006693 0.022977 0.012432
0.012432 0.022977 0.012432
0.022977 0.022977 0.012432
0.042088 0.022977 0.012432
0.075858 0.022977 0.012432
0.132964 0.022977 0.012432
0.222700 0.022977 0.012432
0.348645 0.022977 0.012432
0.500000 0.022977 0.012432
0.651355 0.022977 0.012432
0.777300 0.022977 0.012432
0.867036 0.022977 0.012432
0.924142 0.022977 0.012432
0.957912 0.022977 0.012432
0.977023 0.022977 0.012432
0.987568 0.022977 0.012432
0.993307 0.022977 0.012432
0.006693 0.042088 0.012432
0.012432 0.042088 0.012432
0.022977 0.042088 0.012432
0.042088 0.042088 0.012432
0.075858 0.042088 0.012432
0.132964 0.042088 0.012432
0.222700 0.042088 0.012432
0.348645 0.042088 0.012432
0.500000 0.042088 0.012432
0.651355 0.042088 0.012432
0.777300 0.042088 0.012432
0.867036 0.042088 0.012432
0.924142 0.042088 0.012432
0.957912 0.042088 0.012432
0.977023 0.042088 0.012432
0.987568 0.042088 0.012432
0.993307 0.042088 0.012432
0.006693 0.075858 0.012432
0.012432 0.075858 0.012432
0.022977 0.075858 0.012432
0.042088 0.075858 0.012432
0.075858 0.075858 0.012432
0.132964 0.075858 0.012432
0.222700 0.075858 0.012432
0.348645 0.075858 0.012432
0.500000 0.075858 0.012432
0.651355 0.075858 0.012432
0.777300 0.075858 0.012432
0.867036 0.075858 0.012432
0.924142 0.075858 0.012432
0.957912 0.075858 0.012432
0.977023 0.075858 0.012432
0.987568 0.075858 0.012432
0.993307 0.075858 0.012432
0.006693 0.132964 0.012432
0.012432 0.132964 0.012432
0.022977 0.132964 0.012432
0.042088 0.132964 0.012432
0.075858 0.132964 0.012432
0.132964 0.132964 0.012432
0.222700 0.132964 0.012432
0.348645 0.132964 0.012432
0.500000 0.132964 0.012432
0.651355 0.132964 0.012432
0.777300 0.132964 0.012432
0.867036 0.132964 0.012432
0.924142 0.132964 0.012432
0.957912 0.132964 0.012432
0.977023 0.132964 0.012432
0.987568 0.132964 0.012432
0.993307 0.132964 0.012432
0.006693 0.222700 0.012432
0.012432 0.222700 0.012432
0.022977 0.222700 0.012432
0.042088 0.222700 0.012432
0.075858 0.222700 0.012432
0.132964 0.222700 0.012432
0.222700 0.222700 0.012432
0.348645 0.222700 0.012432
0.500000 0.222700 0.012432
0.651355 0.222700 0.012432
0.777300 0.222700 0.012432
0.867036 0.222700 0.012432
0.924142 0.222700 0.012432
0.957912 0.222700 0.012432
0.977023 0.222700 0.012432
0.987568 0.222700 0.012432
0.993307 0.222700 0.012432
0.006693 0.348645 0.012432
0.012432 0.348645 0.012432
0.022977 0.348645 0.012432
0.042088 0.348645 0.012432
0.075858 0.348645 0.012432
0.132964 0.348645 0.012432
0.222700 0.348645 0.012432
0.348645 0.348645 0.012432
0.500000 0.348645 0.012432
0.651355 0.348645 0.012432
0.777300 0.348645 0.012432
0.867036 0.348645 0.012432
0.924142 0.348645 0.012432
0.957912 0.348645 0.012432
0.977023 0.348645 0.012432
0.987568 0.348645 0.012432
0.993307 0.348645 0.012432
0.006693 0.500000 0.012432
0.012432 0.500000 0.012432
0.022977 0.500000 0.012432
0.042088 0.500000 0.012432
0.075858 0.500000 0.012432
0.132964 0.500000 0.012432
0.222700 0.500000 0.012432
0.348645 0.500000 0.012432
0.500000 0.500000 0.012432
0.651355 0.500000 0.012432
0.777300 0.500000 0.012432
0.867036 0.500000 0.012432
0.924142 0.500000 0.012432
0.957912 0.500000 0.012432
0.977023 0.500000 0.012432
0.987568 0.500000 0.012432
0.993307 0.500000 0.012432
0.006693 0.651355 0.012432
0.012432 0.651355 0.012432
0.022977 0.651355 0.012432
0.042088 0.651355 0.012432
0.075858 0.651355 0.012432
0.132964 0.651355 0.012432
0.222700 0.651355 0.012432
0.348645 0.651355 0.012432
0.500000 0.651355 0.012432
0.651355 0.651355 0.012432
0.777300 0.651355 0.012432
0.867036 0.651355 0.012432
0.924142 0.651355 0.012432
0.957912 0.651355 0.012432
0.977023 0.651355 0.012432
0.987568 0.651355 0.012432
0.993307 0.651355 0.012432
0.006693 0.777300 0.012432
0.012432 0.777300 0.012432
0.022977 0.777300 0.012432
0.042088 0.777300 0.012432
0.075858 0.777300 0.012432
0.132964 0.777300 0.012432
0.222700 0.777300 0.012432
0.348645 0.777300 0.012432
0.500000 0.777300 0.012432
0.651355 0.777300 0.012432
0.777300 0.777300 0.012432
0.867036 0.777300 0.012432
0.924142 0.777300 0.012432
0.957912 0.777300 0.012432
0.977023 0.777300 0.012432
0.987568 0.777300 0.012432
0.993307 0.777300 0.012432
0.006693 0.867036 0.012432
0.012432 0.867036 0.012432
0.022977 0.867036 0.012432
0.042088 0.867036 0.012432
0.075858 0.867036 0.012432
0.132964 0.867036 0.012432
0.222700 0.867036 0.012432
0.348645 0.867036 0.012432
0.500000 0.867036 0.012432
0.651355 0.867036 0.012432
0.777300 0.867036 0.012432
0.867036 0.867036 0.012432
0.924142 0.867036 0.012432
0.957912 0.867036 0.012432
0.977023 0.867036 0.012432
0.987568 0.867036 0.012432
0.993307 0.867036 0.012432
0.006693 0.924142 0.012432
0.012432 0.924142 0.012432
0.022977 0.924142 0.012432
0.042088 0.924142 0.012432
0.075858 0.924142 0.012432
0.132964 0.924142 0.012432
0.222700 0.924142 0.012432
0.348645 0.924142 0.012432
0.500000 0.924142 0.012432
0.651355 0.924142 0.012432
0.777300 0.924142 0.012432
0.867036 0.924142 0.012432
0.924142 0.924142 0.012432
0.957912 0.924142 0.012432
0.977023 0.924142 0.012432
0.987568 0.924142 0.012432
0.993307 0.924142 0.012432
0.006693 0.957912 0.012432
0.012432 0.957912 0.012432
0.022977 0.957912 0.012432
0.042088 0.957912 0.012432
0.075858 0.957912 0.012432
0.132964 0.957912 0.012432
0.222700 0.957912 0.012432
0.348645 0.957912 0.012432
0.500000 0.957912 0.012432
0.651355 0.957912 0.012432
0.777300 0.957912 0.012432
0.867036 0.957912 0.012432
0.924142 0.957912 0.012432
0.957912 0.957912 0.012432
0.977023 0.957912 0.012432
0.987568 0.957912 0.012432
0.993307 0.957912 0.012432
0.006693 0.977023 0.012432
0.012432 0.977023 0.012432
0.022977 0.977023 0.012432
0.042088 0.977023 0.012432
0.075858 0.977023 0.012432
0.132964 0.977023 0.012432
0.222700 0.977023 0.012432
0.348645 0.977023 0.012432
0.500000 0.977023 0.012432
0.651355 0.977023 0.012432
0.777300 0.977023 0.012432
0.867036 0.977023 0.012432
0.924142 0.977023 0.012432
0.957912 0.977023 0.012432
0.977023 0.977023 0.012432
0.987568 0.977023 0.012432
0.993307 0.977023 0.012432
0.006693 0.987568 0.012432
0.012432 0.987568 0.012432
0.022977 0.987568 0.012432
0.042088 0.987568 0.012432
0.075858 0.987568 0.012432
0.132964 0.987568 0.012432
0.222700 0.987568 0.012432
0.348645 0.987568 0.012432
0.500000 0.987568 0.012432
0.651355 0.987568 0.012432
0.777300 0.987568 0.012432
0.867036 0.987568 0.012432
0.924142 0.987568 0.012432
0.957912 0.987568 0.012432
0.977023 0.987568 0.012432
0.987568 0.987568 0.012432
0.993307 0.987568 0.012432
0.006693 0.993307 0.012432
0.012432 0.993307 0.012432
0.022977 0.993307 0.012432
0.042088 0.993307 0.012432
0.075858 0.993307 0.012432
0.132964 0.993307 0.012432
0.222700 0.993307 0.012432
0.348645 0.993307 0.012432
0.500000 0.993307 0.012432
0.651355 0.993307 0.012432
0.777300 0.993307 0.012432
0.867036 0.993307 0.012432
0.924142 0.993307 0.012432
0.957912 0.993307 0.012432
0.977023 0.993307 0.012432
0.987568 0.993307 0.012432
0.993307 0.993307 0.012432
0.006693 0.006693 0.022977
0.012432 0.006693 0.022977
0.022977 0.006693 0.022977
0.042088 0.006693 0.022977
0.075858 0.006693 0.022977
0.132964 0.006693 0.022977
0.222700 0.006693 0.022977
0.348645 0.006693 0.022977
0.500000 0.006693 0.022977
0.651355 0.006693 0.022977
0.777300 0.006693 0.022977
0.867036 0.006693 0.022977
0.924142 0.006693 0.022977
0.957912 0.006693 0.022977
0.977023 0.006693 0.022977
0.987568 0.006693 0.022977
0.993307 0.006693 0.022977
0.006693 0.012432 0.022977
0.012432 0.012432 0.022977
0.022977 0.012432 0.022977
0.042088 0.012432 0.022977
0.075858 0.012432 0.022977
0.132964 0.012432 0.022977
0.222700 0.012432 0.022977
0.348645 0.012432 0.022977
0.500000 0.012432 0.022977
0.651355 0.012432 0.022977
0.777300 0.012432 0.022977
0.867036 0.012432 0.022977
0.924142 0.012432 0.022977
0.957912 0.012432 0.022977
0.977023 0.012432 0.022977
0.987568 0.012432 0.022977
0.993307 0.012432 0.022977
0.006693 0.022977 0.022977
0.012432 0.022977 0.022977
0.022977 0.022977 0.022977
0.042088 0.022977 0.022977
0.075858 0.022977 0.022977
0.132964 0.022977 0.022977
0.222700 0.022977 0.022977
0.348645 0.022977 0.022977
0.500000 0.022977 0.022977
0.651355 0.022977 0.022977
0.777300 0.022977 0.022977
0.867036 0.022977 0.022977
0.924142 0.022977 0.022977
0.957912 0.022977 0.022977
0.977023 0.022977 0.022977
0.987568 0.022977 0.022977
0.993307 0.022977 0.022977
0.006693 0.042088 0.022977
0.012432 0.042088 0.022977
0.022977 0.042088 0.022977
0.042088 0.042088 0.022977
0.075858 0.042088 0.022977
0.132964 0.042088 0.022977
0.222700 0.042088 0.022977
0.348645 0.042088 0.022977
0.500000 0.042088 0.022977
0.651355 0.042088 0.022977
0.777300 0.042088 0.022977
0.867036 0.042088 0.022977
0.924142 0.042088 0.022977
0.957912 0.042088 0.022977
0.977023 0.042088 0.022977
0.987568 0.042088 0.022977
0.993307 0.042088 0.022977
0.006693 0.075858 0.022977
0.012432 0.075858 0.022977
0.022977 0.075858 0.022977
0.042088 0.075858 0.022977
0.075858 0.075858 0.022977
0.132964 0.075858 0.022977
0.222700 0.075858 0.022977
0.348645 0.075858 0.022977
0.500000 0.075858 0.022977
0.651355 0.075858 0.022977
0.777300 0.075858 0.022977
0.867036 0.075858 0.022977
0.924142 0.075858 0.022977
0.957912 0.075858 0.022977
0.977023 0.075858 0.022977
0.987568 0.075858 0.022977
0.993307 0.075858 0.022977
0.006693 0.132964 0.022977
0.012432 0.132964 0.022977
0.022977 0.132964 0.022977
0.042088 0.132964 0.022977
0.075858 0.132964 0.022977
0.132964 0.132964 0.022977
0.222700 0.132964 0.022977
0.348645 0.132964 0.022977
0.500000 0.132964 0.022977
0.651355 0.132964 0.022977
0.777300 0.132964 0.022977
0.867036 0.132964 0.022977
0.924142 0.132964 0.022977
0.957912 0.132964 0.022977
0.977023 0.132964 0.022977
0.987568 0.132964 0.022977
0.993307 0.132964 0.022977
0.006693 0.222700 0.022977
0.012432 0.222700 0.022977
0.022977 0.222700 0.022977
0.042088 0.222700 0.022977
0.075858 0.222700 0.022977
0.132964 0.222700 0.022977
0.222700 0.222700 0.022977
0.348645 0.222700 0.022977
0.500000 0.222700 0.022977
0.651355 0.222700 0.022977
0.777300 0.222700 0.022977
0.867036 0.222700 0.022977
0.924142 0.222700 0.022977
0.957912 0.222700 0.022977
0.977023 0.222700 0.022977
0.987568 0.222700 0.022977
0.993307 0.222700 0.022977
0.006693 0.348645 0.022977
0.012432 0.348645 0.022977
0.022977 0.348645 0.022977
0.042088 0.348645 0.022977
0.075858 0.348645 0.022977
0.132964 0.348645 0.022977
0.222700 0.348645 0.022977
0.348645 0.348645 0.022977
0.500000 0.348645 0.022977
0.651355 0.348645 0.022977
0.777300 0.348645 0.022977
0.867036 0.348645 0.022977
0.924142 0.348645 0.022977
0.957912 0.348645 0.022977
0.977023 0.348645 0.022977
0.987568 0.348645 0.022977
0.993307 0.348645 0.022977
0.006693 0.500000 0.022977
0.012432 0.500000 0.022977
0.022977 0.500000 0.022977
0.042088 0.500000 0.022977
0.075858 0.500000 0.022977
0.132964 0.500000 0.022977
0.222700 0.500000 0.022977
0.348645 0.500000 0.022977
0.500000 0.500000 0.022977
0.651355 0.500000 0.022977
0.777300 0.500000 0.022977
0.867036 0.500000 0.022977
0.924142 0.500000 0.022977
0.957912 0.500000 0.022977
0.977023 0.500000 0.022977
0.987568 0.500000 0.022977
0.993307 0.500000 0.022977
0.006693 0.651355 0.022977
0.012432 0.651355 0.022977
0.022977 0.651355 0.022977
0.042088 0.651355 0.022977
0.075858 0.651355 0.022977
0.132964 0.651355 0.022977
0.222700 0.651355 0.022977
0.348645 0.651355 0.022977
0.500000 0.651355 0.022977
0.651355 0.651355 0.022977
0.777300 0.651355 0.022977
0.867036 0.651355 0.022977
0.924142 0.651355 0.022977
0.957912 0.651355 0.022977
0.977023 0.651355 0.022977
0.987568 0.651355 0.022977
0.993307 0.651355 0.022977
0.006693 0.777300 0.022977
0.012432 0.777300 0.022977
0.022977 0.777300 0.022977
0.042088 0.777300 0.022977
0.075858 0.777300 0.022977
0.132964 0.777300 0.022977
0.222700 0.777300 0.022977
0.348645 0.777300 0.022977
0.500000 0.777300 0.022977
0.651355 0.777300 0.022977
0.777300 0.777300 0.022977
0.867036 0.777300 0.022977
0.924142 0.777300 0.022977
0.957912 0.777300 0.022977
0.977023 0.777300 0.022977
0.987568 0.777300 0.022977
0.993307 0.777300 0.022977
0.006693 0.867036 0.022977
0.012432 0.867036 0.022977
0.022977 0.867036 0.022977
0.042088 0.867036 0.022977
0.075858 0.867036 0.022977
0.132964 0.867036 0.022977
0.222700 0.867036 0.022977
0.348645 0.867036 0.022977
0.500000 0.867036 0.022977
0.651355 0.867036 0.022977
0.777300 0.867036 0.022977
0.867036 0.867036 0.022977
0.924142 0.867036 0.022977
0.957912 0.867036 0.022977
0.977023 0.867036 0.022977
0.987568 0.867036 0.022977
0.993307 0.867036 0.022977
0.006693 0.924142 0.022977
0.012432 0.924142 0.022977
0.022977 0.924142 0.022977
0.042088 0.924142 0.022977
0.075858 0.924142 0.022977
0.132964 0.924142 0.022977
0.222700 0.924142 0.022977
0.348645 0.924142 0.022977
0.500000 0.924142 0.022977
0.651355 0.924142 0.022977
0.777300 0.924142 0.022977
0.867036 0.924142 0.022977
0.924142 0.924142 0.022977
0.957912 0.924142 0.022977
0.977023 0.924142 0.022977
0.987568 0.924142 0.022977
0.993307 0.924142 0.022977
0.006693 0.957912 0.022977
0.012432 0.957912 0.022977
0.022977 0.957912 0.022977
0.042088 0.957912 0.022977
0.075858 0.957912 0.022977
0.132964 0.957912 0.022977
0.222700 0.957912 0.022977
0.348645 0.957912 0.022977
0.500000 0.957912 0.022977
0.651355 0.957912 0.022977
0.777300 0.957912 0.022977
0.867036 0.957912 0.022977
0.924142 0.957912 0.022977
0.957912 0.957912 0.022977
0.977023 0.957912 0.022977
0.987568 0.957912 0.022977
0.993307 0.957912 0.022977
0.006693 0.977023 0.022977
0.012432 0.977023 0.022977
0.022977 0.977023 0.022977
0.042088 0.977023 0.022977
0.075858 0.977023 0.022977
0.132964 0.977023 0.022977
0.222700 0.977023 0.022977
0.348645 0.977023 0.022977
0.500000 0.977023 0.022977
0.651355 0.977023 0.022977
0.777300 0.977023 0.022977
0.867036 0.977023 0.022977
0.924142 0.977023 0.022977
0.957912 0.977023 0.022977
0.977023 0.977023 0.022977
0.987568 0.977023 0.022977
0.993307 0.977023 0.022977
0.006693 0.987568 0.022977
0.012432 0.987568 0.022977
0.022977 0.987568 0.022977
0.042088 0.987568 0.022977
0.075858 0.987568 0.022977
0.132964 0.987568 0.022977
0.222700 0.987568 0.022977
0.348645 0.987568 0.022977
0.500000 0.987568 0.022977
0.651355 0.987568 0.022977
0.777300 0.987568 0.022977
0.867036 0.987568 0.022977
0.924142 0.987568 0.022977
0.957912 0.987568 0.022977
0.977023 0.987568 0.022977
0.987568 0.987568 0.022977
0.993307 0.987568 0.022977
0.006693 0.993307 0.022977
0.012432 0.993307 0.022977
0.022977 0.993307 0.022977
0.042088 0.993307 0.022977
0.075858 0.993307 0.022977
0.132964 0.993307 0.022977
0.222700 0.993307 0.022977
0.348645 0.993307 0.022977
0.500000 0.993307 0.022977
0.651355 0.993307 0.022977
0.777300 0.993307 0.022977
0.867036 0.993307 0.022977
0.924142 0.993307 0.022977
0.957912 0.993307 0.022977
0.977023 0.993307 0.022977
0.987568 0.993307 0.022977
0.993307 0.993307 0.022977
0.006693 0.006693 0.042088
0.012432 0.006693 0.042088
0.022977 0.006693 0.042088
0.042088 0.006693 0.042088
0.075858 0.006693 0.042088
0.132964 0.006693 0.042088
0.222700 0.006693 0.042088
0.348645 0.006693 0.042088
0.500000 0.006693 0.042088
0.651355 0.006693 0.042088
0.777300 0.006693 0.042088
0.867036 0.006693 0.042088
0.924142 0.006693 0.042088
0.957912 0.006693 0.042088
0.977023 0.006693 0.042088
0.987568 0.006693 0.042088
