luts/High_Contrast.cube
# High_Contrast LUT
# Created for MachinePaintingNodes testing
TITLE "High_Contrast"
LUT_3D_SIZE 5
DOMAIN_MIN 0.0 0.0 0.0
DOMAIN_MAX 1.0 1.0 1.0
0.006693 0.006693 0.006693
0.075858 0.006693 0.006693
0.500000 0.006693 0.006693
0.924142 0.006693 0.006693
0.993307 0.006693 0.006693
0.006693 0.075858 0.006693
0.075858 0.075858 0.006693
0.500000 0.075858 0.006693
0.924142 0.075858 0.006693
0.993307 0.075858 0.006693
0.006693 0.500000 0.006693
0.075858 0.500000 0.006693
0.500000 0.500000 0.006693
0.924142 0.500000 0.006693
0.993307 0.500000 0.006693
0.006693 0.924142 0.006693
0.075858 0.924142 0.006693
0.500000 0.924142 0.006693
0.924142 0.924142 0.006693
0.993307 0.924142 0.006693
0.006693 0.993307 0.006693
0.075858 0.993307 0.006693
0.500000 0.993307 0.006693
0.924142 0.993307 0.006693
0.993307 0.993307 0.006693
0.006693 0.006693 0.075858
0.075858 0.006693 0.075858
0.500000 0.006693 0.075858
0.924142 0.006693 0.075858
0.993307 0.006693 0.075858
0.006693 0.075858 0.075858
0.075858 0.075858 0.075858
0.500000 0.075858 0.075858
0.924142 0.075858 0.075858
0.993307 0.075858 0.075858
0.006693 0.500000 0.075858
0.075858 0.500000 0.075858
0.500000 0.500000 0.075858
0.924142 0.500000 0.075858
0.993307 0.500000 0.075858
0.006693 0.924142 0.075858
0.075858 0.924142 0.075858
0.500000 0.924142 0.075858
0.924142 0.924142 0.075858
0.993307 0.924142 0.075858
0.006693 0.993307 0.075858
0.075858 0.993307 0.075858
0.500000 0.993307 0.075858
0.924142 0.993307 0.075858
0.993307 0.993307 0.075858
0.006693 0.006693 0.500000
0.075858 0.006693 0.500000
0.500000 0.006693 0.500000
0.924142 0.006693 0.500000
0.993307 0.006693 0.500000
0.006693 0.075858 0.500000
0.075858 0.075858 0.500000
0.500000 0.075858 0.500000
0.924142 0.075858 0.500000
0.993307 0.075858 0.500000
0.006693 0.500000 0.500000
0.075858 0.500000 0.500000
0.500000 0.500000 0.500000
0.924142 0.500000 0.500000
0.993307 0.500000 0.500000
0.006693 0.924142 0.500000
0.075858 0.924142 0.500000
0.500000 0.924142 0.500000
0.924142 0.924142 0.500000
0.993307 0.924142 0.500000
0.006693 0.993307 0.500000
0.075858 0.993307 0.500000
0.500000 0.993307 0.500000
0.924142 0.993307 0.500000
0.993307 0.993307 0.500000
0.006693 0.006693 0.924142
0.075858 0.006693 0.924142
0.500000 0.006693 0.924142
0.924142 0.006693 0.924142
0.993307 0.006693 0.924142
0.006693 0.075858 0.924142
0.075858 0.075858 0.924142
0.500000 0.075858 0.924142
0.924142 0.075858 0.924142
0.993307 0.075858 0.924142
0.006693 0.500000 0.924142
0.075858 0.500000 0.924142
0.500000 0.500000 0.924142
0.924142 0.500000 0.924142
0.993307 0.500000 0.924142
0.006693 0.924142 0.924142
0.075858 0.924142 0.924142
0.500000 0.924142 0.924142
0.924142 0.924142 0.924142
0.993307 0.924142 0.924142
0.006693 0.993307 0.924142
0.075858 0.993307 0.924142
0.500000 0.993307 0.924142
0.924142 0.993307 0.924142
0.993307 0.993307 0.924142
0.006693 0.006693 0.993307
0.075858 0.006693 0.993307
0.500000 0.006693 0.993307
0.924142 0.006693 0.993307
0.993307 0.006693 0.993307
0.006693 0.075858 0.993307
0.075858 0.075858 0.993307
0.500000 0.075858 0.993307
0.924142 0.075858 0.993307
0.993307 0.075858 0.993307
0.006693 0.500000 0.993307
0.075858 0.500000 0.993307
0.500000 0.500000 0.993307
0.924142 0.500000 0.993307
0.993307 0.500000 0.993307
0.006693 0.924142 0.993307
0.075858 0.924142 0.993307
0.500000 0.924142 0.993307
0.924142 0.924142 0.993307
0.993307 0.924142 0.993307
0.006693 0.993307 0.993307
0.075858 0.993307 0.993307
0.500000 0.993307 0.993307
0.924142 0.993307 0.993307
0.993307 0.993307 0.993307
