luts/High_Contrast.cube
# High_Contrast LUT
# Created for MachinePaintingNodes testing
TITLE "High_Contrast"
LUT_3D_SIZE 9
DOMAIN_MIN 0.0 0.0 0.0
DOMAIN_MAX 1.0 1.0 1.0
0.006693 0.006693 0.006693
0.022977 0.006693 0.006693
0.075858 0.006693 0.006693
0.222700 0.006693 0.006693
0.500000 0.006693 0.006693
0.777300 0.006693 0.006693
0.924142 0.006693 0.006693
0.977023 0.006693 0.006693
0.993307 0.006693 0.006693
0.006693 0.022977 0.006693
0.022977 0.022977 0.006693
0.075858 0.022977 0.006693
0.222700 0.022977 0.006693
0.500000 0.022977 0.006693
0.777300 0.022977 0.006693
0.924142 0.022977 0.006693
0.977023 0.022977 0.006693
0.993307 0.022977 0.006693
0.006693 0.075858 0.006693
0.022977 0.075858 0.006693
0.075858 0.075858 0.006693
0.222700 0.075858 0.006693
0.500000 0.075858 0.006693
0.777300 0.075858 0.006693
0.924142 0.075858 0.006693
0.977023 0.075858 0.006693
0.993307 0.075858 0.006693
0.006693 0.222700 0.006693
0.022977 0.222700 0.006693
0.075858 0.222700 0.006693
0.222700 0.222700 0.006693
0.500000 0.222700 0.006693
0.777300 0.222700 0.006693
0.924142 0.222700 0.006693
0.977023 0.222700 0.006693
0.993307 0.222700 0.006693
0.006693 0.500000 0.006693
0.022977 0.500000 0.006693
0.075858 0.500000 0.006693
0.222700 0.500000 0.006693
0.500000 0.500000 0.006693
0.777300 0.500000 0.006693
0.924142 0.500000 0.006693
0.977023 0.500000 0.006693
0.993307 0.500000 0.006693
0.006693 0.777300 0.006693
0.022977 0.777300 0.006693
0.075858 0.777300 0.006693
0.222700 0.777300 0.006693
0.500000 0.777300 0.006693
0.777300 0.777300 0.006693
0.924142 0.777300 0.006693
0.977023 0.777300 0.006693
0.993307 0.777300 0.006693
0.006693 0.924142 0.006693
0.022977 0.924142 0.006693
0.075858 0.924142 0.006693
0.222700 0.924142 0.006693
0.500000 0.924142 0.006693
0.777300 0.924142 0.006693
0.924142 0.924142 0.006693
0.977023 0.924142 0.006693
0.993307 0.924142 0.006693
0.006693 0.977023 0.006693
0.022977 0.977023 0.006693
0.075858 0.977023 0.006693
0.222700 0.977023 0.006693
0.500000 0.977023 0.006693
0.777300 0.977023 0.006693
0.924142 0.977023 0.006693
0.977023 0.977023 0.006693
0.993307 0.977023 0.006693
0.006693 0.993307 0.006693
0.022977 0.993307 0.006693
0.075858 0.993307 0.006693
0.222700 0.993307 0.006693
0.500000 0.993307 0.006693
0.777300 0.993307 0.006693
0.924142 0.993307 0.006693
0.977023 0.993307 0.006693
0.993307 0.993307 0.006693
0.006693 0.006693 0.022977
0.022977 0.006693 0.022977
0.075858 0.006693 0.022977
0.222700 0.006693 0.022977
0.500000 0.006693 0.022977
0.777300 0.006693 0.022977
0.924142 0.006693 0.022977
0.977023 0.006693 0.022977
0.993307 0.006693 0.022977
0.006693 0.022977 0.022977
0.022977 0.022977 0.022977
0.075858 0.022977 0.022977
0.222700 0.022977 0.022977
0.500000 0.022977 0.022977
0.777300 0.022977 0.022977
0.924142 0.022977 0.022977
0.977023 0.022977 0.022977
0.993307 0.022977 0.022977
0.006693 0.075858 0.022977
0.022977 0.075858 0.022977
0.075858 0.075858 0.022977
0.222700 0.075858 0.022977
0.500000 0.075858 0.022977
0.777300 0.075858 0.022977
0.924142 0.075858 0.022977
0.977023 0.075858 0.022977
0.993307 0.075858 0.022977
0.006693 0.222700 0.022977
0.022977 0.222700 0.022977
0.075858 0.222700 0.022977
0.222700 0.222700 0.022977
0.500000 0.222700 0.022977
0.777300 0.222700 0.022977
0.924142 0.222700 0.022977
0.977023 0.222700 0.022977
0.993307 0.222700 0.022977
0.006693 0.500000 0.022977
0.022977 0.500000 0.022977
0.075858 0.500000 0.022977
0.222700 0.500000 0.022977
0.500000 0.500000 0.022977
0.777300 0.500000 0.022977
0.924142 0.500000 0.022977
0.977023 0.500000 0.022977
0.993307 0.500000 0.022977
0.006693 0.777300 0.022977
0.022977 0.777300 0.022977
0.075858 0.777300 0.022977
0.222700 0.777300 0.022977
0.500000 0.777300 0.022977
0.777300 0.777300 0.022977
0.924142 0.777300 0.022977
0.977023 0.777300 0.022977
0.993307 0.777300 0.022977
0.006693 0.924142 0.022977
0.022977 0.924142 0.022977
0.075858 0.924142 0.022977
0.222700 0.924142 0.022977
0.500000 0.924142 0.022977
0.777300 0.924142 0.022977
0.924142 0.924142 0.022977
0.977023 0.924142 0.022977
0.993307 0.924142 0.022977
0.006693 0.977023 0.022977
0.022977 0.977023 0.022977
0.075858 0.977023 0.022977
0.222700 0.977023 0.022977
0.500000 0.977023 0.022977
0.777300 0.977023 0.022977
0.924142 0.977023 0.022977
0.977023 0.977023 0.022977
0.993307 0.977023 0.022977
0.006693 0.993307 0.022977
0.022977 0.993307 0.022977
0.075858 0.993307 0.022977
0.222700 0.993307 0.022977
0.500000 0.993307 0.022977
0.777300 0.993307 0.022977
0.924142 0.993307 0.022977
0.977023 0.993307 0.022977
0.993307 0.993307 0.022977
0.006693 0.006693 0.075858
0.022977 0.006693 0.075858
0.075858 0.006693 0.075858
0.222700 0.006693 0.075858
0.500000 0.006693 0.075858
0.777300 0.006693 0.075858
0.924142 0.006693 0.075858
0.977023 0.006693 0.075858
0.993307 0.006693 0.075858
0.006693 0.022977 0.075858
0.022977 0.022977 0.075858
0.075858 0.022977 0.075858
0.222700 0.022977 0.075858
0.500000 0.022977 0.075858
0.777300 0.022977 0.075858
0.924142 0.022977 0.075858
0.977023 0.022977 0.075858
0.993307 0.022977 0.075858
0.006693 0.075858 0.075858
0.022977 0.075858 0.075858
0.075858 0.075858 0.075858
0.222700 0.075858 0.075858
0.500000 0.075858 0.075858
0.777300 0.075858 0.075858
0.924142 0.075858 0.075858
0.977023 0.075858 0.075858
0.993307 0.075858 0.075858
0.006693 0.222700 0.075858
0.022977 0.222700 0.075858
0.075858 0.222700 0.075858
0.222700 0.222700 0.075858
0.500000 0.222700 0.075858
0.777300 0.222700 0.075858
0.924142 0.222700 0.075858
0.977023 0.222700 0.075858
0.993307 0.222700 0.075858
0.006693 0.500000 0.075858
0.022977 0.500000 0.075858
0.075858 0.500000 0.075858
0.222700 0.500000 0.075858
0.500000 0.500000 0.075858
0.777300 0.500000 0.075858
0.924142 0.500000 0.075858
0.977023 0.500000 0.075858
0.993307 0.500000 0.075858
0.006693 0.777300 0.075858
0.022977 0.777300 0.075858
0.075858 0.777300 0.075858
0.222700 0.777300 0.075858
0.500000 0.777300 0.075858
0.777300 0.777300 0.075858
0.924142 0.777300 0.075858
0.977023 0.777300 0.075858
0.993307 0.777300 0.075858
0.006693 0.924142 0.075858
0.022977 0.924142 0.075858
0.075858 0.924142 0.075858
0.222700 0.924142 0.075858
0.500000 0.924142 0.075858
0.777300 0.924142 0.075858
0.924142 0.924142 0.075858
0.977023 0.924142 0.075858
0.993307 0.924142 0.075858
0.006693 0.977023 0.075858
0.022977 0.977023 0.075858
0.075858 0.977023 0.075858
0.222700 0.977023 0.075858
0.500000 0.977023 0.075858
0.777300 0.977023 0.075858
0.924142 0.977023 0.075858
0.977023 0.977023 0.075858
0.993307 0.977023 0.075858
0.006693 0.993307 0.075858
0.022977 0.993307 0.075858
0.075858 0.993307 0.075858
0.222700 0.993307 0.075858
0.500000 0.993307 0.075858
0.777300 0.993307 0.075858
0.924142 0.993307 0.075858
0.977023 0.993307 0.075858
0.993307 0.993307 0.075858
0.006693 0.006693 0.222700
0.022977 0.006693 0.222700
0.075858 0.006693 0.222700
0.222700 0.006693 0.222700
0.500000 0.006693 0.222700
0.777300 0.006693 0.222700
0.924142 0.006693 0.222700
0.977023 0.006693 0.222700
0.993307 0.006693 0.222700
0.006693 0.022977 0.222700
0.022977 0.022977 0.222700
0.075858 0.022977 0.222700
0.222700 0.022977 0.222700
0.500000 0.022977 0.222700
0.777300 0.022977 0.222700
0.924142 0.022977 0.222700
0.977023 0.022977 0.222700
0.993307 0.022977 0.222700
0.006693 0.075858 0.222700
0.022977 0.075858 0.222700
0.075858 0.075858 0.222700
0.222700 0.075858 0.222700
0.500000 0.075858 0.222700
0.777300 0.075858 0.222700
0.924142 0.075858 0.222700
0.977023 0.075858 0.222700
0.993307 0.075858 0.222700
0.006693 0.222700 0.222700
0.022977 0.222700 0.222700
0.075858 0.222700 0.222700
0.222700 0.222700 0.222700
0.500000 0.222700 0.222700
0.777300 0.222700 0.222700
0.924142 0.222700 0.222700
0.977023 0.222700 0.222700
0.993307 0.222700 0.222700
0.006693 0.500000 0.222700
0.022977 0.500000 0.222700
0.075858 0.500000 0.222700
0.222700 0.500000 0.222700
0.500000 0.500000 0.222700
0.777300 0.500000 0.222700
0.924142 0.500000 0.222700
0.977023 0.500000 0.222700
0.993307 0.500000 0.222700
0.006693 0.777300 0.222700
0.022977 0.777300 0.222700
0.075858 0.777300 0.222700
0.222700 0.777300 0.222700
0.500000 0.777300 0.222700
0.777300 0.777300 0.222700
0.924142 0.777300 0.222700
0.977023 0.777300 0.222700
0.993307 0.777300 0.222700
0.006693 0.924142 0.222700
0.022977 0.924142 0.222700
0.075858 0.924142 0.222700
0.222700 0.924142 0.222700
0.500000 0.924142 0.222700
0.777300 0.924142 0.222700
0.924142 0.924142 0.222700
0.977023 0.924142 0.222700
0.993307 0.924142 0.222700
0.006693 0.977023 0.222700
0.022977 0.977023 0.222700
0.075858 0.977023 0.222700
0.222700 0.977023 0.222700
0.500000 0.977023 0.222700
0.777300 0.977023 0.222700
0.924142 0.977023 0.222700
0.977023 0.977023 0.222700
0.993307 0.977023 0.222700
0.006693 0.993307 0.222700
0.022977 0.993307 0.222700
0.075858 0.993307 0.222700
0.222700 0.993307 0.222700
0.500000 0.993307 0.222700
0.777300 0.993307 0.222700
0.924142 0.993307 0.222700
0.977023 0.993307 0.222700
0.993307 0.993307 0.222700
0.006693 0.006693 0.500000
0.022977 0.006693 0.500000
0.075858 0.006693 0.500000
0.222700 0.006693 0.500000
0.500000 0.006693 0.500000
0.777300 0.006693 0.500000
0.924142 0.006693 0.500000
0.977023 0.006693 0.500000
0.993307 0.006693 0.500000
0.006693 0.022977 0.500000
0.022977 0.022977 0.500000
0.075858 0.022977 0.500000
0.222700 0.022977 0.500000
0.500000 0.022977 0.500000
0.777300 0.022977 0.500000
0.924142 0.022977 0.500000
0.977023 0.022977 0.500000
0.993307 0.022977 0.500000
0.006693 0.075858 0.500000
0.022977 0.075858 0.500000
0.075858 0.075858 0.500000
0.222700 0.075858 0.500000
0.500000 0.075858 0.500000
0.777300 0.075858 0.500000
0.924142 0.075858 0.500000
0.977023 0.075858 0.500000
0.993307 0.075858 0.500000
0.006693 0.222700 0.500000
0.022977 0.222700 0.500000
0.075858 0.222700 0.500000
0.222700 0.222700 0.500000
0.500000 0.222700 0.500000
0.777300 0.222700 0.500000
0.924142 0.222700 0.500000
0.977023 0.222700 0.500000
0.993307 0.222700 0.500000
0.006693 0.500000 0.500000
0.022977 0.500000 0.500000
0.075858 0.500000 0.500000
0.222700 0.500000 0.500000
0.500000 0.500000 0.500000
0.777300 0.500000 0.500000
0.924142 0.500000 0.500000
0.977023 0.500000 0.500000
0.993307 0.500000 0.500000
0.006693 0.777300 0.500000
0.022977 0.777300 0.500000
0.075858 0.777300 0.500000
0.222700 0.777300 0.500000
0.500000 0.777300 0.500000
0.777300 0.777300 0.500000
0.924142 0.777300 0.500000
0.977023 0.777300 0.500000
0.993307 0.777300 0.500000
0.006693 0.924142 0.500000
0.022977 0.924142 0.500000
0.075858 0.924142 0.500000
0.222700 0.924142 0.500000
0.500000 0.924142 0.500000
0.777300 0.924142 0.500000
0.924142 0.924142 0.500000
0.977023 0.924142 0.500000
0.993307 0.924142 0.500000
0.006693 0.977023 0.500000
0.022977 0.977023 0.500000
0.075858 0.977023 0.500000
0.222700 0.977023 0.500000
0.500000 0.977023 0.500000
0.777300 0.977023 0.500000
0.924142 0.977023 0.500000
0.977023 0.977023 0.500000
0.993307 0.977023 0.500000
0.006693 0.993307 0.500000
0.022977 0.993307 0.500000
0.075858 0.993307 0.500000
0.222700 0.993307 0.500000
0.500000 0.993307 0.500000
0.777300 0.993307 0.500000
0.924142 0.993307 0.500000
0.977023 0.993307 0.500000
0.993307 0.993307 0.500000
0.006693 0.006693 0.777300
0.022977 0.006693 0.777300
0.075858 0.006693 0.777300
0.222700 0.006693 0.777300
0.500000 0.006693 0.777300
0.777300 0.006693 0.777300
0.924142 0.006693 0.777300
0.977023 0.006693 0.777300
0.993307 0.006693 0.777300
0.006693 0.022977 0.777300
0.022977 0.022977 0.777300
0.075858 0.022977 0.777300
0.222700 0.022977 0.777300
0.500000 0.022977 0.777300
0.777300 0.022977 0.777300
0.924142 0.022977 0.777300
0.977023 0.022977 0.777300
0.993307 0.022977 0.777300
0.006693 0.075858 0.777300
0.022977 0.075858 0.777300
0.075858 0.075858 0.777300
0.222700 0.075858 0.777300
0.500000 0.075858 0.777300
0.777300 0.075858 0.777300
0.924142 0.075858 0.777300
0.977023 0.075858 0.777300
0.993307 0.075858 0.777300
0.006693 0.222700 0.777300
0.022977 0.222700 0.777300
0.075858 0.222700 0.777300
0.222700 0.222700 0.777300
0.500000 0.222700 0.777300
0.777300 0.222700 0.777300
0.924142 0.222700 0.777300
0.977023 0.222700 0.777300
0.993307 0.222700 0.777300
0.006693 0.500000 0.777300
0.022977 0.500000 0.777300
0.075858 0.500000 0.777300
0.222700 0.500000 0.777300
0.500000 0.500000 0.777300
0.777300 0.500000 0.777300
0.924142 0.500000 0.777300
0.977023 0.500000 0.777300
0.993307 0.500000 0.777300
0.006693 0.777300 0.777300
0.022977 0.777300 0.777300
0.075858 0.777300 0.777300
0.222700 0.777300 0.777300
0.500000 0.777300 0.777300
0.777300 0.777300 0.777300
0.924142 0.777300 0.777300
0.977023 0.777300 0.777300
0.993307 0.777300 0.777300
0.006693 0.924142 0.777300
0.022977 0.924142 0.777300
0.075858 0.924142 0.777300
0.222700 0.924142 0.777300
0.500000 0.924142 0.777300
0.777300 0.924142 0.777300
0.924142 0.924142 0.777300
0.977023 0.924142 0.777300
0.993307 0.924142 0.777300
0.006693 0.977023 0.777300
0.022977 0.977023 0.777300
0.075858 0.977023 0.777300
0.222700 0.977023 0.777300
0.500000 0.977023 0.777300
0.777300 0.977023 0.777300
0.924142 0.977023 0.777300
0.977023 0.977023 0.777300
0.993307 0.977023 0.777300
0.006693 0.993307 0.777300
0.022977 0.993307 0.777300
0.075858 0.993307 0.777300
0.222700 0.993307 0.777300
0.500000 0.993307 0.777300
0.777300 0.993307 0.777300
0.924142 0.993307 0.777300
0.977023 0.993307 0.777300
0.993307 0.993307 0.777300
0.006693 0.006693 0.924142
0.022977 0.006693 0.924142
0.075858 0.006693 0.924142
0.222700 0.006693 0.924142
0.500000 0.006693 0.924142
0.777300 0.006693 0.924142
0.924142 0.006693 0.924142
0.977023 0.006693 0.924142
0.993307 0.006693 0.924142
0.006693 0.022977 0.924142
0.022977 0.022977 0.924142
0.075858 0.022977 0.924142
0.222700 0.022977 0.924142
0.500000 0.022977 0.924142
0.777300 0.022977 0.924142
0.924142 0.022977 0.924142
0.977023 0.022977 0.924142
0.993307 0.022977 0.924142
0.006693 0.075858 0.924142
0.022977 0.075858 0.924142
0.075858 0.075858 0.924142
0.222700 0.075858 0.924142
0.500000 0.075858 0.924142
0.777300 0.075858 0.924142
0.924142 0.075858 0.924142
0.977023 0.075858 0.924142
0.993307 0.075858 0.924142
0.006693 0.222700 0.924142
0.022977 0.222700 0.924142
0.075858 0.222700 0.924142
0.222700 0.222700 0.924142
0.500000 0.222700 0.924142
0.777300 0.222700 0.924142
0.924142 0.222700 0.924142
0.977023 0.222700 0.924142
0.993307 0.222700 0.924142
0.006693 0.500000 0.924142
0.022977 0.500000 0.924142
0.075858 0.500000 0.924142
0.222700 0.500000 0.924142
0.500000 0.500000 0.924142
0.777300 0.500000 0.924142
0.924142 0.500000 0.924142
0.977023 0.500000 0.924142
0.993307 0.500000 0.924142
0.006693 0.777300 0.924142
0.022977 0.777300 0.924142
0.075858 0.777300 0.924142
0.222700 0.777300 0.924142
0.500000 0.777300 0.924142
0.777300 0.777300 0.924142
0.924142 0.777300 0.924142
0.977023 0.777300 0.924142
0.993307 0.777300 0.924142
0.006693 0.924142 0.924142
0.022977 0.924142 0.924142
0.075858 0.924142 0.924142
0.222700 0.924142 0.924142
0.500000 0.924142 0.924142
0.777300 0.924142 0.924142
0.924142 0.924142 0.924142
0.977023 0.924142 0.924142
0.993307 0.924142 0.924142
0.006693 0.977023 0.924142
0.022977 0.977023 0.924142
0.075858 0.977023 0.924142
0.222700 0.977023 0.924142
0.500000 0.977023 0.924142
0.777300 0.977023 0.924142
0.924142 0.977023 0.924142
0.977023 0.977023 0.924142
0.993307 0.977023 0.924142
0.006693 0.993307 0.924142
0.022977 0.993307 0.924142
0.075858 0.993307 0.924142
0.222700 0.993307 0.924142
0.500000 0.993307 0.924142
0.777300 0.993307 0.924142
0.924142 0.993307 0.924142
0.977023 0.993307 0.924142
0.993307 0.993307 0.924142
0.006693 0.006693 0.977023
0.022977 0.006693 0.977023
0.075858 0.006693 0.977023
0.222700 0.006693 0.977023
0.500000 0.006693 0.977023
0.777300 0.006693 0.977023
0.924142 0.006693 0.977023
0.977023 0.006693 0.977023
0.993307 0.006693 0.977023
0.006693 0.022977 0.977023
0.022977 0.022977 0.977023
0.075858 0.022977 0.977023
0.222700 0.022977 0.977023
0.500000 0.022977 0.977023
0.777300 0.022977 0.977023
0.924142 0.022977 0.977023
0.977023 0.022977 0.977023
0.993307 0.022977 0.977023
0.006693 0.075858 0.977023
0.022977 0.075858 0.977023
0.075858 0.075858 0.977023
0.222700 0.075858 0.977023
0.500000 0.075858 0.977023
0.777300 0.075858 0.977023
0.924142 0.075858 0.977023
0.977023 0.075858 0.977023
0.993307 0.075858 0.977023
0.006693 0.222700 0.977023
0.022977 0.222700 0.977023
0.075858 0.222700 0.977023
0.222700 0.222700 0.977023
0.500000 0.222700 0.977023
0.777300 0.222700 0.977023
0.924142 0.222700 0.977023
0.977023 0.222700 0.977023
0.993307 0.222700 0.977023
0.006693 0.500000 0.977023
0.022977 0.500000 0.977023
0.075858 0.500000 0.977023
0.222700 0.500000 0.977023
0.500000 0.500000 0.977023
0.777300 0.500000 0.977023
0.924142 0.500000 0.977023
0.977023 0.500000 0.977023
0.993307 0.500000 0.977023
0.006693 0.777300 0.977023
0.022977 0.777300 0.977023
0.075858 0.777300 0.977023
0.222700 0.777300 0.977023
0.500000 0.777300 0.977023
0.777300 0.777300 0.977023
0.924142 0.777300 0.977023
0.977023 0.777300 0.977023
0.993307 0.777300 0.977023
0.006693 0.924142 0.977023
0.022977 0.924142 0.977023
0.075858 0.924142 0.977023
0.222700 0.924142 0.977023
0.500000 0.924142 0.977023
0.777300 0.924142 0.977023
0.924142 0.924142 0.977023
0.977023 0.924142 0.977023
0.993307 0.924142 0.977023
0.006693 0.977023 0.977023
0.022977 0.977023 0.977023
0.075858 0.977023 0.977023
0.222700 0.977023 0.977023
0.500000 0.977023 0.977023
0.777300 0.977023 0.977023
0.924142 0.977023 0.977023
0.977023 0.977023 0.977023
0.993307 0.977023 0.977023
0.006693 0.993307 0.977023
0.022977 0.993307 0.977023
0.075858 0.993307 0.977023
0.222700 0.993307 0.977023
0.500000 0.993307 0.977023
0.777300 0.993307 0.977023
0.924142 0.993307 0.977023
0.977023 0.993307 0.977023
0.993307 0.993307 0.977023
0.006693 0.006693 0.993307
0.022977 0.006693 0.993307
0.075858 0.006693 0.993307
0.222700 0.006693 0.993307
0.500000 0.006693 0.993307
0.777300 0.006693 0.993307
0.924142 0.006693 0.993307
0.977023 0.006693 0.993307
0.993307 0.006693 0.993307
0.006693 0.022977 0.993307
0.022977 0.022977 0.993307
0.075858 0.022977 0.993307
0.222700 0.022977 0.993307
0.500000 0.022977 0.993307
0.777300 0.022977 0.993307
0.924142 0.022977 0.993307
0.977023 0.022977 0.993307
0.993307 0.022977 0.993307
0.006693 0.075858 0.993307
0.022977 0.075858 0.993307
0.075858 0.075858 0.993307
0.222700 0.075858 0.993307
0.500000 0.075858 0.993307
0.777300 0.075858 0.993307
0.924142 0.075858 0.993307
0.977023 0.075858 0.993307
0.993307 0.075858 0.993307
0.006693 0.222700 0.993307
0.022977 0.222700 0.993307
0.075858 0.222700 0.993307
0.222700 0.222700 0.993307
0.500000 0.222700 0.993307
0.777300 0.222700 0.993307
0.924142 0.222700 0.993307
0.977023 0.222700 0.993307
0.993307 0.222700 0.993307
0.006693 0.500000 0.993307
0.022977 0.500000 0.993307
0.075858 0.500000 0.993307
0.222700 0.500000 0.993307
0.500000 0.500000 0.993307
0.777300 0.500000 0.993307
0.924142 0.500000 0.993307
0.977023 0.500000 0.993307
0.993307 0.500000 0.993307
0.006693 0.777300 0.993307
0.022977 0.777300 0.993307
0.075858 0.777300 0.993307
0.222700 0.777300 0.993307
0.500000 0.777300 0.993307
0.777300 0.777300 0.993307
0.924142 0.777300 0.993307
0.977023 0.777300 0.993307
0.993307 0.777300 0.993307
0.006693 0.924142 0.993307
0.022977 0.924142 0.993307
0.075858 0.924142 0.993307
0.222700 0.924142 0.993307
0.500000 0.924142 0.993307
0.777300 0.924142 0.993307
0.924142 0.924142 0.993307
0.977023 0.924142 0.993307
0.993307 0.924142 0.993307
0.006693 0.977023 0.993307
0.022977 0.977023 0.993307
0.075858 0.977023 0.993307
0.222700 0.977023 0.993307
0.500000 0.977023 0.993307
0.777300 0.977023 0.993307
0.924142 0.977023 0.993307
0.977023 0.977023 0.993307
0.993307 0.977023 0.993307
0.006693 0.993307 0.993307
0.022977 0.993307 0.993307
0.075858 0.993307 0.993307
0.222700 0.993307 0.993307
0.500000 0.993307 0.993307
0.777300 0.993307 0.993307
0.924142 0.993307 0.993307
0.977023 0.993307 0.993307
0.993307 0.993307 0.993307
