luts/Vintage_Fade.cube
# Vintage_Fade LUT
# Created for MachinePaintingNodes testing
TITLE "Vintage_Fade"
LUT_3D_SIZE 17
DOMAIN_MIN 0.0 0.0 0.0
DOMAIN_MAX 1.0 1.0 1.0
0.050000 0.030000 0.080000
0.103125 0.030000 0.080000
0.156250 0.030000 0.080000
0.209375 0.030000 0.080000
0.262500 0.030000 0.080000
0.315625 0.030000 0.080000
0.368750 0.030000 0.080000
0.421875 0.030000 0.080000
0.475000 0.030000 0.080000
0.528125 0.030000 0.080000
0.581250 0.030000 0.080000
0.634375 0.030000 0.080000
0.687500 0.030000 0.080000
0.740625 0.030000 0.080000
0.793750 0.030000 0.080000
0.846875 0.030000 0.080000
0.900000 0.030000 0.080000
0.050000 0.084375 0.080000
0.103125 0.084375 0.080000
0.156250 0.084375 0.080000
0.209375 0.084375 0.080000
0.262500 0.084375 0.080000
0.315625 0.084375 0.080000
0.368750 0.084375 0.080000
0.421875 0.084375 0.080000
0.475000 0.084375 0.080000
0.528125 0.084375 0.080000
0.581250 0.084375 0.080000
0.634375 0.084375 0.080000
0.687500 0.084375 0.080000
0.740625 0.084375 0.080000
0.793750 0.084375 0.080000
0.846875 0.084375 0.080000
0.900000 0.084375 0.080000
0.050000 0.138750 0.080000
0.103125 0.138750 0.080000
0.156250 0.138750 0.080000
0.209375 0.138750 0.080000
0.262500 0.138750 0.080000
0.315625 0.138750 0.080000
0.368750 0.138750 0.080000
0.421875 0.138750 0.080000
0.475000 0.138750 0.080000
0.528125 0.138750 0.080000
0.581250 0.138750 0.080000
0.634375 0.138750 0.080000
0.687500 0.138750 0.080000
0.740625 0.138750 0.080000
0.793750 0.138750 0.080000
0.846875 0.138750 0.080000
0.900000 0.138750 0.080000
0.050000 0.193125 0.080000
0.103125 0.193125 0.080000
0.156250 0.193125 0.080000
0.209375 0.193125 0.080000
0.262500 0.193125 0.080000
0.315625 0.193125 0.080000
0.368750 0.193125 0.080000
0.421875 0.193125 0.080000
0.475000 0.193125 0.080000
0.528125 0.193125 0.080000
0.581250 0.193125 0.080000
0.634375 0.193125 0.080000
0.687500 0.193125 0.080000
0.740625 0.193125 0.080000
0.793750 0.193125 0.080000
0.846875 0.193125 0.080000
0.900000 0.193125 0.080000
0.050000 0.247500 0.080000
0.103125 0.247500 0.080000
0.156250 0.247500 0.080000
0.209375 0.247500 0.080000
0.262500 0.247500 0.080000
0.315625 0.247500 0.080000
0.368750 0.247500 0.080000
0.421875 0.247500 0.080000
0.475000 0.247500 0.080000
0.528125 0.247500 0.080000
0.581250 0.247500 0.080000
0.634375 0.247500 0.080000
0.687500 0.247500 0.080000
0.740625 0.247500 0.080000
0.793750 0.247500 0.080000
0.846875 0.247500 0.080000
0.900000 0.247500 0.080000
0.050000 0.301875 0.080000
0.103125 0.301875 0.080000
0.156250 0.301875 0.080000
0.209375 0.301875 0.080000
0.262500 0.301875 0.080000
0.315625 0.301875 0.080000
0.368750 0.301875 0.080000
0.421875 0.301875 0.080000
0.475000 0.301875 0.080000
0.528125 0.301875 0.080000
0.581250 0.301875 0.080000
0.634375 0.301875 0.080000
0.687500 0.301875 0.080000
0.740625 0.301875 0.080000
0.793750 0.301875 0.080000
0.846875 0.301875 0.080000
0.900000 0.301875 0.080000
0.050000 0.356250 0.080000
0.103125 0.356250 0.080000
0.156250 0.356250 0.080000
0.209375 0.356250 0.080000
0.262500 0.356250 0.080000
0.315625 0.356250 0.080000
0.368750 0.356250 0.080000
0.421875 0.356250 0.080000
0.475000 0.356250 0.080000
0.528125 0.356250 0.080000
0.581250 0.356250 0.080000
0.634375 0.356250 0.080000
0.687500 0.356250 0.080000
0.740625 0.356250 0.080000
0.793750 0.356250 0.080000
0.846875 0.356250 0.080000
0.900000 0.356250 0.080000
0.050000 0.410625 0.080000
0.103125 0.410625 0.080000
0.156250 0.410625 0.080000
0.209375 0.410625 0.080000
0.262500 0.410625 0.080000
0.315625 0.410625 0.080000
0.368750 0.410625 0.080000
0.421875 0.410625 0.080000
0.475000 0.410625 0.080000
0.528125 0.410625 0.080000
0.581250 0.410625 0.080000
0.634375 0.410625 0.080000
0.687500 0.410625 0.080000
0.740625 0.410625 0.080000
0.793750 0.410625 0.080000
0.846875 0.410625 0.080000
0.900000 0.410625 0.080000
0.050000 0.465000 0.080000
0.103125 0.465000 0.080000
0.156250 0.465000 0.080000
0.209375 0.465000 0.080000
0.262500 0.465000 0.080000
0.315625 0.465000 0.080000
0.368750 0.465000 0.080000
0.421875 0.465000 0.080000
0.475000 0.465000 0.080000
0.528125 0.465000 0.080000
0.581250 0.465000 0.080000
0.634375 0.465000 0.080000
0.687500 0.465000 0.080000
0.740625 0.465000 0.080000
0.793750 0.465000 0.080000
0.846875 0.465000 0.080000
0.900000 0.465000 0.080000
0.050000 0.519375 0.080000
0.103125 0.519375 0.080000
0.156250 0.519375 0.080000
0.209375 0.519375 0.080000
0.262500 0.519375 0.080000
0.315625 0.519375 0.080000
0.368750 0.519375 0.080000
0.421875 0.519375 0.080000
0.475000 0.519375 0.080000
0.528125 0.519375 0.080000
0.581250 0.519375 0.080000
0.634375 0.519375 0.080000
0.687500 0.519375 0.080000
0.740625 0.519375 0.080000
0.793750 0.519375 0.080000
0.846875 0.519375 0.080000
0.900000 0.519375 0.080000
0.050000 0.573750 0.080000
0.103125 0.573750 0.080000
0.156250 0.573750 0.080000
0.209375 0.573750 0.080000
0.262500 0.573750 0.080000
0.315625 0.573750 0.080000
0.368750 0.573750 0.080000
0.421875 0.573750 0.080000
0.475000 0.573750 0.080000
0.528125 0.573750 0.080000
0.581250 0.573750 0.080000
0.634375 0.573750 0.080000
0.687500 0.573750 0.080000
0.740625 0.573750 0.080000
0.793750 0.573750 0.080000
0.846875 0.573750 0.080000
0.900000 0.573750 0.080000
0.050000 0.628125 0.080000
0.103125 0.628125 0.080000
0.156250 0.628125 0.080000
0.209375 0.628125 0.080000
0.262500 0.628125 0.080000
0.315625 0.628125 0.080000
0.368750 0.628125 0.080000
0.421875 0.628125 0.080000
0.475000 0.628125 0.080000
0.528125 0.628125 0.080000
0.581250 0.628125 0.080000
0.634375 0.628125 0.080000
0.687500 0.628125 0.080000
0.740625 0.628125 0.080000
0.793750 0.628125 0.080000
0.846875 0.628125 0.080000
0.900000 0.628125 0.080000
0.050000 0.682500 0.080000
0.103125 0.682500 0.080000
0.156250 0.682500 0.080000
0.209375 0.682500 0.080000
0.262500 0.682500 0.080000
0.315625 0.682500 0.080000
0.368750 0.682500 0.080000
0.421875 0.682500 0.080000
0.475000 0.682500 0.080000
0.528125 0.682500 0.080000
0.581250 0.682500 0.080000
0.634375 0.682500 0.080000
0.687500 0.682500 0.080000
0.740625 0.682500 0.080000
0.793750 0.682500 0.080000
0.846875 0.682500 0.080000
0.900000 0.682500 0.080000
0.050000 0.736875 0.080000
0.103125 0.736875 0.080000
0.156250 0.736875 0.080000
0.209375 0.736875 0.080000
0.262500 0.736875 0.080000
0.315625 0.736875 0.080000
0.368750 0.736875 0.080000
0.421875 0.736875 0.080000
0.475000 0.736875 0.080000
0.528125 0.736875 0.080000
0.581250 0.736875 0.080000
0.634375 0.736875 0.080000
0.687500 0.736875 0.080000
0.740625 0.736875 0.080000
0.793750 0.736875 0.080000
0.846875 0.736875 0.080000
0.900000 0.736875 0.080000
0.050000 0.791250 0.080000
0.103125 0.791250 0.080000
0.156250 0.791250 0.080000
0.209375 0.791250 0.080000
0.262500 0.791250 0.080000
0.315625 0.791250 0.080000
0.368750 0.791250 0.080000
0.421875 0.791250 0.080000
0.475000 0.791250 0.080000
0.528125 0.791250 0.080000
0.581250 0.791250 0.080000
0.634375 0.791250 0.080000
0.687500 0.791250 0.080000
0.740625 0.791250 0.080000
0.793750 0.791250 0.080000
0.846875 0.791250 0.080000
0.900000 0.791250 0.080000
0.050000 0.845625 0.080000
0.103125 0.845625 0.080000
0.156250 0.845625 0.080000
0.209375 0.845625 0.080000
0.262500 0.845625 0.080000
0.315625 0.845625 0.080000
0.368750 0.845625 0.080000
0.421875 0.845625 0.080000
0.475000 0.845625 0.080000
0.528125 0.845625 0.080000
0.581250 0.845625 0.080000
0.634375 0.845625 0.080000
0.687500 0.845625 0.080000
0.740625 0.845625 0.080000
0.793750 0.845625 0.080000
0.846875 0.845625 0.080000
0.900000 0.845625 0.080000
0.050000 0.900000 0.080000
0.103125 0.900000 0.080000
0.156250 0.900000 0.080000
0.209375 0.900000 0.080000
0.262500 0.900000 0.080000
0.315625 0.900000 0.080000
0.368750 0.900000 0.080000
0.421875 0.900000 0.080000
0.475000 0.900000 0.080000
0.528125 0.900000 0.080000
0.581250 0.900000 0.080000
0.634375 0.900000 0.080000
0.687500 0.900000 0.080000
0.740625 0.900000 0.080000
0.793750 0.900000 0.080000
0.846875 0.900000 0.080000
0.900000 0.900000 0.080000
0.050000 0.030000 0.131250
0.103125 0.030000 0.131250
0.156250 0.030000 0.131250
0.209375 0.030000 0.131250
0.262500 0.030000 0.131250
0.315625 0.030000 0.131250
0.368750 0.030000 0.131250
0.421875 0.030000 0.131250
0.475000 0.030000 0.131250
0.528125 0.030000 0.131250
0.581250 0.030000 0.131250
0.634375 0.030000 0.131250
0.687500 0.030000 0.131250
0.740625 0.030000 0.131250
0.793750 0.030000 0.131250
0.846875 0.030000 0.131250
0.900000 0.030000 0.131250
0.050000 0.084375 0.131250
0.103125 0.084375 0.131250
0.156250 0.084375 0.131250
0.209375 0.084375 0.131250
0.262500 0.084375 0.131250
0.315625 0.084375 0.131250
0.368750 0.084375 0.131250
0.421875 0.084375 0.131250
0.475000 0.084375 0.131250
0.528125 0.084375 0.131250
0.581250 0.084375 0.131250
0.634375 0.084375 0.131250
0.687500 0.084375 0.131250
0.740625 0.084375 0.131250
0.793750 0.084375 0.131250
0.846875 0.084375 0.131250
0.900000 0.084375 0.131250
0.050000 0.138750 0.131250
0.103125 0.138750 0.131250
0.156250 0.138750 0.131250
0.209375 0.138750 0.131250
0.262500 0.138750 0.131250
0.315625 0.138750 0.131250
0.368750 0.138750 0.131250
0.421875 0.138750 0.131250
0.475000 0.138750 0.131250
0.528125 0.138750 0.131250
0.581250 0.138750 0.131250
0.634375 0.138750 0.131250
0.687500 0.138750 0.131250
0.740625 0.138750 0.131250
0.793750 0.138750 0.131250
0.846875 0.138750 0.131250
0.900000 0.138750 0.131250
0.050000 0.193125 0.131250
0.103125 0.193125 0.131250
0.156250 0.193125 0.131250
0.209375 0.193125 0.131250
0.262500 0.193125 0.131250
0.315625 0.193125 0.131250
0.368750 0.193125 0.131250
0.421875 0.193125 0.131250
0.475000 0.193125 0.131250
0.528125 0.193125 0.131250
0.581250 0.193125 0.131250
0.634375 0.193125 0.131250
0.687500 0.193125 0.131250
0.740625 0.193125 0.131250
0.793750 0.193125 0.131250
0.846875 0.193125 0.131250
0.900000 0.193125 0.131250
0.050000 0.247500 0.131250
0.103125 0.247500 0.131250
0.156250 0.247500 0.131250
0.209375 0.247500 0.131250
0.262500 0.247500 0.131250
0.315625 0.247500 0.131250
0.368750 0.247500 0.131250
0.421875 0.247500 0.131250
0.475000 0.247500 0.131250
0.528125 0.247500 0.131250
0.581250 0.247500 0.131250
0.634375 0.247500 0.131250
0.687500 0.247500 0.131250
0.740625 0.247500 0.131250
0.793750 0.247500 0.131250
0.846875 0.247500 0.131250
0.900000 0.247500 0.131250
0.050000 0.301875 0.131250
0.103125 0.301875 0.131250
0.156250 0.301875 0.131250
0.209375 0.301875 0.131250
0.262500 0.301875 0.131250
0.315625 0.301875 0.131250
0.368750 0.301875 0.131250
0.421875 0.301875 0.131250
0.475000 0.301875 0.131250
0.528125 0.301875 0.131250
0.581250 0.301875 0.131250
0.634375 0.301875 0.131250
0.687500 0.301875 0.131250
0.740625 0.301875 0.131250
0.793750 0.301875 0.131250
0.846875 0.301875 0.131250
0.900000 0.301875 0.131250
0.050000 0.356250 0.131250
0.103125 0.356250 0.131250
0.156250 0.356250 0.131250
0.209375 0.356250 0.131250
0.262500 0.356250 0.131250
0.315625 0.356250 0.131250
0.368750 0.356250 0.131250
0.421875 0.356250 0.131250
0.475000 0.356250 0.131250
0.528125 0.356250 0.131250
0.581250 0.356250 0.131250
0.634375 0.356250 0.131250
0.687500 0.356250 0.131250
0.740625 0.356250 0.131250
0.793750 0.356250 0.131250
0.846875 0.356250 0.131250
0.900000 0.356250 0.131250
0.050000 0.410625 0.131250
0.103125 0.410625 0.131250
0.156250 0.410625 0.131250
0.209375 0.410625 0.131250
0.262500 0.410625 0.131250
0.315625 0.410625 0.131250
0.368750 0.410625 0.131250
0.421875 0.410625 0.131250
0.475000 0.410625 0.131250
0.528125 0.410625 0.131250
0.581250 0.410625 0.131250
0.634375 0.410625 0.131250
0.687500 0.410625 0.131250
0.740625 0.410625 0.131250
0.793750 0.410625 0.131250
0.846875 0.410625 0.131250
0.900000 0.410625 0.131250
0.050000 0.465000 0.131250
0.103125 0.465000 0.131250
0.156250 0.465000 0.131250
0.209375 0.465000 0.131250
0.262500 0.465000 0.131250
0.315625 0.465000 0.131250
0.368750 0.465000 0.131250
0.421875 0.465000 0.131250
0.475000 0.465000 0.131250
0.528125 0.465000 0.131250
0.581250 0.465000 0.131250
0.634375 0.465000 0.131250
0.687500 0.465000 0.131250
0.740625 0.465000 0.131250
0.793750 0.465000 0.131250
0.846875 0.465000 0.131250
0.900000 0.465000 0.131250
0.050000 0.519375 0.131250
0.103125 0.519375 0.131250
0.156250 0.519375 0.131250
0.209375 0.519375 0.131250
0.262500 0.519375 0.131250
0.315625 0.519375 0.131250
0.368750 0.519375 0.131250
0.421875 0.519375 0.131250
0.475000 0.519375 0.131250
0.528125 0.519375 0.131250
0.581250 0.519375 0.131250
0.634375 0.519375 0.131250
0.687500 0.519375 0.131250
0.740625 0.519375 0.131250
0.793750 0.519375 0.131250
0.846875 0.519375 0.131250
0.900000 0.519375 0.131250
0.050000 0.573750 0.131250
0.103125 0.573750 0.131250
0.156250 0.573750 0.131250
0.209375 0.573750 0.131250
0.262500 0.573750 0.131250
0.315625 0.573750 0.131250
0.368750 0.573750 0.131250
0.421875 0.573750 0.131250
0.475000 0.573750 0.131250
0.528125 0.573750 0.131250
0.581250 0.573750 0.131250
0.634375 0.573750 0.131250
0.687500 0.573750 0.131250
0.740625 0.573750 0.131250
0.793750 0.573750 0.131250
0.846875 0.573750 0.131250
0.900000 0.573750 0.131250
0.050000 0.628125 0.131250
0.103125 0.628125 0.131250
0.156250 0.628125 0.131250
0.209375 0.628125 0.131250
0.262500 0.628125 0.131250
0.315625 0.628125 0.131250
0.368750 0.628125 0.131250
0.421875 0.628125 0.131250
0.475000 0.628125 0.131250
0.528125 0.628125 0.131250
0.581250 0.628125 0.131250
0.634375 0.628125 0.131250
0.687500 0.628125 0.131250
0.740625 0.628125 0.131250
0.793750 0.628125 0.131250
0.846875 0.628125 0.131250
0.900000 0.628125 0.131250
0.050000 0.682500 0.131250
0.103125 0.682500 0.131250
0.156250 0.682500 0.131250
0.209375 0.682500 0.131250
0.262500 0.682500 0.131250
0.315625 0.682500 0.131250
0.368750 0.682500 0.131250
0.421875 0.682500 0.131250
0.475000 0.682500 0.131250
0.528125 0.682500 0.131250
0.581250 0.682500 0.131250
0.634375 0.682500 0.131250
0.687500 0.682500 0.131250
0.740625 0.682500 0.131250
0.793750 0.682500 0.131250
0.846875 0.682500 0.131250
0.900000 0.682500 0.131250
0.050000 0.736875 0.131250
0.103125 0.736875 0.131250
0.156250 0.736875 0.131250
0.209375 0.736875 0.131250
0.262500 0.736875 0.131250
0.315625 0.736875 0.131250
0.368750 0.736875 0.131250
0.421875 0.736875 0.131250
0.475000 0.736875 0.131250
0.528125 0.736875 0.131250
0.581250 0.736875 0.131250
0.634375 0.736875 0.131250
0.687500 0.736875 0.131250
0.740625 0.736875 0.131250
0.793750 0.736875 0.131250
0.846875 0.736875 0.131250
0.900000 0.736875 0.131250
0.050000 0.791250 0.131250
0.103125 0.791250 0.131250
0.156250 0.791250 0.131250
0.209375 0.791250 0.131250
0.262500 0.791250 0.131250
0.315625 0.791250 0.131250
0.368750 0.791250 0.131250
0.421875 0.791250 0.131250
0.475000 0.791250 0.131250
0.528125 0.791250 0.131250
0.581250 0.791250 0.131250
0.634375 0.791250 0.131250
0.687500 0.791250 0.131250
0.740625 0.791250 0.131250
0.793750 0.791250 0.131250
0.846875 0.791250 0.131250
0.900000 0.791250 0.131250
0.050000 0.845625 0.131250
0.103125 0.845625 0.131250
0.156250 0.845625 0.131250
0.209375 0.845625 0.131250
0.262500 0.845625 0.131250
0.315625 0.845625 0.131250
0.368750 0.845625 0.131250
0.421875 0.845625 0.131250
0.475000 0.845625 0.131250
0.528125 0.845625 0.131250
0.581250 0.845625 0.131250
0.634375 0.845625 0.131250
0.687500 0.845625 0.131250
0.740625 0.845625 0.131250
0.793750 0.845625 0.131250
0.846875 0.845625 0.131250
0.900000 0.845625 0.131250
0.050000 0.900000 0.131250
0.103125 0.900000 0.131250
0.156250 0.900000 0.131250
0.209375 0.900000 0.131250
0.262500 0.900000 0.131250
0.315625 0.900000 0.131250
0.368750 0.900000 0.131250
0.421875 0.900000 0.131250
0.475000 0.900000 0.131250
0.528125 0.900000 0.131250
0.581250 0.900000 0.131250
0.634375 0.900000 0.131250
0.687500 0.900000 0.131250
0.740625 0.900000 0.131250
0.793750 0.900000 0.131250
0.846875 0.900000 0.131250
0.900000 0.900000 0.131250
0.050000 0.030000 0.182500
0.103125 0.030000 0.182500
0.156250 0.030000 0.182500
0.209375 0.030000 0.182500
0.262500 0.030000 0.182500
0.315625 0.030000 0.182500
0.368750 0.030000 0.182500
0.421875 0.030000 0.182500
0.475000 0.030000 0.182500
0.528125 0.030000 0.182500
0.581250 0.030000 0.182500
0.634375 0.030000 0.182500
0.687500 0.030000 0.182500
0.740625 0.030000 0.182500
0.793750 0.030000 0.182500
0.846875 0.030000 0.182500
0.900000 0.030000 0.182500
0.050000 0.084375 0.182500
0.103125 0.084375 0.182500
0.156250 0.084375 0.182500
0.209375 0.084375 0.182500
0.262500 0.084375 0.182500
0.315625 0.084375 0.182500
0.368750 0.084375 0.182500
0.421875 0.084375 0.182500
0.475000 0.084375 0.182500
0.528125 0.084375 0.182500
0.581250 0.084375 0.182500
0.634375 0.084375 0.182500
0.687500 0.084375 0.182500
0.740625 0.084375 0.182500
0.793750 0.084375 0.182500
0.846875 0.084375 0.182500
0.900000 0.084375 0.182500
0.050000 0.138750 0.182500
0.103125 0.138750 0.182500
0.156250 0.138750 0.182500
0.209375 0.138750 0.182500
0.262500 0.138750 0.182500
0.315625 0.138750 0.182500
0.368750 0.138750 0.182500
0.421875 0.138750 0.182500
0.475000 0.138750 0.182500
0.528125 0.138750 0.182500
0.581250 0.138750 0.182500
0.634375 0.138750 0.182500
0.687500 0.138750 0.182500
0.740625 0.138750 0.182500
0.793750 0.138750 0.182500
0.846875 0.138750 0.182500
0.900000 0.138750 0.182500
0.050000 0.193125 0.182500
0.103125 0.193125 0.182500
0.156250 0.193125 0.182500
0.209375 0.193125 0.182500
0.262500 0.193125 0.182500
0.315625 0.193125 0.182500
0.368750 0.193125 0.182500
0.421875 0.193125 0.182500
0.475000 0.193125 0.182500
0.528125 0.193125 0.182500
0.581250 0.193125 0.182500
0.634375 0.193125 0.182500
0.687500 0.193125 0.182500
0.740625 0.193125 0.182500
0.793750 0.193125 0.182500
0.846875 0.193125 0.182500
0.900000 0.193125 0.182500
0.050000 0.247500 0.182500
0.103125 0.247500 0.182500
0.156250 0.247500 0.182500
0.209375 0.247500 0.182500
0.262500 0.247500 0.182500
0.315625 0.247500 0.182500
0.368750 0.247500 0.182500
0.421875 0.247500 0.182500
0.475000 0.247500 0.182500
0.528125 0.247500 0.182500
0.581250 0.247500 0.182500
0.634375 0.247500 0.182500
0.687500 0.247500 0.182500
0.740625 0.247500 0.182500
0.793750 0.247500 0.182500
0.846875 0.247500 0.182500
0.900000 0.247500 0.182500
0.050000 0.301875 0.182500
0.103125 0.301875 0.182500
0.156250 0.301875 0.182500
0.209375 0.301875 0.182500
0.262500 0.301875 0.182500
0.315625 0.301875 0.182500
0.368750 0.301875 0.182500
0.421875 0.301875 0.182500
0.475000 0.301875 0.182500
0.528125 0.301875 0.182500
0.581250 0.301875 0.182500
0.634375 0.301875 0.182500
0.687500 0.301875 0.182500
0.740625 0.301875 0.182500
0.793750 0.301875 0.182500
0.846875 0.301875 0.182500
0.900000 0.301875 0.182500
0.050000 0.356250 0.182500
0.103125 0.356250 0.182500
0.156250 0.356250 0.182500
0.209375 0.356250 0.182500
0.262500 0.356250 0.182500
0.315625 0.356250 0.182500
0.368750 0.356250 0.182500
0.421875 0.356250 0.182500
0.475000 0.356250 0.182500
0.528125 0.356250 0.182500
0.581250 0.356250 0.182500
0.634375 0.356250 0.182500
0.687500 0.356250 0.182500
0.740625 0.356250 0.182500
0.793750 0.356250 0.182500
0.846875 0.356250 0.182500
0.900000 0.356250 0.182500
0.050000 0.410625 0.182500
0.103125 0.410625 0.182500
0.156250 0.410625 0.182500
0.209375 0.410625 0.182500
0.262500 0.410625 0.182500
0.315625 0.410625 0.182500
0.368750 0.410625 0.182500
0.421875 0.410625 0.182500
0.475000 0.410625 0.182500
0.528125 0.410625 0.182500
0.581250 0.410625 0.182500
0.634375 0.410625 0.182500
0.687500 0.410625 0.182500
0.740625 0.410625 0.182500
0.793750 0.410625 0.182500
0.846875 0.410625 0.182500
0.900000 0.410625 0.182500
0.050000 0.465000 0.182500
0.103125 0.465000 0.182500
0.156250 0.465000 0.182500
0.209375 0.465000 0.182500
0.262500 0.465000 0.182500
0.315625 0.465000 0.182500
0.368750 0.465000 0.182500
0.421875 0.465000 0.182500
0.475000 0.465000 0.182500
0.528125 0.465000 0.182500
0.581250 0.465000 0.182500
0.634375 0.465000 0.182500
0.687500 0.465000 0.182500
0.740625 0.465000 0.182500
0.793750 0.465000 0.182500
0.846875 0.465000 0.182500
0.900000 0.465000 0.182500
0.050000 0.519375 0.182500
0.103125 0.519375 0.182500
0.156250 0.519375 0.182500
0.209375 0.519375 0.182500
0.262500 0.519375 0.182500
0.315625 0.519375 0.182500
0.368750 0.519375 0.182500
0.421875 0.519375 0.182500
0.475000 0.519375 0.182500
0.528125 0.519375 0.182500
0.581250 0.519375 0.182500
0.634375 0.519375 0.182500
0.687500 0.519375 0.182500
0.740625 0.519375 0.182500
0.793750 0.519375 0.182500
0.846875 0.519375 0.182500
0.900000 0.519375 0.182500
0.050000 0.573750 0.182500
0.103125 0.573750 0.182500
0.156250 0.573750 0.182500
0.209375 0.573750 0.182500
0.262500 0.573750 0.182500
0.315625 0.573750 0.182500
0.368750 0.573750 0.182500
0.421875 0.573750 0.182500
0.475000 0.573750 0.182500
0.528125 0.573750 0.182500
0.581250 0.573750 0.182500
0.634375 0.573750 0.182500
0.687500 0.573750 0.182500
0.740625 0.573750 0.182500
0.793750 0.573750 0.182500
0.846875 0.573750 0.182500
0.900000 0.573750 0.182500
0.050000 0.628125 0.182500
0.103125 0.628125 0.182500
0.156250 0.628125 0.182500
0.209375 0.628125 0.182500
0.262500 0.628125 0.182500
0.315625 0.628125 0.182500
0.368750 0.628125 0.182500
0.421875 0.628125 0.182500
0.475000 0.628125 0.182500
0.528125 0.628125 0.182500
0.581250 0.628125 0.182500
0.634375 0.628125 0.182500
0.687500 0.628125 0.182500
0.740625 0.628125 0.182500
0.793750 0.628125 0.182500
0.846875 0.628125 0.182500
0.900000 0.628125 0.182500
0.050000 0.682500 0.182500
0.103125 0.682500 0.182500
0.156250 0.682500 0.182500
0.209375 0.682500 0.182500
0.262500 0.682500 0.182500
0.315625 0.682500 0.182500
0.368750 0.682500 0.182500
0.421875 0.682500 0.182500
0.475000 0.682500 0.182500
0.528125 0.682500 0.182500
0.581250 0.682500 0.182500
0.634375 0.682500 0.182500
0.687500 0.682500 0.182500
0.740625 0.682500 0.182500
0.793750 0.682500 0.182500
0.846875 0.682500 0.182500
0.900000 0.682500 0.182500
0.050000 0.736875 0.182500
0.103125 0.736875 0.182500
0.156250 0.736875 0.182500
0.209375 0.736875 0.182500
0.262500 0.736875 0.182500
0.315625 0.736875 0.182500
0.368750 0.736875 0.182500
0.421875 0.736875 0.182500
0.475000 0.736875 0.182500
0.528125 0.736875 0.182500
0.581250 0.736875 0.182500
0.634375 0.736875 0.182500
0.687500 0.736875 0.182500
0.740625 0.736875 0.182500
0.793750 0.736875 0.182500
0.846875 0.736875 0.182500
0.900000 0.736875 0.182500
0.050000 0.791250 0.182500
0.103125 0.791250 0.182500
0.156250 0.791250 0.182500
0.209375 0.791250 0.182500
0.262500 0.791250 0.182500
0.315625 0.791250 0.182500
0.368750 0.791250 0.182500
0.421875 0.791250 0.182500
0.475000 0.791250 0.182500
0.528125 0.791250 0.182500
0.581250 0.791250 0.182500
0.634375 0.791250 0.182500
0.687500 0.791250 0.182500
0.740625 0.791250 0.182500
0.793750 0.791250 0.182500
0.846875 0.791250 0.182500
0.900000 0.791250 0.182500
0.050000 0.845625 0.182500
0.103125 0.845625 0.182500
0.156250 0.845625 0.182500
0.209375 0.845625 0.182500
0.262500 0.845625 0.182500
0.315625 0.845625 0.182500
0.368750 0.845625 0.182500
0.421875 0.845625 0.182500
0.475000 0.845625 0.182500
0.528125 0.845625 0.182500
0.581250 0.845625 0.182500
0.634375 0.845625 0.182500
0.687500 0.845625 0.182500
0.740625 0.845625 0.182500
0.793750 0.845625 0.182500
0.846875 0.845625 0.182500
0.900000 0.845625 0.182500
0.050000 0.900000 0.182500
0.103125 0.900000 0.182500
0.156250 0.900000 0.182500
0.209375 0.900000 0.182500
0.262500 0.900000 0.182500
0.315625 0.900000 0.182500
0.368750 0.900000 0.182500
0.421875 0.900000 0.182500
0.475000 0.900000 0.182500
0.528125 0.900000 0.182500
0.581250 0.900000 0.182500
0.634375 0.900000 0.182500
0.687500 0.900000 0.182500
0.740625 0.900000 0.182500
0.793750 0.900000 0.182500
0.846875 0.900000 0.182500
0.900000 0.900000 0.182500
0.050000 0.030000 0.233750
0.103125 0.030000 0.233750
0.156250 0.030000 0.233750
0.209375 0.030000 0.233750
0.262500 0.030000 0.233750
0.315625 0.030000 0.233750
0.368750 0.030000 0.233750
0.421875 0.030000 0.233750
0.475000 0.030000 0.233750
0.528125 0.030000 0.233750
0.581250 0.030000 0.233750
0.634375 0.030000 0.233750
0.687500 0.030000 0.233750
0.740625 0.030000 0.233750
0.793750 0.030000 0.233750
0.846875 0.030000 0.233750
