luts/Vintage_Fade.cube
# Vintage_Fade LUT
# Created for MachinePaintingNodes testing
TITLE "Vintage_Fade"
LUT_3D_SIZE 5
DOMAIN_MIN 0.0 0.0 0.0
DOMAIN_MAX 1.0 1.0 1.0
0.050000 0.030000 0.080000
0.262500 0.030000 0.080000
0.475000 0.030000 0.080000
0.687500 0.030000 0.080000
0.900000 0.030000 0.080000
0.050000 0.247500 0.080000
0.262500 0.247500 0.080000
0.475000 0.247500 0.080000
0.687500 0.247500 0.080000
0.900000 0.247500 0.080000
0.050000 0.465000 0.080000
0.262500 0.465000 0.080000
0.475000 0.465000 0.080000
0.687500 0.465000 0.080000
0.900000 0.465000 0.080000
0.050000 0.682500 0.080000
0.262500 0.682500 0.080000
0.475000 0.682500 0.080000
0.687500 0.682500 0.080000
0.900000 0.682500 0.080000
0.050000 0.900000 0.080000
0.262500 0.900000 0.080000
0.475000 0.900000 0.080000
0.687500 0.900000 0.080000
0.900000 0.900000 0.080000
0.050000 0.030000 0.285000
0.262500 0.030000 0.285000
0.475000 0.030000 0.285000
0.687500 0.030000 0.285000
0.900000 0.030000 0.285000
0.050000 0.247500 0.285000
0.262500 0.247500 0.285000
0.475000 0.247500 0.285000
0.687500 0.247500 0.285000
0.900000 0.247500 0.285000
0.050000 0.465000 0.285000
0.262500 0.465000 0.285000
0.475000 0.465000 0.285000
0.687500 0.465000 0.285000
0.900000 0.465000 0.285000
0.050000 0.682500 0.285000
0.262500 0.682500 0.285000
0.475000 0.682500 0.285000
0.687500 0.682500 0.285000
0.900000 0.682500 0.285000
0.050000 0.900000 0.285000
0.262500 0.900000 0.285000
0.475000 0.900000 0.285000
0.687500 0.900000 0.285000
0.900000 0.900000 0.285000
0.050000 0.030000 0.490000
0.262500 0.030000 0.490000
0.475000 0.030000 0.490000
0.687500 0.030000 0.490000
0.900000 0.030000 0.490000
0.050000 0.247500 0.490000
0.262500 0.247500 0.490000
0.475000 0.247500 0.490000
0.687500 0.247500 0.490000
0.900000 0.247500 0.490000
0.050000 0.465000 0.490000
0.262500 0.465000 0.490000
0.475000 0.465000 0.490000
0.687500 0.465000 0.490000
0.900000 0.465000 0.490000
0.050000 0.682500 0.490000
0.262500 0.682500 0.490000
0.475000 0.682500 0.490000
0.687500 0.682500 0.490000
0.900000 0.682500 0.490000
0.050000 0.900000 0.490000
0.262500 0.900000 0.490000
0.475000 0.900000 0.490000
0.687500 0.900000 0.490000
0.900000 0.900000 0.490000
0.050000 0.030000 0.695000
0.262500 0.030000 0.695000
0.475000 0.030000 0.695000
0.687500 0.030000 0.695000
0.900000 0.030000 0.695000
0.050000 0.247500 0.695000
0.262500 0.247500 0.695000
0.475000 0.247500 0.695000
0.687500 0.247500 0.695000
0.900000 0.247500 0.695000
0.050000 0.465000 0.695000
0.262500 0.465000 0.695000
0.475000 0.465000 0.695000
0.687500 0.465000 0.695000
0.900000 0.465000 0.695000
0.050000 0.682500 0.695000
0.262500 0.682500 0.695000
0.475000 0.682500 0.695000
0.687500 0.682500 0.695000
0.900000 0.682500 0.695000
0.050000 0.900000 0.695000
0.262500 0.900000 0.695000
0.475000 0.900000 0.695000
0.687500 0.900000 0.695000
0.900000 0.900000 0.695000
0.050000 0.030000 0.900000
0.262500 0.030000 0.900000
0.475000 0.030000 0.900000
0.687500 0.030000 0.900000
0.900000 0.030000 0.900000
0.050000 0.247500 0.900000
0.262500 0.247500 0.900000
0.475000 0.247500 0.900000
0.687500 0.247500 0.900000
0.900000 0.247500 0.900000
0.050000 0.465000 0.900000
0.262500 0.465000 0.900000
0.475000 0.465000 0.900000
0.687500 0.465000 0.900000
0.900000 0.465000 0.900000
0.050000 0.682500 0.900000
0.262500 0.682500 0.900000
0.475000 0.682500 0.900000
0.687500 0.682500 0.900000
0.900000 0.682500 0.900000
0.050000 0.900000 0.900000
0.262500 0.900000 0.900000
0.475000 0.900000 0.900000
0.687500 0.900000 0.900000
0.900000 0.900000 0.900000
