luts/Vintage_Fade.cube
# Vintage_Fade LUT
# Created for MachinePaintingNodes testing
TITLE "Vintage_Fade"
LUT_3D_SIZE 9
DOMAIN_MIN 0.0 0.0 0.0
DOMAIN_MAX 1.0 1.0 1.0
0.050000 0.030000 0.080000
0.156250 0.030000 0.080000
0.262500 0.030000 0.080000
0.368750 0.030000 0.080000
0.475000 0.030000 0.080000
0.581250 0.030000 0.080000
0.687500 0.030000 0.080000
0.793750 0.030000 0.080000
0.900000 0.030000 0.080000
0.050000 0.138750 0.080000
0.156250 0.138750 0.080000
0.262500 0.138750 0.080000
0.368750 0.138750 0.080000
0.475000 0.138750 0.080000
0.581250 0.138750 0.080000
0.687500 0.138750 0.080000
0.793750 0.138750 0.080000
0.900000 0.138750 0.080000
0.050000 0.247500 0.080000
0.156250 0.247500 0.080000
0.262500 0.247500 0.080000
0.368750 0.247500 0.080000
0.475000 0.247500 0.080000
0.581250 0.247500 0.080000
0.687500 0.247500 0.080000
0.793750 0.247500 0.080000
0.900000 0.247500 0.080000
0.050000 0.356250 0.080000
0.156250 0.356250 0.080000
0.262500 0.356250 0.080000
0.368750 0.356250 0.080000
0.475000 0.356250 0.080000
0.581250 0.356250 0.080000
0.687500 0.356250 0.080000
0.793750 0.356250 0.080000
0.900000 0.356250 0.080000
0.050000 0.465000 0.080000
0.156250 0.465000 0.080000
0.262500 0.465000 0.080000
0.368750 0.465000 0.080000
0.475000 0.465000 0.080000
0.581250 0.465000 0.080000
0.687500 0.465000 0.080000
0.793750 0.465000 0.080000
0.900000 0.465000 0.080000
0.050000 0.573750 0.080000
0.156250 0.573750 0.080000
0.262500 0.573750 0.080000
0.368750 0.573750 0.080000
0.475000 0.573750 0.080000
0.581250 0.573750 0.080000
0.687500 0.573750 0.080000
0.793750 0.573750 0.080000
0.900000 0.573750 0.080000
0.050000 0.682500 0.080000
0.156250 0.682500 0.080000
0.262500 0.682500 0.080000
0.368750 0.682500 0.080000
0.475000 0.682500 0.080000
0.581250 0.682500 0.080000
0.687500 0.682500 0.080000
0.793750 0.682500 0.080000
0.900000 0.682500 0.080000
0.050000 0.791250 0.080000
0.156250 0.791250 0.080000
0.262500 0.791250 0.080000
0.368750 0.791250 0.080000
0.475000 0.791250 0.080000
0.581250 0.791250 0.080000
0.687500 0.791250 0.080000
0.793750 0.791250 0.080000
0.900000 0.791250 0.080000
0.050000 0.900000 0.080000
0.156250 0.900000 0.080000
0.262500 0.900000 0.080000
0.368750 0.900000 0.080000
0.475000 0.900000 0.080000
0.581250 0.900000 0.080000
0.687500 0.900000 0.080000
0.793750 0.900000 0.080000
0.900000 0.900000 0.080000
0.050000 0.030000 0.182500
0.156250 0.030000 0.182500
0.262500 0.030000 0.182500
0.368750 0.030000 0.182500
0.475000 0.030000 0.182500
0.581250 0.030000 0.182500
0.687500 0.030000 0.182500
0.793750 0.030000 0.182500
0.900000 0.030000 0.182500
0.050000 0.138750 0.182500
0.156250 0.138750 0.182500
0.262500 0.138750 0.182500
0.368750 0.138750 0.182500
0.475000 0.138750 0.182500
0.581250 0.138750 0.182500
0.687500 0.138750 0.182500
0.793750 0.138750 0.182500
0.900000 0.138750 0.182500
0.050000 0.247500 0.182500
0.156250 0.247500 0.182500
0.262500 0.247500 0.182500
0.368750 0.247500 0.182500
0.475000 0.247500 0.182500
0.581250 0.247500 0.182500
0.687500 0.247500 0.182500
0.793750 0.247500 0.182500
0.900000 0.247500 0.182500
0.050000 0.356250 0.182500
0.156250 0.356250 0.182500
0.262500 0.356250 0.182500
0.368750 0.356250 0.182500
0.475000 0.356250 0.182500
0.581250 0.356250 0.182500
0.687500 0.356250 0.182500
0.793750 0.356250 0.182500
0.900000 0.356250 0.182500
0.050000 0.465000 0.182500
0.156250 0.465000 0.182500
0.262500 0.465000 0.182500
0.368750 0.465000 0.182500
0.475000 0.465000 0.182500
0.581250 0.465000 0.182500
0.687500 0.465000 0.182500
0.793750 0.465000 0.182500
0.900000 0.465000 0.182500
0.050000 0.573750 0.182500
0.156250 0.573750 0.182500
0.262500 0.573750 0.182500
0.368750 0.573750 0.182500
0.475000 0.573750 0.182500
0.581250 0.573750 0.182500
0.687500 0.573750 0.182500
0.793750 0.573750 0.182500
0.900000 0.573750 0.182500
0.050000 0.682500 0.182500
0.156250 0.682500 0.182500
0.262500 0.682500 0.182500
0.368750 0.682500 0.182500
0.475000 0.682500 0.182500
0.581250 0.682500 0.182500
0.687500 0.682500 0.182500
0.793750 0.682500 0.182500
0.900000 0.682500 0.182500
0.050000 0.791250 0.182500
0.156250 0.791250 0.182500
0.262500 0.791250 0.182500
0.368750 0.791250 0.182500
0.475000 0.791250 0.182500
0.581250 0.791250 0.182500
0.687500 0.791250 0.182500
0.793750 0.791250 0.182500
0.900000 0.791250 0.182500
0.050000 0.900000 0.182500
0.156250 0.900000 0.182500
0.262500 0.900000 0.182500
0.368750 0.900000 0.182500
0.475000 0.900000 0.182500
0.581250 0.900000 0.182500
0.687500 0.900000 0.182500
0.793750 0.900000 0.182500
0.900000 0.900000 0.182500
0.050000 0.030000 0.285000
0.156250 0.030000 0.285000
0.262500 0.030000 0.285000
0.368750 0.030000 0.285000
0.475000 0.030000 0.285000
0.581250 0.030000 0.285000
0.687500 0.030000 0.285000
0.793750 0.030000 0.285000
0.900000 0.030000 0.285000
0.050000 0.138750 0.285000
0.156250 0.138750 0.285000
0.262500 0.138750 0.285000
0.368750 0.138750 0.285000
0.475000 0.138750 0.285000
0.581250 0.138750 0.285000
0.687500 0.138750 0.285000
0.793750 0.138750 0.285000
0.900000 0.138750 0.285000
0.050000 0.247500 0.285000
0.156250 0.247500 0.285000
0.262500 0.247500 0.285000
0.368750 0.247500 0.285000
0.475000 0.247500 0.285000
0.581250 0.247500 0.285000
0.687500 0.247500 0.285000
0.793750 0.247500 0.285000
0.900000 0.247500 0.285000
0.050000 0.356250 0.285000
0.156250 0.356250 0.285000
0.262500 0.356250 0.285000
0.368750 0.356250 0.285000
0.475000 0.356250 0.285000
0.581250 0.356250 0.285000
0.687500 0.356250 0.285000
0.793750 0.356250 0.285000
0.900000 0.356250 0.285000
0.050000 0.465000 0.285000
0.156250 0.465000 0.285000
0.262500 0.465000 0.285000
0.368750 0.465000 0.285000
0.475000 0.465000 0.285000
0.581250 0.465000 0.285000
0.687500 0.465000 0.285000
0.793750 0.465000 0.285000
0.900000 0.465000 0.285000
0.050000 0.573750 0.285000
0.156250 0.573750 0.285000
0.262500 0.573750 0.285000
0.368750 0.573750 0.285000
0.475000 0.573750 0.285000
0.581250 0.573750 0.285000
0.687500 0.573750 0.285000
0.793750 0.573750 0.285000
0.900000 0.573750 0.285000
0.050000 0.682500 0.285000
0.156250 0.682500 0.285000
0.262500 0.682500 0.285000
0.368750 0.682500 0.285000
0.475000 0.682500 0.285000
0.581250 0.682500 0.285000
0.687500 0.682500 0.285000
0.793750 0.682500 0.285000
0.900000 0.682500 0.285000
0.050000 0.791250 0.285000
0.156250 0.791250 0.285000
0.262500 0.791250 0.285000
0.368750 0.791250 0.285000
0.475000 0.791250 0.285000
0.581250 0.791250 0.285000
0.687500 0.791250 0.285000
0.793750 0.791250 0.285000
0.900000 0.791250 0.285000
0.050000 0.900000 0.285000
0.156250 0.900000 0.285000
0.262500 0.900000 0.285000
0.368750 0.900000 0.285000
0.475000 0.900000 0.285000
0.581250 0.900000 0.285000
0.687500 0.900000 0.285000
0.793750 0.900000 0.285000
0.900000 0.900000 0.285000
0.050000 0.030000 0.387500
0.156250 0.030000 0.387500
0.262500 0.030000 0.387500
0.368750 0.030000 0.387500
0.475000 0.030000 0.387500
0.581250 0.030000 0.387500
0.687500 0.030000 0.387500
0.793750 0.030000 0.387500
0.900000 0.030000 0.387500
0.050000 0.138750 0.387500
0.156250 0.138750 0.387500
0.262500 0.138750 0.387500
0.368750 0.138750 0.387500
0.475000 0.138750 0.387500
0.581250 0.138750 0.387500
0.687500 0.138750 0.387500
0.793750 0.138750 0.387500
0.900000 0.138750 0.387500
0.050000 0.247500 0.387500
0.156250 0.247500 0.387500
0.262500 0.247500 0.387500
0.368750 0.247500 0.387500
0.475000 0.247500 0.387500
0.581250 0.247500 0.387500
0.687500 0.247500 0.387500
0.793750 0.247500 0.387500
0.900000 0.247500 0.387500
0.050000 0.356250 0.387500
0.156250 0.356250 0.387500
0.262500 0.356250 0.387500
0.368750 0.356250 0.387500
0.475000 0.356250 0.387500
0.581250 0.356250 0.387500
0.687500 0.356250 0.387500
0.793750 0.356250 0.387500
0.900000 0.356250 0.387500
0.050000 0.465000 0.387500
0.156250 0.465000 0.387500
0.262500 0.465000 0.387500
0.368750 0.465000 0.387500
0.475000 0.465000 0.387500
0.581250 0.465000 0.387500
0.687500 0.465000 0.387500
0.793750 0.465000 0.387500
0.900000 0.465000 0.387500
0.050000 0.573750 0.387500
0.156250 0.573750 0.387500
0.262500 0.573750 0.387500
0.368750 0.573750 0.387500
0.475000 0.573750 0.387500
0.581250 0.573750 0.387500
0.687500 0.573750 0.387500
0.793750 0.573750 0.387500
0.900000 0.573750 0.387500
0.050000 0.682500 0.387500
0.156250 0.682500 0.387500
0.262500 0.682500 0.387500
0.368750 0.682500 0.387500
0.475000 0.682500 0.387500
0.581250 0.682500 0.387500
0.687500 0.682500 0.387500
0.793750 0.682500 0.387500
0.900000 0.682500 0.387500
0.050000 0.791250 0.387500
0.156250 0.791250 0.387500
0.262500 0.791250 0.387500
0.368750 0.791250 0.387500
0.475000 0.791250 0.387500
0.581250 0.791250 0.387500
0.687500 0.791250 0.387500
0.793750 0.791250 0.387500
0.900000 0.791250 0.387500
0.050000 0.900000 0.387500
0.156250 0.900000 0.387500
0.262500 0.900000 0.387500
0.368750 0.900000 0.387500
0.475000 0.900000 0.387500
0.581250 0.900000 0.387500
0.687500 0.900000 0.387500
0.793750 0.900000 0.387500
0.900000 0.900000 0.387500
0.050000 0.030000 0.490000
0.156250 0.030000 0.490000
0.262500 0.030000 0.490000
0.368750 0.030000 0.490000
0.475000 0.030000 0.490000
0.581250 0.030000 0.490000
0.687500 0.030000 0.490000
0.793750 0.030000 0.490000
0.900000 0.030000 0.490000
0.050000 0.138750 0.490000
0.156250 0.138750 0.490000
0.262500 0.138750 0.490000
0.368750 0.138750 0.490000
0.475000 0.138750 0.490000
0.581250 0.138750 0.490000
0.687500 0.138750 0.490000
0.793750 0.138750 0.490000
0.900000 0.138750 0.490000
0.050000 0.247500 0.490000
0.156250 0.247500 0.490000
0.262500 0.247500 0.490000
0.368750 0.247500 0.490000
0.475000 0.247500 0.490000
0.581250 0.247500 0.490000
0.687500 0.247500 0.490000
0.793750 0.247500 0.490000
0.900000 0.247500 0.490000
0.050000 0.356250 0.490000
0.156250 0.356250 0.490000
0.262500 0.356250 0.490000
0.368750 0.356250 0.490000
0.475000 0.356250 0.490000
0.581250 0.356250 0.490000
0.687500 0.356250 0.490000
0.793750 0.356250 0.490000
0.900000 0.356250 0.490000
0.050000 0.465000 0.490000
0.156250 0.465000 0.490000
0.262500 0.465000 0.490000
0.368750 0.465000 0.490000
0.475000 0.465000 0.490000
0.581250 0.465000 0.490000
0.687500 0.465000 0.490000
0.793750 0.465000 0.490000
0.900000 0.465000 0.490000
0.050000 0.573750 0.490000
0.156250 0.573750 0.490000
0.262500 0.573750 0.490000
0.368750 0.573750 0.490000
0.475000 0.573750 0.490000
0.581250 0.573750 0.490000
0.687500 0.573750 0.490000
0.793750 0.573750 0.490000
0.900000 0.573750 0.490000
0.050000 0.682500 0.490000
0.156250 0.682500 0.490000
0.262500 0.682500 0.490000
0.368750 0.682500 0.490000
0.475000 0.682500 0.490000
0.581250 0.682500 0.490000
0.687500 0.682500 0.490000
0.793750 0.682500 0.490000
0.900000 0.682500 0.490000
0.050000 0.791250 0.490000
0.156250 0.791250 0.490000
0.262500 0.791250 0.490000
0.368750 0.791250 0.490000
0.475000 0.791250 0.490000
0.581250 0.791250 0.490000
0.687500 0.791250 0.490000
0.793750 0.791250 0.490000
0.900000 0.791250 0.490000
0.050000 0.900000 0.490000
0.156250 0.900000 0.490000
0.262500 0.900000 0.490000
0.368750 0.900000 0.490000
0.475000 0.900000 0.490000
0.581250 0.900000 0.490000
0.687500 0.900000 0.490000
0.793750 0.900000 0.490000
0.900000 0.900000 0.490000
0.050000 0.030000 0.592500
0.156250 0.030000 0.592500
0.262500 0.030000 0.592500
0.368750 0.030000 0.592500
0.475000 0.030000 0.592500
0.581250 0.030000 0.592500
0.687500 0.030000 0.592500
0.793750 0.030000 0.592500
0.900000 0.030000 0.592500
0.050000 0.138750 0.592500
0.156250 0.138750 0.592500
0.262500 0.138750 0.592500
0.368750 0.138750 0.592500
0.475000 0.138750 0.592500
0.581250 0.138750 0.592500
0.687500 0.138750 0.592500
0.793750 0.138750 0.592500
0.900000 0.138750 0.592500
0.050000 0.247500 0.592500
0.156250 0.247500 0.592500
0.262500 0.247500 0.592500
0.368750 0.247500 0.592500
0.475000 0.247500 0.592500
0.581250 0.247500 0.592500
0.687500 0.247500 0.592500
0.793750 0.247500 0.592500
0.900000 0.247500 0.592500
0.050000 0.356250 0.592500
0.156250 0.356250 0.592500
0.262500 0.356250 0.592500
0.368750 0.356250 0.592500
0.475000 0.356250 0.592500
0.581250 0.356250 0.592500
0.687500 0.356250 0.592500
0.793750 0.356250 0.592500
0.900000 0.356250 0.592500
0.050000 0.465000 0.592500
0.156250 0.465000 0.592500
0.262500 0.465000 0.592500
0.368750 0.465000 0.592500
0.475000 0.465000 0.592500
0.581250 0.465000 0.592500
0.687500 0.465000 0.592500
0.793750 0.465000 0.592500
0.900000 0.465000 0.592500
0.050000 0.573750 0.592500
0.156250 0.573750 0.592500
0.262500 0.573750 0.592500
0.368750 0.573750 0.592500
0.475000 0.573750 0.592500
0.581250 0.573750 0.592500
0.687500 0.573750 0.592500
0.793750 0.573750 0.592500
0.900000 0.573750 0.592500
0.050000 0.682500 0.592500
0.156250 0.682500 0.592500
0.262500 0.682500 0.592500
0.368750 0.682500 0.592500
0.475000 0.682500 0.592500
0.581250 0.682500 0.592500
0.687500 0.682500 0.592500
0.793750 0.682500 0.592500
0.900000 0.682500 0.592500
0.050000 0.791250 0.592500
0.156250 0.791250 0.592500
0.262500 0.791250 0.592500
0.368750 0.791250 0.592500
0.475000 0.791250 0.592500
0.581250 0.791250 0.592500
0.687500 0.791250 0.592500
0.793750 0.791250 0.592500
0.900000 0.791250 0.592500
0.050000 0.900000 0.592500
0.156250 0.900000 0.592500
0.262500 0.900000 0.592500
0.368750 0.900000 0.592500
0.475000 0.900000 0.592500
0.581250 0.900000 0.592500
0.687500 0.900000 0.592500
0.793750 0.900000 0.592500
0.900000 0.900000 0.592500
0.050000 0.030000 0.695000
0.156250 0.030000 0.695000
0.262500 0.030000 0.695000
0.368750 0.030000 0.695000
0.475000 0.030000 0.695000
0.581250 0.030000 0.695000
0.687500 0.030000 0.695000
0.793750 0.030000 0.695000
0.900000 0.030000 0.695000
0.050000 0.138750 0.695000
0.156250 0.138750 0.695000
0.262500 0.138750 0.695000
0.368750 0.138750 0.695000
0.475000 0.138750 0.695000
0.581250 0.138750 0.695000
0.687500 0.138750 0.695000
0.793750 0.138750 0.695000
0.900000 0.138750 0.695000
0.050000 0.247500 0.695000
0.156250 0.247500 0.695000
0.262500 0.247500 0.695000
0.368750 0.247500 0.695000
0.475000 0.247500 0.695000
0.581250 0.247500 0.695000
0.687500 0.247500 0.695000
0.793750 0.247500 0.695000
0.900000 0.247500 0.695000
0.050000 0.356250 0.695000
0.156250 0.356250 0.695000
0.262500 0.356250 0.695000
0.368750 0.356250 0.695000
0.475000 0.356250 0.695000
0.581250 0.356250 0.695000
0.687500 0.356250 0.695000
0.793750 0.356250 0.695000
0.900000 0.356250 0.695000
0.050000 0.465000 0.695000
0.156250 0.465000 0.695000
0.262500 0.465000 0.695000
0.368750 0.465000 0.695000
0.475000 0.465000 0.695000
0.581250 0.465000 0.695000
0.687500 0.465000 0.695000
0.793750 0.465000 0.695000
0.900000 0.465000 0.695000
0.050000 0.573750 0.695000
0.156250 0.573750 0.695000
0.262500 0.573750 0.695000
0.368750 0.573750 0.695000
0.475000 0.573750 0.695000
0.581250 0.573750 0.695000
0.687500 0.573750 0.695000
0.793750 0.573750 0.695000
0.900000 0.573750 0.695000
0.050000 0.682500 0.695000
0.156250 0.682500 0.695000
0.262500 0.682500 0.695000
0.368750 0.682500 0.695000
0.475000 0.682500 0.695000
0.581250 0.682500 0.695000
0.687500 0.682500 0.695000
0.793750 0.682500 0.695000
0.900000 0.682500 0.695000
0.050000 0.791250 0.695000
0.156250 0.791250 0.695000
0.262500 0.791250 0.695000
0.368750 0.791250 0.695000
0.475000 0.791250 0.695000
0.581250 0.791250 0.695000
0.687500 0.791250 0.695000
0.793750 0.791250 0.695000
0.900000 0.791250 0.695000
0.050000 0.900000 0.695000
0.156250 0.900000 0.695000
0.262500 0.900000 0.695000
0.368750 0.900000 0.695000
0.475000 0.900000 0.695000
0.581250 0.900000 0.695000
0.687500 0.900000 0.695000
0.793750 0.900000 0.695000
0.900000 0.900000 0.695000
0.050000 0.030000 0.797500
0.156250 0.030000 0.797500
0.262500 0.030000 0.797500
0.368750 0.030000 0.797500
0.475000 0.030000 0.797500
0.581250 0.030000 0.797500
0.687500 0.030000 0.797500
0.793750 0.030000 0.797500
0.900000 0.030000 0.797500
0.050000 0.138750 0.797500
0.156250 0.138750 0.797500
0.262500 0.138750 0.797500
0.368750 0.138750 0.797500
0.475000 0.138750 0.797500
0.581250 0.138750 0.797500
0.687500 0.138750 0.797500
0.793750 0.138750 0.797500
0.900000 0.138750 0.797500
0.050000 0.247500 0.797500
0.156250 0.247500 0.797500
0.262500 0.247500 0.797500
0.368750 0.247500 0.797500
0.475000 0.247500 0.797500
0.581250 0.247500 0.797500
0.687500 0.247500 0.797500
0.793750 0.247500 0.797500
0.900000 0.247500 0.797500
0.050000 0.356250 0.797500
0.156250 0.356250 0.797500
0.262500 0.356250 0.797500
0.368750 0.356250 0.797500
0.475000 0.356250 0.797500
0.581250 0.356250 0.797500
0.687500 0.356250 0.797500
0.793750 0.356250 0.797500
0.900000 0.356250 0.797500
0.050000 0.465000 0.797500
0.156250 0.465000 0.797500
0.262500 0.465000 0.797500
0.368750 0.465000 0.797500
0.475000 0.465000 0.797500
0.581250 0.465000 0.797500
0.687500 0.465000 0.797500
0.793750 0.465000 0.797500
0.900000 0.465000 0.797500
0.050000 0.573750 0.797500
0.156250 0.573750 0.797500
0.262500 0.573750 0.797500
0.368750 0.573750 0.797500
0.475000 0.573750 0.797500
0.581250 0.573750 0.797500
0.687500 0.573750 0.797500
0.793750 0.573750 0.797500
0.900000 0.573750 0.797500
0.050000 0.682500 0.797500
0.156250 0.682500 0.797500
0.262500 0.682500 0.797500
0.368750 0.682500 0.797500
0.475000 0.682500 0.797500
0.581250 0.682500 0.797500
0.687500 0.682500 0.797500
0.793750 0.682500 0.797500
0.900000 0.682500 0.797500
0.050000 0.791250 0.797500
0.156250 0.791250 0.797500
0.262500 0.791250 0.797500
0.368750 0.791250 0.797500
0.475000 0.791250 0.797500
0.581250 0.791250 0.797500
0.687500 0.791250 0.797500
0.793750 0.791250 0.797500
0.900000 0.791250 0.797500
0.050000 0.900000 0.797500
0.156250 0.900000 0.797500
0.262500 0.900000 0.797500
0.368750 0.900000 0.797500
0.475000 0.900000 0.797500
0.581250 0.900000 0.797500
0.687500 0.900000 0.797500
0.793750 0.900000 0.797500
0.900000 0.900000 0.797500
0.050000 0.030000 0.900000
0.156250 0.030000 0.900000
0.262500 0.030000 0.900000
0.368750 0.030000 0.900000
0.475000 0.030000 0.900000
0.581250 0.030000 0.900000
0.687500 0.030000 0.900000
0.793750 0.030000 0.900000
0.900000 0.030000 0.900000
0.050000 0.138750 0.900000
0.156250 0.138750 0.900000
0.262500 0.138750 0.900000
0.368750 0.138750 0.900000
0.475000 0.138750 0.900000
0.581250 0.138750 0.900000
0.687500 0.138750 0.900000
0.793750 0.138750 0.900000
0.900000 0.138750 0.900000
0.050000 0.247500 0.900000
0.156250 0.247500 0.900000
0.262500 0.247500 0.900000
0.368750 0.247500 0.900000
0.475000 0.247500 0.900000
0.581250 0.247500 0.900000
0.687500 0.247500 0.900000
0.793750 0.247500 0.900000
0.900000 0.247500 0.900000
0.050000 0.356250 0.900000
0.156250 0.356250 0.900000
0.262500 0.356250 0.900000
0.368750 0.356250 0.900000
0.475000 0.356250 0.900000
0.581250 0.356250 0.900000
0.687500 0.356250 0.900000
0.793750 0.356250 0.900000
0.900000 0.356250 0.900000
0.050000 0.465000 0.900000
0.156250 0.465000 0.900000
0.262500 0.465000 0.900000
0.368750 0.465000 0.900000
0.475000 0.465000 0.900000
0.581250 0.465000 0.900000
0.687500 0.465000 0.900000
0.793750 0.465000 0.900000
0.900000 0.465000 0.900000
0.050000 0.573750 0.900000
0.156250 0.573750 0.900000
0.262500 0.573750 0.900000
0.368750 0.573750 0.900000
0.475000 0.573750 0.900000
0.581250 0.573750 0.900000
0.687500 0.573750 0.900000
0.793750 0.573750 0.900000
0.900000 0.573750 0.900000
0.050000 0.682500 0.900000
0.156250 0.682500 0.900000
0.262500 0.682500 0.900000
0.368750 0.682500 0.900000
0.475000 0.682500 0.900000
0.581250 0.682500 0.900000
0.687500 0.682500 0.900000
0.793750 0.682500 0.900000
0.900000 0.682500 0.900000
0.050000 0.791250 0.900000
0.156250 0.791250 0.900000
0.262500 0.791250 0.900000
0.368750 0.791250 0.900000
0.475000 0.791250 0.900000
0.581250 0.791250 0.900000
0.687500 0.791250 0.900000
0.793750 0.791250 0.900000
0.900000 0.791250 0.900000
0.050000 0.900000 0.900000
0.156250 0.900000 0.900000
0.262500 0.900000 0.900000
0.368750 0.900000 0.900000
0.475000 0.900000 0.900000
0.581250 0.900000 0.900000
0.687500 0.900000 0.900000
0.793750 0.900000 0.900000
0.900000 0.900000 0.900000
