luts/Warm_Tone.cube
# Warm_Tone LUT
# Created for MachinePaintingNodes testing
TITLE "Warm_Tone"
LUT_3D_SIZE 5
DOMAIN_MIN 0.0 0.0 0.0
DOMAIN_MAX 1.0 1.0 1.0
0.050000 0.000000 0.000000
0.325000 0.000000 0.000000
0.600000 0.000000 0.000000
0.875000 0.000000 0.000000
1.000000 0.000000 0.000000
0.050000 0.237500 0.000000
0.325000 0.237500 0.000000
0.600000 0.237500 0.000000
0.875000 0.237500 0.000000
1.000000 0.237500 0.000000
0.050000 0.475000 0.000000
0.325000 0.475000 0.000000
0.600000 0.475000 0.000000
0.875000 0.475000 0.000000
1.000000 0.475000 0.000000
0.050000 0.712500 0.000000
0.325000 0.712500 0.000000
0.600000 0.712500 0.000000
0.875000 0.712500 0.000000
1.000000 0.712500 0.000000
0.050000 0.950000 0.000000
0.325000 0.950000 0.000000
0.600000 0.950000 0.000000
0.875000 0.950000 0.000000
1.000000 0.950000 0.000000
0.050000 0.000000 0.162500
0.325000 0.000000 0.162500
0.600000 0.000000 0.162500
0.875000 0.000000 0.162500
1.000000 0.000000 0.162500
0.050000 0.237500 0.162500
0.325000 0.237500 0.162500
0.600000 0.237500 0.162500
0.875000 0.237500 0.162500
1.000000 0.237500 0.162500
0.050000 0.475000 0.162500
0.325000 0.475000 0.162500
0.600000 0.475000 0.162500
0.875000 0.475000 0.162500
1.000000 0.475000 0.162500
0.050000 0.712500 0.162500
0.325000 0.712500 0.162500
0.600000 0.712500 0.162500
0.875000 0.712500 0.162500
1.000000 0.712500 0.162500
0.050000 0.950000 0.162500
0.325000 0.950000 0.162500
0.600000 0.950000 0.162500
0.875000 0.950000 0.162500
1.000000 0.950000 0.162500
0.050000 0.000000 0.375000
0.325000 0.000000 0.375000
0.600000 0.000000 0.375000
0.875000 0.000000 0.375000
1.000000 0.000000 0.375000
0.050000 0.237500 0.375000
0.325000 0.237500 0.375000
0.600000 0.237500 0.375000
0.875000 0.237500 0.375000
1.000000 0.237500 0.375000
0.050000 0.475000 0.375000
0.325000 0.475000 0.375000
0.600000 0.475000 0.375000
0.875000 0.475000 0.375000
1.000000 0.475000 0.375000
0.050000 0.712500 0.375000
0.325000 0.712500 0.375000
0.600000 0.712500 0.375000
0.875000 0.712500 0.375000
1.000000 0.712500 0.375000
0.050000 0.950000 0.375000
0.325000 0.950000 0.375000
0.600000 0.950000 0.375000
0.875000 0.950000 0.375000
1.000000 0.950000 0.375000
0.050000 0.000000 0.587500
0.325000 0.000000 0.587500
0.600000 0.000000 0.587500
0.875000 0.000000 0.587500
1.000000 0.000000 0.587500
0.050000 0.237500 0.587500
0.325000 0.237500 0.587500
0.600000 0.237500 0.587500
0.875000 0.237500 0.587500
1.000000 0.237500 0.587500
0.050000 0.475000 0.587500
0.325000 0.475000 0.587500
0.600000 0.475000 0.587500
0.875000 0.475000 0.587500
1.000000 0.475000 0.587500
0.050000 0.712500 0.587500
0.325000 0.712500 0.587500
0.600000 0.712500 0.587500
0.875000 0.712500 0.587500
1.000000 0.712500 0.587500
0.050000 0.950000 0.587500
0.325000 0.950000 0.587500
0.600000 0.950000 0.587500
0.875000 0.950000 0.587500
1.000000 0.950000 0.587500
0.050000 0.000000 0.800000
0.325000 0.000000 0.800000
0.600000 0.000000 0.800000
0.875000 0.000000 0.800000
1.000000 0.000000 0.800000
0.050000 0.237500 0.800000
0.325000 0.237500 0.800000
0.600000 0.237500 0.800000
0.875000 0.237500 0.800000
1.000000 0.237500 0.800000
0.050000 0.475000 0.800000
0.325000 0.475000 0.800000
0.600000 0.475000 0.800000
0.875000 0.475000 0.800000
1.000000 0.475000 0.800000
0.050000 0.712500 0.800000
0.325000 0.712500 0.800000
0.600000 0.712500 0.800000
0.875000 0.712500 0.800000
1.000000 0.712500 0.800000
0.050000 0.950000 0.800000
0.325000 0.950000 0.800000
0.600000 0.950000 0.800000
0.875000 0.950000 0.800000
1.000000 0.950000 0.800000
