luts/Warm_Tone.cube
# Warm_Tone LUT
# Created for MachinePaintingNodes testing
TITLE "Warm_Tone"
LUT_3D_SIZE 17
DOMAIN_MIN 0.0 0.0 0.0
DOMAIN_MAX 1.0 1.0 1.0
0.050000 0.000000 0.000000
0.118750 0.000000 0.000000
0.187500 0.000000 0.000000
0.256250 0.000000 0.000000
0.325000 0.000000 0.000000
0.393750 0.000000 0.000000
0.462500 0.000000 0.000000
0.531250 0.000000 0.000000
0.600000 0.000000 0.000000
0.668750 0.000000 0.000000
0.737500 0.000000 0.000000
0.806250 0.000000 0.000000
0.875000 0.000000 0.000000
0.943750 0.000000 0.000000
1.000000 0.000000 0.000000
1.000000 0.000000 0.000000
1.000000 0.000000 0.000000
0.050000 0.059375 0.000000
0.118750 0.059375 0.000000
0.187500 0.059375 0.000000
0.256250 0.059375 0.000000
0.325000 0.059375 0.000000
0.393750 0.059375 0.000000
0.462500 0.059375 0.000000
0.531250 0.059375 0.000000
0.600000 0.059375 0.000000
0.668750 0.059375 0.000000
0.737500 0.059375 0.000000
0.806250 0.059375 0.000000
0.875000 0.059375 0.000000
0.943750 0.059375 0.000000
1.000000 0.059375 0.000000
1.000000 0.059375 0.000000
1.000000 0.059375 0.000000
0.050000 0.118750 0.000000
0.118750 0.118750 0.000000
0.187500 0.118750 0.000000
0.256250 0.118750 0.000000
0.325000 0.118750 0.000000
0.393750 0.118750 0.000000
0.462500 0.118750 0.000000
0.531250 0.118750 0.000000
0.600000 0.118750 0.000000
0.668750 0.118750 0.000000
0.737500 0.118750 0.000000
0.806250 0.118750 0.000000
0.875000 0.118750 0.000000
0.943750 0.118750 0.000000
1.000000 0.118750 0.000000
1.000000 0.118750 0.000000
1.000000 0.118750 0.000000
0.050000 0.178125 0.000000
0.118750 0.178125 0.000000
0.187500 0.178125 0.000000
0.256250 0.178125 0.000000
0.325000 0.178125 0.000000
0.393750 0.178125 0.000000
0.462500 0.178125 0.000000
0.531250 0.178125 0.000000
0.600000 0.178125 0.000000
0.668750 0.178125 0.000000
0.737500 0.178125 0.000000
0.806250 0.178125 0.000000
0.875000 0.178125 0.000000
0.943750 0.178125 0.000000
1.000000 0.178125 0.000000
1.000000 0.178125 0.000000
1.000000 0.178125 0.000000
0.050000 0.237500 0.000000
0.118750 0.237500 0.000000
0.187500 0.237500 0.000000
0.256250 0.237500 0.000000
0.325000 0.237500 0.000000
0.393750 0.237500 0.000000
0.462500 0.237500 0.000000
0.531250 0.237500 0.000000
0.600000 0.237500 0.000000
0.668750 0.237500 0.000000
0.737500 0.237500 0.000000
0.806250 0.237500 0.000000
0.875000 0.237500 0.000000
0.943750 0.237500 0.000000
1.000000 0.237500 0.000000
1.000000 0.237500 0.000000
1.000000 0.237500 0.000000
0.050000 0.296875 0.000000
0.118750 0.296875 0.000000
0.187500 0.296875 0.000000
0.256250 0.296875 0.000000
0.325000 0.296875 0.000000
0.393750 0.296875 0.000000
0.462500 0.296875 0.000000
0.531250 0.296875 0.000000
0.600000 0.296875 0.000000
0.668750 0.296875 0.000000
0.737500 0.296875 0.000000
0.806250 0.296875 0.000000
0.875000 0.296875 0.000000
0.943750 0.296875 0.000000
1.000000 0.296875 0.000000
1.000000 0.296875 0.000000
1.000000 0.296875 0.000000
0.050000 0.356250 0.000000
0.118750 0.356250 0.000000
0.187500 0.356250 0.000000
0.256250 0.356250 0.000000
0.325000 0.356250 0.000000
0.393750 0.356250 0.000000
0.462500 0.356250 0.000000
0.531250 0.356250 0.000000
0.600000 0.356250 0.000000
0.668750 0.356250 0.000000
0.737500 0.356250 0.000000
0.806250 0.356250 0.000000
0.875000 0.356250 0.000000
0.943750 0.356250 0.000000
1.000000 0.356250 0.000000
1.000000 0.356250 0.000000
1.000000 0.356250 0.000000
0.050000 0.415625 0.000000
0.118750 0.415625 0.000000
0.187500 0.415625 0.000000
0.256250 0.415625 0.000000
0.325000 0.415625 0.000000
0.393750 0.415625 0.000000
0.462500 0.415625 0.000000
0.531250 0.415625 0.000000
0.600000 0.415625 0.000000
0.668750 0.415625 0.000000
0.737500 0.415625 0.000000
0.806250 0.415625 0.000000
0.875000 0.415625 0.000000
0.943750 0.415625 0.000000
1.000000 0.415625 0.000000
1.000000 0.415625 0.000000
1.000000 0.415625 0.000000
0.050000 0.475000 0.000000
0.118750 0.475000 0.000000
0.187500 0.475000 0.000000
0.256250 0.475000 0.000000
0.325000 0.475000 0.000000
0.393750 0.475000 0.000000
0.462500 0.475000 0.000000
0.531250 0.475000 0.000000
0.600000 0.475000 0.000000
0.668750 0.475000 0.000000
0.737500 0.475000 0.000000
0.806250 0.475000 0.000000
0.875000 0.475000 0.000000
0.943750 0.475000 0.000000
1.000000 0.475000 0.000000
1.000000 0.475000 0.000000
1.000000 0.475000 0.000000
0.050000 0.534375 0.000000
0.118750 0.534375 0.000000
0.187500 0.534375 0.000000
0.256250 0.534375 0.000000
0.325000 0.534375 0.000000
0.393750 0.534375 0.000000
0.462500 0.534375 0.000000
0.531250 0.534375 0.000000
0.600000 0.534375 0.000000
0.668750 0.534375 0.000000
0.737500 0.534375 0.000000
0.806250 0.534375 0.000000
0.875000 0.534375 0.000000
0.943750 0.534375 0.000000
1.000000 0.534375 0.000000
1.000000 0.534375 0.000000
1.000000 0.534375 0.000000
0.050000 0.593750 0.000000
0.118750 0.593750 0.000000
0.187500 0.593750 0.000000
0.256250 0.593750 0.000000
0.325000 0.593750 0.000000
0.393750 0.593750 0.000000
0.462500 0.593750 0.000000
0.531250 0.593750 0.000000
0.600000 0.593750 0.000000
0.668750 0.593750 0.000000
0.737500 0.593750 0.000000
0.806250 0.593750 0.000000
0.875000 0.593750 0.000000
0.943750 0.593750 0.000000
1.000000 0.593750 0.000000
1.000000 0.593750 0.000000
1.000000 0.593750 0.000000
0.050000 0.653125 0.000000
0.118750 0.653125 0.000000
0.187500 0.653125 0.000000
0.256250 0.653125 0.000000
0.325000 0.653125 0.000000
0.393750 0.653125 0.000000
0.462500 0.653125 0.000000
0.531250 0.653125 0.000000
0.600000 0.653125 0.000000
0.668750 0.653125 0.000000
0.737500 0.653125 0.000000
0.806250 0.653125 0.000000
0.875000 0.653125 0.000000
0.943750 0.653125 0.000000
1.000000 0.653125 0.000000
1.000000 0.653125 0.000000
1.000000 0.653125 0.000000
0.050000 0.712500 0.000000
0.118750 0.712500 0.000000
0.187500 0.712500 0.000000
0.256250 0.712500 0.000000
0.325000 0.712500 0.000000
0.393750 0.712500 0.000000
0.462500 0.712500 0.000000
0.531250 0.712500 0.000000
0.600000 0.712500 0.000000
0.668750 0.712500 0.000000
0.737500 0.712500 0.000000
0.806250 0.712500 0.000000
0.875000 0.712500 0.000000
0.943750 0.712500 0.000000
1.000000 0.712500 0.000000
1.000000 0.712500 0.000000
1.000000 0.712500 0.000000
0.050000 0.771875 0.000000
0.118750 0.771875 0.000000
0.187500 0.771875 0.000000
0.256250 0.771875 0.000000
0.325000 0.771875 0.000000
0.393750 0.771875 0.000000
0.462500 0.771875 0.000000
0.531250 0.771875 0.000000
0.600000 0.771875 0.000000
0.668750 0.771875 0.000000
0.737500 0.771875 0.000000
0.806250 0.771875 0.000000
0.875000 0.771875 0.000000
0.943750 0.771875 0.000000
1.000000 0.771875 0.000000
1.000000 0.771875 0.000000
1.000000 0.771875 0.000000
0.050000 0.831250 0.000000
0.118750 0.831250 0.000000
0.187500 0.831250 0.000000
0.256250 0.831250 0.000000
0.325000 0.831250 0.000000
0.393750 0.831250 0.000000
0.462500 0.831250 0.000000
0.531250 0.831250 0.000000
0.600000 0.831250 0.000000
0.668750 0.831250 0.000000
0.737500 0.831250 0.000000
0.806250 0.831250 0.000000
0.875000 0.831250 0.000000
0.943750 0.831250 0.000000
1.000000 0.831250 0.000000
1.000000 0.831250 0.000000
1.000000 0.831250 0.000000
0.050000 0.890625 0.000000
0.118750 0.890625 0.000000
0.187500 0.890625 0.000000
0.256250 0.890625 0.000000
0.325000 0.890625 0.000000
0.393750 0.890625 0.000000
0.462500 0.890625 0.000000
0.531250 0.890625 0.000000
0.600000 0.890625 0.000000
0.668750 0.890625 0.000000
0.737500 0.890625 0.000000
0.806250 0.890625 0.000000
0.875000 0.890625 0.000000
0.943750 0.890625 0.000000
1.000000 0.890625 0.000000
1.000000 0.890625 0.000000
1.000000 0.890625 0.000000
0.050000 0.950000 0.000000
0.118750 0.950000 0.000000
0.187500 0.950000 0.000000
0.256250 0.950000 0.000000
0.325000 0.950000 0.000000
0.393750 0.950000 0.000000
0.462500 0.950000 0.000000
0.531250 0.950000 0.000000
0.600000 0.950000 0.000000
0.668750 0.950000 0.000000
0.737500 0.950000 0.000000
0.806250 0.950000 0.000000
0.875000 0.950000 0.000000
0.943750 0.950000 0.000000
1.000000 0.950000 0.000000
1.000000 0.950000 0.000000
1.000000 0.950000 0.000000
0.050000 0.000000 0.003125
0.118750 0.000000 0.003125
0.187500 0.000000 0.003125
0.256250 0.000000 0.003125
0.325000 0.000000 0.003125
0.393750 0.000000 0.003125
0.462500 0.000000 0.003125
0.531250 0.000000 0.003125
0.600000 0.000000 0.003125
0.668750 0.000000 0.003125
0.737500 0.000000 0.003125
0.806250 0.000000 0.003125
0.875000 0.000000 0.003125
0.943750 0.000000 0.003125
1.000000 0.000000 0.003125
1.000000 0.000000 0.003125
1.000000 0.000000 0.003125
0.050000 0.059375 0.003125
0.118750 0.059375 0.003125
0.187500 0.059375 0.003125
0.256250 0.059375 0.003125
0.325000 0.059375 0.003125
0.393750 0.059375 0.003125
0.462500 0.059375 0.003125
0.531250 0.059375 0.003125
0.600000 0.059375 0.003125
0.668750 0.059375 0.003125
0.737500 0.059375 0.003125
0.806250 0.059375 0.003125
0.875000 0.059375 0.003125
0.943750 0.059375 0.003125
1.000000 0.059375 0.003125
1.000000 0.059375 0.003125
1.000000 0.059375 0.003125
0.050000 0.118750 0.003125
0.118750 0.118750 0.003125
0.187500 0.118750 0.003125
0.256250 0.118750 0.003125
0.325000 0.118750 0.003125
0.393750 0.118750 0.003125
0.462500 0.118750 0.003125
0.531250 0.118750 0.003125
0.600000 0.118750 0.003125
0.668750 0.118750 0.003125
0.737500 0.118750 0.003125
0.806250 0.118750 0.003125
0.875000 0.118750 0.003125
0.943750 0.118750 0.003125
1.000000 0.118750 0.003125
1.000000 0.118750 0.003125
1.000000 0.118750 0.003125
0.050000 0.178125 0.003125
0.118750 0.178125 0.003125
0.187500 0.178125 0.003125
0.256250 0.178125 0.003125
0.325000 0.178125 0.003125
0.393750 0.178125 0.003125
0.462500 0.178125 0.003125
0.531250 0.178125 0.003125
0.600000 0.178125 0.003125
0.668750 0.178125 0.003125
0.737500 0.178125 0.003125
0.806250 0.178125 0.003125
0.875000 0.178125 0.003125
0.943750 0.178125 0.003125
1.000000 0.178125 0.003125
1.000000 0.178125 0.003125
1.000000 0.178125 0.003125
0.050000 0.237500 0.003125
0.118750 0.237500 0.003125
0.187500 0.237500 0.003125
0.256250 0.237500 0.003125
0.325000 0.237500 0.003125
0.393750 0.237500 0.003125
0.462500 0.237500 0.003125
0.531250 0.237500 0.003125
0.600000 0.237500 0.003125
0.668750 0.237500 0.003125
0.737500 0.237500 0.003125
0.806250 0.237500 0.003125
0.875000 0.237500 0.003125
0.943750 0.237500 0.003125
1.000000 0.237500 0.003125
1.000000 0.237500 0.003125
1.000000 0.237500 0.003125
0.050000 0.296875 0.003125
0.118750 0.296875 0.003125
0.187500 0.296875 0.003125
0.256250 0.296875 0.003125
0.325000 0.296875 0.003125
0.393750 0.296875 0.003125
0.462500 0.296875 0.003125
0.531250 0.296875 0.003125
0.600000 0.296875 0.003125
0.668750 0.296875 0.003125
0.737500 0.296875 0.003125
0.806250 0.296875 0.003125
0.875000 0.296875 0.003125
0.943750 0.296875 0.003125
1.000000 0.296875 0.003125
1.000000 0.296875 0.003125
1.000000 0.296875 0.003125
0.050000 0.356250 0.003125
0.118750 0.356250 0.003125
0.187500 0.356250 0.003125
0.256250 0.356250 0.003125
0.325000 0.356250 0.003125
0.393750 0.356250 0.003125
0.462500 0.356250 0.003125
0.531250 0.356250 0.003125
0.600000 0.356250 0.003125
0.668750 0.356250 0.003125
0.737500 0.356250 0.003125
0.806250 0.356250 0.003125
0.875000 0.356250 0.003125
0.943750 0.356250 0.003125
1.000000 0.356250 0.003125
1.000000 0.356250 0.003125
1.000000 0.356250 0.003125
0.050000 0.415625 0.003125
0.118750 0.415625 0.003125
0.187500 0.415625 0.003125
0.256250 0.415625 0.003125
0.325000 0.415625 0.003125
0.393750 0.415625 0.003125
0.462500 0.415625 0.003125
0.531250 0.415625 0.003125
0.600000 0.415625 0.003125
0.668750 0.415625 0.003125
0.737500 0.415625 0.003125
0.806250 0.415625 0.003125
0.875000 0.415625 0.003125
0.943750 0.415625 0.003125
1.000000 0.415625 0.003125
1.000000 0.415625 0.003125
1.000000 0.415625 0.003125
0.050000 0.475000 0.003125
0.118750 0.475000 0.003125
0.187500 0.475000 0.003125
0.256250 0.475000 0.003125
0.325000 0.475000 0.003125
0.393750 0.475000 0.003125
0.462500 0.475000 0.003125
0.531250 0.475000 0.003125
0.600000 0.475000 0.003125
0.668750 0.475000 0.003125
0.737500 0.475000 0.003125
0.806250 0.475000 0.003125
0.875000 0.475000 0.003125
0.943750 0.475000 0.003125
1.000000 0.475000 0.003125
1.000000 0.475000 0.003125
1.000000 0.475000 0.003125
0.050000 0.534375 0.003125
0.118750 0.534375 0.003125
0.187500 0.534375 0.003125
0.256250 0.534375 0.003125
0.325000 0.534375 0.003125
0.393750 0.534375 0.003125
0.462500 0.534375 0.003125
0.531250 0.534375 0.003125
0.600000 0.534375 0.003125
0.668750 0.534375 0.003125
0.737500 0.534375 0.003125
0.806250 0.534375 0.003125
0.875000 0.534375 0.003125
0.943750 0.534375 0.003125
1.000000 0.534375 0.003125
1.000000 0.534375 0.003125
1.000000 0.534375 0.003125
0.050000 0.593750 0.003125
0.118750 0.593750 0.003125
0.187500 0.593750 0.003125
0.256250 0.593750 0.003125
0.325000 0.593750 0.003125
0.393750 0.593750 0.003125
0.462500 0.593750 0.003125
0.531250 0.593750 0.003125
0.600000 0.593750 0.003125
0.668750 0.593750 0.003125
0.737500 0.593750 0.003125
0.806250 0.593750 0.003125
0.875000 0.593750 0.003125
0.943750 0.593750 0.003125
1.000000 0.593750 0.003125
1.000000 0.593750 0.003125
1.000000 0.593750 0.003125
0.050000 0.653125 0.003125
0.118750 0.653125 0.003125
0.187500 0.653125 0.003125
0.256250 0.653125 0.003125
0.325000 0.653125 0.003125
0.393750 0.653125 0.003125
0.462500 0.653125 0.003125
0.531250 0.653125 0.003125
0.600000 0.653125 0.003125
0.668750 0.653125 0.003125
0.737500 0.653125 0.003125
0.806250 0.653125 0.003125
0.875000 0.653125 0.003125
0.943750 0.653125 0.003125
1.000000 0.653125 0.003125
1.000000 0.653125 0.003125
1.000000 0.653125 0.003125
0.050000 0.712500 0.003125
0.118750 0.712500 0.003125
0.187500 0.712500 0.003125
0.256250 0.712500 0.003125
0.325000 0.712500 0.003125
0.393750 0.712500 0.003125
0.462500 0.712500 0.003125
0.531250 0.712500 0.003125
0.600000 0.712500 0.003125
0.668750 0.712500 0.003125
0.737500 0.712500 0.003125
0.806250 0.712500 0.003125
0.875000 0.712500 0.003125
0.943750 0.712500 0.003125
1.000000 0.712500 0.003125
1.000000 0.712500 0.003125
1.000000 0.712500 0.003125
0.050000 0.771875 0.003125
0.118750 0.771875 0.003125
0.187500 0.771875 0.003125
0.256250 0.771875 0.003125
0.325000 0.771875 0.003125
0.393750 0.771875 0.003125
0.462500 0.771875 0.003125
0.531250 0.771875 0.003125
0.600000 0.771875 0.003125
0.668750 0.771875 0.003125
0.737500 0.771875 0.003125
0.806250 0.771875 0.003125
0.875000 0.771875 0.003125
0.943750 0.771875 0.003125
1.000000 0.771875 0.003125
1.000000 0.771875 0.003125
1.000000 0.771875 0.003125
0.050000 0.831250 0.003125
0.118750 0.831250 0.003125
0.187500 0.831250 0.003125
0.256250 0.831250 0.003125
0.325000 0.831250 0.003125
0.393750 0.831250 0.003125
0.462500 0.831250 0.003125
0.531250 0.831250 0.003125
0.600000 0.831250 0.003125
0.668750 0.831250 0.003125
0.737500 0.831250 0.003125
0.806250 0.831250 0.003125
0.875000 0.831250 0.003125
0.943750 0.831250 0.003125
1.000000 0.831250 0.003125
1.000000 0.831250 0.003125
1.000000 0.831250 0.003125
0.050000 0.890625 0.003125
0.118750 0.890625 0.003125
0.187500 0.890625 0.003125
0.256250 0.890625 0.003125
0.325000 0.890625 0.003125
0.393750 0.890625 0.003125
0.462500 0.890625 0.003125
0.531250 0.890625 0.003125
0.600000 0.890625 0.003125
0.668750 0.890625 0.003125
0.737500 0.890625 0.003125
0.806250 0.890625 0.003125
0.875000 0.890625 0.003125
0.943750 0.890625 0.003125
1.000000 0.890625 0.003125
1.000000 0.890625 0.003125
1.000000 0.890625 0.003125
0.050000 0.950000 0.003125
0.118750 0.950000 0.003125
0.187500 0.950000 0.003125
0.256250 0.950000 0.003125
0.325000 0.950000 0.003125
0.393750 0.950000 0.003125
0.462500 0.950000 0.003125
0.531250 0.950000 0.003125
0.600000 0.950000 0.003125
0.668750 0.950000 0.003125
0.737500 0.950000 0.003125
0.806250 0.950000 0.003125
0.875000 0.950000 0.003125
0.943750 0.950000 0.003125
1.000000 0.950000 0.003125
1.000000 0.950000 0.003125
1.000000 0.950000 0.003125
0.050000 0.000000 0.056250
0.118750 0.000000 0.056250
0.187500 0.000000 0.056250
0.256250 0.000000 0.056250
0.325000 0.000000 0.056250
0.393750 0.000000 0.056250
0.462500 0.000000 0.056250
0.531250 0.000000 0.056250
0.600000 0.000000 0.056250
0.668750 0.000000 0.056250
0.737500 0.000000 0.056250
0.806250 0.000000 0.056250
0.875000 0.000000 0.056250
0.943750 0.000000 0.056250
1.000000 0.000000 0.056250
1.000000 0.000000 0.056250
1.000000 0.000000 0.056250
0.050000 0.059375 0.056250
0.118750 0.059375 0.056250
0.187500 0.059375 0.056250
0.256250 0.059375 0.056250
0.325000 0.059375 0.056250
0.393750 0.059375 0.056250
0.462500 0.059375 0.056250
0.531250 0.059375 0.056250
0.600000 0.059375 0.056250
0.668750 0.059375 0.056250
0.737500 0.059375 0.056250
0.806250 0.059375 0.056250
0.875000 0.059375 0.056250
0.943750 0.059375 0.056250
1.000000 0.059375 0.056250
1.000000 0.059375 0.056250
1.000000 0.059375 0.056250
0.050000 0.118750 0.056250
0.118750 0.118750 0.056250
0.187500 0.118750 0.056250
0.256250 0.118750 0.056250
0.325000 0.118750 0.056250
0.393750 0.118750 0.056250
0.462500 0.118750 0.056250
0.531250 0.118750 0.056250
0.600000 0.118750 0.056250
0.668750 0.118750 0.056250
0.737500 0.118750 0.056250
0.806250 0.118750 0.056250
0.875000 0.118750 0.056250
0.943750 0.118750 0.056250
1.000000 0.118750 0.056250
1.000000 0.118750 0.056250
1.000000 0.118750 0.056250
0.050000 0.178125 0.056250
0.118750 0.178125 0.056250
0.187500 0.178125 0.056250
0.256250 0.178125 0.056250
0.325000 0.178125 0.056250
0.393750 0.178125 0.056250
0.462500 0.178125 0.056250
0.531250 0.178125 0.056250
0.600000 0.178125 0.056250
0.668750 0.178125 0.056250
0.737500 0.178125 0.056250
0.806250 0.178125 0.056250
0.875000 0.178125 0.056250
0.943750 0.178125 0.056250
1.000000 0.178125 0.056250
1.000000 0.178125 0.056250
1.000000 0.178125 0.056250
0.050000 0.237500 0.056250
0.118750 0.237500 0.056250
0.187500 0.237500 0.056250
0.256250 0.237500 0.056250
0.325000 0.237500 0.056250
0.393750 0.237500 0.056250
0.462500 0.237500 0.056250
0.531250 0.237500 0.056250
0.600000 0.237500 0.056250
0.668750 0.237500 0.056250
0.737500 0.237500 0.056250
0.806250 0.237500 0.056250
0.875000 0.237500 0.056250
0.943750 0.237500 0.056250
1.000000 0.237500 0.056250
1.000000 0.237500 0.056250
1.000000 0.237500 0.056250
0.050000 0.296875 0.056250
0.118750 0.296875 0.056250
0.187500 0.296875 0.056250
0.256250 0.296875 0.056250
0.325000 0.296875 0.056250
0.393750 0.296875 0.056250
0.462500 0.296875 0.056250
0.531250 0.296875 0.056250
0.600000 0.296875 0.056250
0.668750 0.296875 0.056250
0.737500 0.296875 0.056250
0.806250 0.296875 0.056250
0.875000 0.296875 0.056250
0.943750 0.296875 0.056250
1.000000 0.296875 0.056250
1.000000 0.296875 0.056250
1.000000 0.296875 0.056250
0.050000 0.356250 0.056250
0.118750 0.356250 0.056250
0.187500 0.356250 0.056250
0.256250 0.356250 0.056250
0.325000 0.356250 0.056250
0.393750 0.356250 0.056250
0.462500 0.356250 0.056250
0.531250 0.356250 0.056250
0.600000 0.356250 0.056250
0.668750 0.356250 0.056250
0.737500 0.356250 0.056250
0.806250 0.356250 0.056250
0.875000 0.356250 0.056250
0.943750 0.356250 0.056250
1.000000 0.356250 0.056250
1.000000 0.356250 0.056250
1.000000 0.356250 0.056250
0.050000 0.415625 0.056250
0.118750 0.415625 0.056250
0.187500 0.415625 0.056250
0.256250 0.415625 0.056250
0.325000 0.415625 0.056250
0.393750 0.415625 0.056250
0.462500 0.415625 0.056250
0.531250 0.415625 0.056250
0.600000 0.415625 0.056250
0.668750 0.415625 0.056250
0.737500 0.415625 0.056250
0.806250 0.415625 0.056250
0.875000 0.415625 0.056250
0.943750 0.415625 0.056250
1.000000 0.415625 0.056250
1.000000 0.415625 0.056250
1.000000 0.415625 0.056250
0.050000 0.475000 0.056250
0.118750 0.475000 0.056250
0.187500 0.475000 0.056250
0.256250 0.475000 0.056250
0.325000 0.475000 0.056250
0.393750 0.475000 0.056250
0.462500 0.475000 0.056250
0.531250 0.475000 0.056250
0.600000 0.475000 0.056250
0.668750 0.475000 0.056250
0.737500 0.475000 0.056250
0.806250 0.475000 0.056250
0.875000 0.475000 0.056250
0.943750 0.475000 0.056250
1.000000 0.475000 0.056250
1.000000 0.475000 0.056250
1.000000 0.475000 0.056250
0.050000 0.534375 0.056250
0.118750 0.534375 0.056250
0.187500 0.534375 0.056250
0.256250 0.534375 0.056250
0.325000 0.534375 0.056250
0.393750 0.534375 0.056250
0.462500 0.534375 0.056250
0.531250 0.534375 0.056250
0.600000 0.534375 0.056250
0.668750 0.534375 0.056250
0.737500 0.534375 0.056250
0.806250 0.534375 0.056250
0.875000 0.534375 0.056250
0.943750 0.534375 0.056250
1.000000 0.534375 0.056250
1.000000 0.534375 0.056250
1.000000 0.534375 0.056250
0.050000 0.593750 0.056250
0.118750 0.593750 0.056250
0.187500 0.593750 0.056250
0.256250 0.593750 0.056250
0.325000 0.593750 0.056250
0.393750 0.593750 0.056250
0.462500 0.593750 0.056250
0.531250 0.593750 0.056250
0.600000 0.593750 0.056250
0.668750 0.593750 0.056250
0.737500 0.593750 0.056250
0.806250 0.593750 0.056250
0.875000 0.593750 0.056250
0.943750 0.593750 0.056250
1.000000 0.593750 0.056250
1.000000 0.593750 0.056250
1.000000 0.593750 0.056250
0.050000 0.653125 0.056250
0.118750 0.653125 0.056250
0.187500 0.653125 0.056250
0.256250 0.653125 0.056250
0.325000 0.653125 0.056250
0.393750 0.653125 0.056250
0.462500 0.653125 0.056250
0.531250 0.653125 0.056250
0.600000 0.653125 0.056250
0.668750 0.653125 0.056250
0.737500 0.653125 0.056250
0.806250 0.653125 0.056250
0.875000 0.653125 0.056250
0.943750 0.653125 0.056250
1.000000 0.653125 0.056250
1.000000 0.653125 0.056250
1.000000 0.653125 0.056250
0.050000 0.712500 0.056250
0.118750 0.712500 0.056250
0.187500 0.712500 0.056250
0.256250 0.712500 0.056250
0.325000 0.712500 0.056250
0.393750 0.712500 0.056250
0.462500 0.712500 0.056250
0.531250 0.712500 0.056250
0.600000 0.712500 0.056250
0.668750 0.712500 0.056250
0.737500 0.712500 0.056250
0.806250 0.712500 0.056250
0.875000 0.712500 0.056250
0.943750 0.712500 0.056250
1.000000 0.712500 0.056250
1.000000 0.712500 0.056250
1.000000 0.712500 0.056250
0.050000 0.771875 0.056250
0.118750 0.771875 0.056250
0.187500 0.771875 0.056250
0.256250 0.771875 0.056250
0.325000 0.771875 0.056250
0.393750 0.771875 0.056250
0.462500 0.771875 0.056250
0.531250 0.771875 0.056250
0.600000 0.771875 0.056250
0.668750 0.771875 0.056250
0.737500 0.771875 0.056250
0.806250 0.771875 0.056250
0.875000 0.771875 0.056250
0.943750 0.771875 0.056250
1.000000 0.771875 0.056250
1.000000 0.771875 0.056250
1.000000 0.771875 0.056250
0.050000 0.831250 0.056250
0.118750 0.831250 0.056250
0.187500 0.831250 0.056250
0.256250 0.831250 0.056250
0.325000 0.831250 0.056250
0.393750 0.831250 0.056250
0.462500 0.831250 0.056250
0.531250 0.831250 0.056250
0.600000 0.831250 0.056250
0.668750 0.831250 0.056250
0.737500 0.831250 0.056250
0.806250 0.831250 0.056250
0.875000 0.831250 0.056250
0.943750 0.831250 0.056250
1.000000 0.831250 0.056250
1.000000 0.831250 0.056250
1.000000 0.831250 0.056250
0.050000 0.890625 0.056250
0.118750 0.890625 0.056250
0.187500 0.890625 0.056250
0.256250 0.890625 0.056250
0.325000 0.890625 0.056250
0.393750 0.890625 0.056250
0.462500 0.890625 0.056250
0.531250 0.890625 0.056250
0.600000 0.890625 0.056250
0.668750 0.890625 0.056250
0.737500 0.890625 0.056250
0.806250 0.890625 0.056250
0.875000 0.890625 0.056250
0.943750 0.890625 0.056250
1.000000 0.890625 0.056250
1.000000 0.890625 0.056250
1.000000 0.890625 0.056250
0.050000 0.950000 0.056250
0.118750 0.950000 0.056250
0.187500 0.950000 0.056250
0.256250 0.950000 0.056250
0.325000 0.950000 0.056250
0.393750 0.950000 0.056250
0.462500 0.950000 0.056250
0.531250 0.950000 0.056250
0.600000 0.950000 0.056250
0.668750 0.950000 0.056250
0.737500 0.950000 0.056250
0.806250 0.950000 0.056250
0.875000 0.950000 0.056250
0.943750 0.950000 0.056250
1.000000 0.950000 0.056250
1.000000 0.950000 0.056250
1.000000 0.950000 0.056250
0.050000 0.000000 0.109375
0.118750 0.000000 0.109375
0.187500 0.000000 0.109375
0.256250 0.000000 0.109375
0.325000 0.000000 0.109375
0.393750 0.000000 0.109375
0.462500 0.000000 0.109375
0.531250 0.000000 0.109375
0.600000 0.000000 0.109375
0.668750 0.000000 0.109375
0.737500 0.000000 0.109375
0.806250 0.000000 0.109375
0.875000 0.000000 0.109375
0.943750 0.000000 0.109375
1.000000 0.000000 0.109375
1.000000 0.000000 0.109375
