luts/Warm_Tone.cube
# Warm_Tone LUT
# Created for MachinePaintingNodes testing
TITLE "Warm_Tone"
LUT_3D_SIZE 9
DOMAIN_MIN 0.0 0.0 0.0
DOMAIN_MAX 1.0 1.0 1.0
0.050000 0.000000 0.000000
0.187500 0.000000 0.000000
0.325000 0.000000 0.000000
0.462500 0.000000 0.000000
0.600000 0.000000 0.000000
0.737500 0.000000 0.000000
0.875000 0.000000 0.000000
1.000000 0.000000 0.000000
1.000000 0.000000 0.000000
0.050000 0.118750 0.000000
0.187500 0.118750 0.000000
0.325000 0.118750 0.000000
0.462500 0.118750 0.000000
0.600000 0.118750 0.000000
0.737500 0.118750 0.000000
0.875000 0.118750 0.000000
1.000000 0.118750 0.000000
1.000000 0.118750 0.000000
0.050000 0.237500 0.000000
0.187500 0.237500 0.000000
0.325000 0.237500 0.000000
0.462500 0.237500 0.000000
0.600000 0.237500 0.000000
0.737500 0.237500 0.000000
0.875000 0.237500 0.000000
1.000000 0.237500 0.000000
1.000000 0.237500 0.000000
0.050000 0.356250 0.000000
0.187500 0.356250 0.000000
0.325000 0.356250 0.000000
0.462500 0.356250 0.000000
0.600000 0.356250 0.000000
0.737500 0.356250 0.000000
0.875000 0.356250 0.000000
1.000000 0.356250 0.000000
1.000000 0.356250 0.000000
0.050000 0.475000 0.000000
0.187500 0.475000 0.000000
0.325000 0.475000 0.000000
0.462500 0.475000 0.000000
0.600000 0.475000 0.000000
0.737500 0.475000 0.000000
0.875000 0.475000 0.000000
1.000000 0.475000 0.000000
1.000000 0.475000 0.000000
0.050000 0.593750 0.000000
0.187500 0.593750 0.000000
0.325000 0.593750 0.000000
0.462500 0.593750 0.000000
0.600000 0.593750 0.000000
0.737500 0.593750 0.000000
0.875000 0.593750 0.000000
1.000000 0.593750 0.000000
1.000000 0.593750 0.000000
0.050000 0.712500 0.000000
0.187500 0.712500 0.000000
0.325000 0.712500 0.000000
0.462500 0.712500 0.000000
0.600000 0.712500 0.000000
0.737500 0.712500 0.000000
0.875000 0.712500 0.000000
1.000000 0.712500 0.000000
1.000000 0.712500 0.000000
0.050000 0.831250 0.000000
0.187500 0.831250 0.000000
0.325000 0.831250 0.000000
0.462500 0.831250 0.000000
0.600000 0.831250 0.000000
0.737500 0.831250 0.000000
0.875000 0.831250 0.000000
1.000000 0.831250 0.000000
1.000000 0.831250 0.000000
0.050000 0.950000 0.000000
0.187500 0.950000 0.000000
0.325000 0.950000 0.000000
0.462500 0.950000 0.000000
0.600000 0.950000 0.000000
0.737500 0.950000 0.000000
0.875000 0.950000 0.000000
1.000000 0.950000 0.000000
1.000000 0.950000 0.000000
0.050000 0.000000 0.056250
0.187500 0.000000 0.056250
0.325000 0.000000 0.056250
0.462500 0.000000 0.056250
0.600000 0.000000 0.056250
0.737500 0.000000 0.056250
0.875000 0.000000 0.056250
1.000000 0.000000 0.056250
1.000000 0.000000 0.056250
0.050000 0.118750 0.056250
0.187500 0.118750 0.056250
0.325000 0.118750 0.056250
0.462500 0.118750 0.056250
0.600000 0.118750 0.056250
0.737500 0.118750 0.056250
0.875000 0.118750 0.056250
1.000000 0.118750 0.056250
1.000000 0.118750 0.056250
0.050000 0.237500 0.056250
0.187500 0.237500 0.056250
0.325000 0.237500 0.056250
0.462500 0.237500 0.056250
0.600000 0.237500 0.056250
0.737500 0.237500 0.056250
0.875000 0.237500 0.056250
1.000000 0.237500 0.056250
1.000000 0.237500 0.056250
0.050000 0.356250 0.056250
0.187500 0.356250 0.056250
0.325000 0.356250 0.056250
0.462500 0.356250 0.056250
0.600000 0.356250 0.056250
0.737500 0.356250 0.056250
0.875000 0.356250 0.056250
1.000000 0.356250 0.056250
1.000000 0.356250 0.056250
0.050000 0.475000 0.056250
0.187500 0.475000 0.056250
0.325000 0.475000 0.056250
0.462500 0.475000 0.056250
0.600000 0.475000 0.056250
0.737500 0.475000 0.056250
0.875000 0.475000 0.056250
1.000000 0.475000 0.056250
1.000000 0.475000 0.056250
0.050000 0.593750 0.056250
0.187500 0.593750 0.056250
0.325000 0.593750 0.056250
0.462500 0.593750 0.056250
0.600000 0.593750 0.056250
0.737500 0.593750 0.056250
0.875000 0.593750 0.056250
1.000000 0.593750 0.056250
1.000000 0.593750 0.056250
0.050000 0.712500 0.056250
0.187500 0.712500 0.056250
0.325000 0.712500 0.056250
0.462500 0.712500 0.056250
0.600000 0.712500 0.056250
0.737500 0.712500 0.056250
0.875000 0.712500 0.056250
1.000000 0.712500 0.056250
1.000000 0.712500 0.056250
0.050000 0.831250 0.056250
0.187500 0.831250 0.056250
0.325000 0.831250 0.056250
0.462500 0.831250 0.056250
0.600000 0.831250 0.056250
0.737500 0.831250 0.056250
0.875000 0.831250 0.056250
1.000000 0.831250 0.056250
1.000000 0.831250 0.056250
0.050000 0.950000 0.056250
0.187500 0.950000 0.056250
0.325000 0.950000 0.056250
0.462500 0.950000 0.056250
0.600000 0.950000 0.056250
0.737500 0.950000 0.056250
0.875000 0.950000 0.056250
1.000000 0.950000 0.056250
1.000000 0.950000 0.056250
0.050000 0.000000 0.162500
0.187500 0.000000 0.162500
0.325000 0.000000 0.162500
0.462500 0.000000 0.162500
0.600000 0.000000 0.162500
0.737500 0.000000 0.162500
0.875000 0.000000 0.162500
1.000000 0.000000 0.162500
1.000000 0.000000 0.162500
0.050000 0.118750 0.162500
0.187500 0.118750 0.162500
0.325000 0.118750 0.162500
0.462500 0.118750 0.162500
0.600000 0.118750 0.162500
0.737500 0.118750 0.162500
0.875000 0.118750 0.162500
1.000000 0.118750 0.162500
1.000000 0.118750 0.162500
0.050000 0.237500 0.162500
0.187500 0.237500 0.162500
0.325000 0.237500 0.162500
0.462500 0.237500 0.162500
0.600000 0.237500 0.162500
0.737500 0.237500 0.162500
0.875000 0.237500 0.162500
1.000000 0.237500 0.162500
1.000000 0.237500 0.162500
0.050000 0.356250 0.162500
0.187500 0.356250 0.162500
0.325000 0.356250 0.162500
0.462500 0.356250 0.162500
0.600000 0.356250 0.162500
0.737500 0.356250 0.162500
0.875000 0.356250 0.162500
1.000000 0.356250 0.162500
1.000000 0.356250 0.162500
0.050000 0.475000 0.162500
0.187500 0.475000 0.162500
0.325000 0.475000 0.162500
0.462500 0.475000 0.162500
0.600000 0.475000 0.162500
0.737500 0.475000 0.162500
0.875000 0.475000 0.162500
1.000000 0.475000 0.162500
1.000000 0.475000 0.162500
0.050000 0.593750 0.162500
0.187500 0.593750 0.162500
0.325000 0.593750 0.162500
0.462500 0.593750 0.162500
0.600000 0.593750 0.162500
0.737500 0.593750 0.162500
0.875000 0.593750 0.162500
1.000000 0.593750 0.162500
1.000000 0.593750 0.162500
0.050000 0.712500 0.162500
0.187500 0.712500 0.162500
0.325000 0.712500 0.162500
0.462500 0.712500 0.162500
0.600000 0.712500 0.162500
0.737500 0.712500 0.162500
0.875000 0.712500 0.162500
1.000000 0.712500 0.162500
1.000000 0.712500 0.162500
0.050000 0.831250 0.162500
0.187500 0.831250 0.162500
0.325000 0.831250 0.162500
0.462500 0.831250 0.162500
0.600000 0.831250 0.162500
0.737500 0.831250 0.162500
0.875000 0.831250 0.162500
1.000000 0.831250 0.162500
1.000000 0.831250 0.162500
0.050000 0.950000 0.162500
0.187500 0.950000 0.162500
0.325000 0.950000 0.162500
0.462500 0.950000 0.162500
0.600000 0.950000 0.162500
0.737500 0.950000 0.162500
0.875000 0.950000 0.162500
1.000000 0.950000 0.162500
1.000000 0.950000 0.162500
0.050000 0.000000 0.268750
0.187500 0.000000 0.268750
0.325000 0.000000 0.268750
0.462500 0.000000 0.268750
0.600000 0.000000 0.268750
0.737500 0.000000 0.268750
0.875000 0.000000 0.268750
1.000000 0.000000 0.268750
1.000000 0.000000 0.268750
0.050000 0.118750 0.268750
0.187500 0.118750 0.268750
0.325000 0.118750 0.268750
0.462500 0.118750 0.268750
0.600000 0.118750 0.268750
0.737500 0.118750 0.268750
0.875000 0.118750 0.268750
1.000000 0.118750 0.268750
1.000000 0.118750 0.268750
0.050000 0.237500 0.268750
0.187500 0.237500 0.268750
0.325000 0.237500 0.268750
0.462500 0.237500 0.268750
0.600000 0.237500 0.268750
0.737500 0.237500 0.268750
0.875000 0.237500 0.268750
1.000000 0.237500 0.268750
1.000000 0.237500 0.268750
0.050000 0.356250 0.268750
0.187500 0.356250 0.268750
0.325000 0.356250 0.268750
0.462500 0.356250 0.268750
0.600000 0.356250 0.268750
0.737500 0.356250 0.268750
0.875000 0.356250 0.268750
1.000000 0.356250 0.268750
1.000000 0.356250 0.268750
0.050000 0.475000 0.268750
0.187500 0.475000 0.268750
0.325000 0.475000 0.268750
0.462500 0.475000 0.268750
0.600000 0.475000 0.268750
0.737500 0.475000 0.268750
0.875000 0.475000 0.268750
1.000000 0.475000 0.268750
1.000000 0.475000 0.268750
0.050000 0.593750 0.268750
0.187500 0.593750 0.268750
0.325000 0.593750 0.268750
0.462500 0.593750 0.268750
0.600000 0.593750 0.268750
0.737500 0.593750 0.268750
0.875000 0.593750 0.268750
1.000000 0.593750 0.268750
1.000000 0.593750 0.268750
0.050000 0.712500 0.268750
0.187500 0.712500 0.268750
0.325000 0.712500 0.268750
0.462500 0.712500 0.268750
0.600000 0.712500 0.268750
0.737500 0.712500 0.268750
0.875000 0.712500 0.268750
1.000000 0.712500 0.268750
1.000000 0.712500 0.268750
0.050000 0.831250 0.268750
0.187500 0.831250 0.268750
0.325000 0.831250 0.268750
0.462500 0.831250 0.268750
0.600000 0.831250 0.268750
0.737500 0.831250 0.268750
0.875000 0.831250 0.268750
1.000000 0.831250 0.268750
1.000000 0.831250 0.268750
0.050000 0.950000 0.268750
0.187500 0.950000 0.268750
0.325000 0.950000 0.268750
0.462500 0.950000 0.268750
0.600000 0.950000 0.268750
0.737500 0.950000 0.268750
0.875000 0.950000 0.268750
1.000000 0.950000 0.268750
1.000000 0.950000 0.268750
0.050000 0.000000 0.375000
0.187500 0.000000 0.375000
0.325000 0.000000 0.375000
0.462500 0.000000 0.375000
0.600000 0.000000 0.375000
0.737500 0.000000 0.375000
0.875000 0.000000 0.375000
1.000000 0.000000 0.375000
1.000000 0.000000 0.375000
0.050000 0.118750 0.375000
0.187500 0.118750 0.375000
0.325000 0.118750 0.375000
0.462500 0.118750 0.375000
0.600000 0.118750 0.375000
0.737500 0.118750 0.375000
0.875000 0.118750 0.375000
1.000000 0.118750 0.375000
1.000000 0.118750 0.375000
0.050000 0.237500 0.375000
0.187500 0.237500 0.375000
0.325000 0.237500 0.375000
0.462500 0.237500 0.375000
0.600000 0.237500 0.375000
0.737500 0.237500 0.375000
0.875000 0.237500 0.375000
1.000000 0.237500 0.375000
1.000000 0.237500 0.375000
0.050000 0.356250 0.375000
0.187500 0.356250 0.375000
0.325000 0.356250 0.375000
0.462500 0.356250 0.375000
0.600000 0.356250 0.375000
0.737500 0.356250 0.375000
0.875000 0.356250 0.375000
1.000000 0.356250 0.375000
1.000000 0.356250 0.375000
0.050000 0.475000 0.375000
0.187500 0.475000 0.375000
0.325000 0.475000 0.375000
0.462500 0.475000 0.375000
0.600000 0.475000 0.375000
0.737500 0.475000 0.375000
0.875000 0.475000 0.375000
1.000000 0.475000 0.375000
1.000000 0.475000 0.375000
0.050000 0.593750 0.375000
0.187500 0.593750 0.375000
0.325000 0.593750 0.375000
0.462500 0.593750 0.375000
0.600000 0.593750 0.375000
0.737500 0.593750 0.375000
0.875000 0.593750 0.375000
1.000000 0.593750 0.375000
1.000000 0.593750 0.375000
0.050000 0.712500 0.375000
0.187500 0.712500 0.375000
0.325000 0.712500 0.375000
0.462500 0.712500 0.375000
0.600000 0.712500 0.375000
0.737500 0.712500 0.375000
0.875000 0.712500 0.375000
1.000000 0.712500 0.375000
1.000000 0.712500 0.375000
0.050000 0.831250 0.375000
0.187500 0.831250 0.375000
0.325000 0.831250 0.375000
0.462500 0.831250 0.375000
0.600000 0.831250 0.375000
0.737500 0.831250 0.375000
0.875000 0.831250 0.375000
1.000000 0.831250 0.375000
1.000000 0.831250 0.375000
0.050000 0.950000 0.375000
0.187500 0.950000 0.375000
0.325000 0.950000 0.375000
0.462500 0.950000 0.375000
0.600000 0.950000 0.375000
0.737500 0.950000 0.375000
0.875000 0.950000 0.375000
1.000000 0.950000 0.375000
1.000000 0.950000 0.375000
0.050000 0.000000 0.481250
0.187500 0.000000 0.481250
0.325000 0.000000 0.481250
0.462500 0.000000 0.481250
0.600000 0.000000 0.481250
0.737500 0.000000 0.481250
0.875000 0.000000 0.481250
1.000000 0.000000 0.481250
1.000000 0.000000 0.481250
0.050000 0.118750 0.481250
0.187500 0.118750 0.481250
0.325000 0.118750 0.481250
0.462500 0.118750 0.481250
0.600000 0.118750 0.481250
0.737500 0.118750 0.481250
0.875000 0.118750 0.481250
1.000000 0.118750 0.481250
1.000000 0.118750 0.481250
0.050000 0.237500 0.481250
0.187500 0.237500 0.481250
0.325000 0.237500 0.481250
0.462500 0.237500 0.481250
0.600000 0.237500 0.481250
0.737500 0.237500 0.481250
0.875000 0.237500 0.481250
1.000000 0.237500 0.481250
1.000000 0.237500 0.481250
0.050000 0.356250 0.481250
0.187500 0.356250 0.481250
0.325000 0.356250 0.481250
0.462500 0.356250 0.481250
0.600000 0.356250 0.481250
0.737500 0.356250 0.481250
0.875000 0.356250 0.481250
1.000000 0.356250 0.481250
1.000000 0.356250 0.481250
0.050000 0.475000 0.481250
0.187500 0.475000 0.481250
0.325000 0.475000 0.481250
0.462500 0.475000 0.481250
0.600000 0.475000 0.481250
0.737500 0.475000 0.481250
0.875000 0.475000 0.481250
1.000000 0.475000 0.481250
1.000000 0.475000 0.481250
0.050000 0.593750 0.481250
0.187500 0.593750 0.481250
0.325000 0.593750 0.481250
0.462500 0.593750 0.481250
0.600000 0.593750 0.481250
0.737500 0.593750 0.481250
0.875000 0.593750 0.481250
1.000000 0.593750 0.481250
1.000000 0.593750 0.481250
0.050000 0.712500 0.481250
0.187500 0.712500 0.481250
0.325000 0.712500 0.481250
0.462500 0.712500 0.481250
0.600000 0.712500 0.481250
0.737500 0.712500 0.481250
0.875000 0.712500 0.481250
1.000000 0.712500 0.481250
1.000000 0.712500 0.481250
0.050000 0.831250 0.481250
0.187500 0.831250 0.481250
0.325000 0.831250 0.481250
0.462500 0.831250 0.481250
0.600000 0.831250 0.481250
0.737500 0.831250 0.481250
0.875000 0.831250 0.481250
1.000000 0.831250 0.481250
1.000000 0.831250 0.481250
0.050000 0.950000 0.481250
0.187500 0.950000 0.481250
0.325000 0.950000 0.481250
0.462500 0.950000 0.481250
0.600000 0.950000 0.481250
0.737500 0.950000 0.481250
0.875000 0.950000 0.481250
1.000000 0.950000 0.481250
1.000000 0.950000 0.481250
0.050000 0.000000 0.587500
0.187500 0.000000 0.587500
0.325000 0.000000 0.587500
0.462500 0.000000 0.587500
0.600000 0.000000 0.587500
0.737500 0.000000 0.587500
0.875000 0.000000 0.587500
1.000000 0.000000 0.587500
1.000000 0.000000 0.587500
0.050000 0.118750 0.587500
0.187500 0.118750 0.587500
0.325000 0.118750 0.587500
0.462500 0.118750 0.587500
0.600000 0.118750 0.587500
0.737500 0.118750 0.587500
0.875000 0.118750 0.587500
1.000000 0.118750 0.587500
1.000000 0.118750 0.587500
0.050000 0.237500 0.587500
0.187500 0.237500 0.587500
0.325000 0.237500 0.587500
0.462500 0.237500 0.587500
0.600000 0.237500 0.587500
0.737500 0.237500 0.587500
0.875000 0.237500 0.587500
1.000000 0.237500 0.587500
1.000000 0.237500 0.587500
0.050000 0.356250 0.587500
0.187500 0.356250 0.587500
0.325000 0.356250 0.587500
0.462500 0.356250 0.587500
0.600000 0.356250 0.587500
0.737500 0.356250 0.587500
0.875000 0.356250 0.587500
1.000000 0.356250 0.587500
1.000000 0.356250 0.587500
0.050000 0.475000 0.587500
0.187500 0.475000 0.587500
0.325000 0.475000 0.587500
0.462500 0.475000 0.587500
0.600000 0.475000 0.587500
0.737500 0.475000 0.587500
0.875000 0.475000 0.587500
1.000000 0.475000 0.587500
1.000000 0.475000 0.587500
0.050000 0.593750 0.587500
0.187500 0.593750 0.587500
0.325000 0.593750 0.587500
0.462500 0.593750 0.587500
0.600000 0.593750 0.587500
0.737500 0.593750 0.587500
0.875000 0.593750 0.587500
1.000000 0.593750 0.587500
1.000000 0.593750 0.587500
0.050000 0.712500 0.587500
0.187500 0.712500 0.587500
0.325000 0.712500 0.587500
0.462500 0.712500 0.587500
0.600000 0.712500 0.587500
0.737500 0.712500 0.587500
0.875000 0.712500 0.587500
1.000000 0.712500 0.587500
1.000000 0.712500 0.587500
0.050000 0.831250 0.587500
0.187500 0.831250 0.587500
0.325000 0.831250 0.587500
0.462500 0.831250 0.587500
0.600000 0.831250 0.587500
0.737500 0.831250 0.587500
0.875000 0.831250 0.587500
1.000000 0.831250 0.587500
1.000000 0.831250 0.587500
0.050000 0.950000 0.587500
0.187500 0.950000 0.587500
0.325000 0.950000 0.587500
0.462500 0.950000 0.587500
0.600000 0.950000 0.587500
0.737500 0.950000 0.587500
0.875000 0.950000 0.587500
1.000000 0.950000 0.587500
1.000000 0.950000 0.587500
0.050000 0.000000 0.693750
0.187500 0.000000 0.693750
0.325000 0.000000 0.693750
0.462500 0.000000 0.693750
0.600000 0.000000 0.693750
0.737500 0.000000 0.693750
0.875000 0.000000 0.693750
1.000000 0.000000 0.693750
1.000000 0.000000 0.693750
0.050000 0.118750 0.693750
0.187500 0.118750 0.693750
0.325000 0.118750 0.693750
0.462500 0.118750 0.693750
0.600000 0.118750 0.693750
0.737500 0.118750 0.693750
0.875000 0.118750 0.693750
1.000000 0.118750 0.693750
1.000000 0.118750 0.693750
0.050000 0.237500 0.693750
0.187500 0.237500 0.693750
0.325000 0.237500 0.693750
0.462500 0.237500 0.693750
0.600000 0.237500 0.693750
0.737500 0.237500 0.693750
0.875000 0.237500 0.693750
1.000000 0.237500 0.693750
1.000000 0.237500 0.693750
0.050000 0.356250 0.693750
0.187500 0.356250 0.693750
0.325000 0.356250 0.693750
0.462500 0.356250 0.693750
0.600000 0.356250 0.693750
0.737500 0.356250 0.693750
0.875000 0.356250 0.693750
1.000000 0.356250 0.693750
1.000000 0.356250 0.693750
0.050000 0.475000 0.693750
0.187500 0.475000 0.693750
0.325000 0.475000 0.693750
0.462500 0.475000 0.693750
0.600000 0.475000 0.693750
0.737500 0.475000 0.693750
0.875000 0.475000 0.693750
1.000000 0.475000 0.693750
1.000000 0.475000 0.693750
0.050000 0.593750 0.693750
0.187500 0.593750 0.693750
0.325000 0.593750 0.693750
0.462500 0.593750 0.693750
0.600000 0.593750 0.693750
0.737500 0.593750 0.693750
0.875000 0.593750 0.693750
1.000000 0.593750 0.693750
1.000000 0.593750 0.693750
0.050000 0.712500 0.693750
0.187500 0.712500 0.693750
0.325000 0.712500 0.693750
0.462500 0.712500 0.693750
0.600000 0.712500 0.693750
0.737500 0.712500 0.693750
0.875000 0.712500 0.693750
1.000000 0.712500 0.693750
1.000000 0.712500 0.693750
0.050000 0.831250 0.693750
0.187500 0.831250 0.693750
0.325000 0.831250 0.693750
0.462500 0.831250 0.693750
0.600000 0.831250 0.693750
0.737500 0.831250 0.693750
0.875000 0.831250 0.693750
1.000000 0.831250 0.693750
1.000000 0.831250 0.693750
0.050000 0.950000 0.693750
0.187500 0.950000 0.693750
0.325000 0.950000 0.693750
0.462500 0.950000 0.693750
0.600000 0.950000 0.693750
0.737500 0.950000 0.693750
0.875000 0.950000 0.693750
1.000000 0.950000 0.693750
1.000000 0.950000 0.693750
0.050000 0.000000 0.800000
0.187500 0.000000 0.800000
0.325000 0.000000 0.800000
0.462500 0.000000 0.800000
0.600000 0.000000 0.800000
0.737500 0.000000 0.800000
0.875000 0.000000 0.800000
1.000000 0.000000 0.800000
1.000000 0.000000 0.800000
0.050000 0.118750 0.800000
0.187500 0.118750 0.800000
0.325000 0.118750 0.800000
0.462500 0.118750 0.800000
0.600000 0.118750 0.800000
0.737500 0.118750 0.800000
0.875000 0.118750 0.800000
1.000000 0.118750 0.800000
1.000000 0.118750 0.800000
0.050000 0.237500 0.800000
0.187500 0.237500 0.800000
0.325000 0.237500 0.800000
0.462500 0.237500 0.800000
0.600000 0.237500 0.800000
0.737500 0.237500 0.800000
0.875000 0.237500 0.800000
1.000000 0.237500 0.800000
1.000000 0.237500 0.800000
0.050000 0.356250 0.800000
0.187500 0.356250 0.800000
0.325000 0.356250 0.800000
0.462500 0.356250 0.800000
0.600000 0.356250 0.800000
0.737500 0.356250 0.800000
0.875000 0.356250 0.800000
1.000000 0.356250 0.800000
1.000000 0.356250 0.800000
0.050000 0.475000 0.800000
0.187500 0.475000 0.800000
0.325000 0.475000 0.800000
0.462500 0.475000 0.800000
0.600000 0.475000 0.800000
0.737500 0.475000 0.800000
0.875000 0.475000 0.800000
1.000000 0.475000 0.800000
1.000000 0.475000 0.800000
0.050000 0.593750 0.800000
0.187500 0.593750 0.800000
0.325000 0.593750 0.800000
0.462500 0.593750 0.800000
0.600000 0.593750 0.800000
0.737500 0.593750 0.800000
0.875000 0.593750 0.800000
1.000000 0.593750 0.800000
1.000000 0.593750 0.800000
0.050000 0.712500 0.800000
0.187500 0.712500 0.800000
0.325000 0.712500 0.800000
0.462500 0.712500 0.800000
0.600000 0.712500 0.800000
0.737500 0.712500 0.800000
0.875000 0.712500 0.800000
1.000000 0.712500 0.800000
1.000000 0.712500 0.800000
0.050000 0.831250 0.800000
0.187500 0.831250 0.800000
0.325000 0.831250 0.800000
0.462500 0.831250 0.800000
0.600000 0.831250 0.800000
0.737500 0.831250 0.800000
0.875000 0.831250 0.800000
1.000000 0.831250 0.800000
1.000000 0.831250 0.800000
0.050000 0.950000 0.800000
0.187500 0.950000 0.800000
0.325000 0.950000 0.800000
0.462500 0.950000 0.800000
0.600000 0.950000 0.800000
0.737500 0.950000 0.800000
0.875000 0.950000 0.800000
1.000000 0.950000 0.800000
1.000000 0.950000 0.800000
